android/app/src/main/assets/luts/Cool%20Tone.cube
TITLE "MirrorBridge Cool Tone"
# Generated by scripts/generate_luts.py with {"contrast": 1.02, "lift": 0.005, "saturation": 1.02, "temperature": -0.05}
LUT_3D_SIZE 9
DOMAIN_MIN 0.0 0.0 0.0
DOMAIN_MAX 1.0 1.0 1.0
0.0000000 0.0000000 0.0450000
0.0745079 0.0000000 0.0444579
0.2040157 0.0000000 0.0439157
0.3335236 0.0000000 0.0433736
0.4630315 0.0000000 0.0428315
0.5925393 0.0000000 0.0422894
0.7220472 0.0000000 0.0417472
0.8515551 0.0000000 0.0412051
0.9810630 0.0000000 0.0406630
0.0000000 0.1172262 0.0431762
0.0726841 0.1166841 0.0426341
0.2021920 0.1161420 0.0420920
0.3316999 0.1155999 0.0415498
0.4612077 0.1150577 0.0410077
0.5907156 0.1145156 0.0404656
0.7202235 0.1139735 0.0399235
0.8497313 0.1134313 0.0393813
0.9792392 0.1128892 0.0388392
0.0000000 0.2454525 0.0413525
0.0708604 0.2449103 0.0408103
0.2003682 0.2443682 0.0402682
0.3298761 0.2438261 0.0397261
0.4593840 0.2432840 0.0391840
0.5888918 0.2427418 0.0386418
0.7183997 0.2421997 0.0380997
0.8479076 0.2416576 0.0375576
0.9774154 0.2411154 0.0370154
0.0000000 0.3736787 0.0395287
0.0690366 0.3731366 0.0389866
0.1985445 0.3725945 0.0384445
0.3280523 0.3720523 0.0379023
0.4575602 0.3715102 0.0373602
0.5870681 0.3709681 0.0368181
0.7165759 0.3704259 0.0362759
0.8460838 0.3698838 0.0357338
0.9755917 0.3693417 0.0351917
0.0000000 0.5019050 0.0377050
0.0672128 0.5013628 0.0371628
0.1967207 0.5008207 0.0366207
0.3262286 0.5002786 0.0360786
0.4557364 0.4997364 0.0355364
0.5852443 0.4991943 0.0349943
0.7147522 0.4986522 0.0344522
0.8442601 0.4981100 0.0339100
0.9737679 0.4975679 0.0333679
0.0000000 0.6301312 0.0358812
0.0653891 0.6295891 0.0353391
0.1948969 0.6290469 0.0347969
0.3244048 0.6285048 0.0342548
0.4539127 0.6279627 0.0337127
0.5834205 0.6274205 0.0331705
0.7129284 0.6268784 0.0326284
0.8424363 0.6263363 0.0320863
0.9719442 0.6257942 0.0315442
0.0000000 0.7583574 0.0340574
0.0635653 0.7578153 0.0335153
0.1930732 0.7572732 0.0329732
0.3225810 0.7567311 0.0324310
0.4520889 0.7561889 0.0318889
0.5815968 0.7556468 0.0313468
0.7111047 0.7551047 0.0308047
0.8406125 0.7545625 0.0302625
0.9701204 0.7540204 0.0297204
0.0000000 0.8865837 0.0322337
0.0617415 0.8860415 0.0316915
0.1912494 0.8854994 0.0311494
0.3207573 0.8849573 0.0306073
0.4502652 0.8844152 0.0300652
0.5797730 0.8838730 0.0295230
0.7092809 0.8833309 0.0289809
0.8387888 0.8827888 0.0284388
0.9682966 0.8822466 0.0278966
0.0000000 1.0000000 0.0304099
0.0599178 1.0000000 0.0298678
0.1894257 1.0000000 0.0293257
0.3189335 1.0000000 0.0287835
0.4484414 1.0000000 0.0282414
0.5779493 1.0000000 0.0276993
0.7074571 1.0000000 0.0271571
0.8369650 1.0000000 0.0266150
0.9664729 1.0000000 0.0260729
0.0000000 0.0000000 0.1748659
0.0743238 0.0000000 0.1743238
0.2038316 0.0000000 0.1737816
0.3333395 0.0000000 0.1732395
0.4628474 0.0000000 0.1726974
0.5923552 0.0000000 0.1721552
0.7218631 0.0000000 0.1716131
0.8513710 0.0000000 0.1710710
0.9808789 0.0000000 0.1705289
0.0000000 0.1170421 0.1730421
0.0725000 0.1165000 0.1725000
0.2020079 0.1159579 0.1719579
0.3315157 0.1154157 0.1714157
0.4610236 0.1148736 0.1708736
0.5905315 0.1143315 0.1703315
0.7200393 0.1137894 0.1697894
0.8495472 0.1132472 0.1692472
0.9790551 0.1127051 0.1687051
0.0000000 0.2452684 0.1712184
0.0706762 0.2447262 0.1706762
0.2001841 0.2441841 0.1701341
0.3296920 0.2436420 0.1695920
0.4591999 0.2430999 0.1690499
0.5887077 0.2425577 0.1685077
0.7182156 0.2420156 0.1679656
0.8477235 0.2414735 0.1674235
0.9772313 0.2409313 0.1668813
0.0000000 0.3734946 0.1693946
0.0688525 0.3729525 0.1688525
0.1983604 0.3724104 0.1683103
0.3278682 0.3718682 0.1677682
0.4573761 0.3713261 0.1672261
0.5868840 0.3707840 0.1666840
0.7163918 0.3702418 0.1661418
0.8458997 0.3696997 0.1655997
0.9754076 0.3691576 0.1650576
0.0000000 0.5017208 0.1675708
0.0670287 0.5011787 0.1670287
0.1965366 0.5006366 0.1664866
0.3260445 0.5000945 0.1659445
0.4555523 0.4995523 0.1654023
0.5850602 0.4990102 0.1648602
0.7145681 0.4984681 0.1643181
0.8440759 0.4979259 0.1637759
0.9735838 0.4973838 0.1632338
0.0000000 0.6299471 0.1657471
0.0652050 0.6294050 0.1652050
0.1947128 0.6288628 0.1646628
0.3242207 0.6283207 0.1641207
0.4537286 0.6277786 0.1635786
0.5832364 0.6272364 0.1630364
0.7127443 0.6266943 0.1624943
0.8422522 0.6261522 0.1619522
0.9717600 0.6256100 0.1614100
0.0000000 0.7581733 0.1639233
0.0633812 0.7576312 0.1633812
0.1928891 0.7570891 0.1628391
0.3223969 0.7565469 0.1622969
0.4519048 0.7560048 0.1617548
0.5814127 0.7554627 0.1612127
0.7109205 0.7549206 0.1606705
0.8404284 0.7543784 0.1601284
0.9699363 0.7538363 0.1595863
0.0000000 0.8863996 0.1620996
0.0615574 0.8858574 0.1615574
0.1910653 0.8853153 0.1610153
0.3205732 0.8847732 0.1604732
0.4500810 0.8842311 0.1599310
0.5795889 0.8836889 0.1593889
0.7090968 0.8831468 0.1588468
0.8386047 0.8826047 0.1583047
0.9681125 0.8820625 0.1577625
0.0000000 1.0000000 0.1602758
0.0597337 1.0000000 0.1597337
0.1892415 1.0000000 0.1591916
0.3187494 1.0000000 0.1586494
0.4482573 1.0000000 0.1581073
0.5777652 1.0000000 0.1575652
0.7072730 1.0000000 0.1570230
0.8367809 1.0000000 0.1564809
0.9662888 1.0000000 0.1559388
0.0000000 0.0000000 0.3047318
0.0741396 0.0000000 0.3041897
0.2036475 0.0000000 0.3036475
0.3331554 0.0000000 0.3031054
0.4626633 0.0000000 0.3025633
0.5921711 0.0000000 0.3020211
0.7216790 0.0000000 0.3014790
0.8511869 0.0000000 0.3009369
0.9806947 0.0000000 0.3003947
0.0000000 0.1168580 0.3029080
0.0723159 0.1163159 0.3023659
0.2018238 0.1157738 0.3018238
0.3313316 0.1152316 0.3012816
0.4608395 0.1146895 0.3007395
0.5903474 0.1141474 0.3001974
0.7198552 0.1136052 0.2996552
0.8493631 0.1130631 0.2991131
0.9788710 0.1125210 0.2985710
0.0000000 0.2450843 0.3010843
0.0704921 0.2445421 0.3005421
0.2000000 0.2440000 0.3000000
0.3295079 0.2434579 0.2994579
0.4590157 0.2429157 0.2989157
0.5885236 0.2423736 0.2983736
0.7180315 0.2418315 0.2978315
0.8475394 0.2412894 0.2972894
0.9770472 0.2407472 0.2967472
0.0000000 0.3733105 0.2992605
0.0686684 0.3727684 0.2987184
0.1981762 0.3722262 0.2981762
0.3276841 0.3716841 0.2976341
0.4571920 0.3711420 0.2970920
0.5866998 0.3705998 0.2965499
0.7162077 0.3700577 0.2960077
0.8457156 0.3695156 0.2954656
0.9752235 0.3689735 0.2949235
0.0000000 0.5015367 0.2974367
0.0668446 0.5009946 0.2968946
0.1963525 0.5004525 0.2963525
0.3258604 0.4999103 0.2958103
0.4553682 0.4993682 0.2952682
0.5848761 0.4988261 0.2947261
0.7143840 0.4982840 0.2941840
0.8438918 0.4977418 0.2936418
0.9733997 0.4971997 0.2930997
0.0000000 0.6297630 0.2956130
0.0650208 0.6292209 0.2950708
0.1945287 0.6286787 0.2945287
0.3240366 0.6281366 0.2939866
0.4535445 0.6275945 0.2934445
0.5830523 0.6270523 0.2929023
0.7125602 0.6265102 0.2923602
0.8420681 0.6259681 0.2918181
0.9715759 0.6254259 0.2912759
0.0000000 0.7579892 0.2937892
0.0631971 0.7574471 0.2932471
0.1927050 0.7569050 0.2927050
0.3222128 0.7563628 0.2921628
0.4517207 0.7558207 0.2916207
0.5812286 0.7552786 0.2910786
0.7107364 0.7547364 0.2905364
0.8402443 0.7541943 0.2899943
0.9697522 0.7536522 0.2894522
0.0000000 0.8862155 0.2919655
0.0613733 0.8856733 0.2914233
0.1908812 0.8851312 0.2908812
0.3203891 0.8845891 0.2903391
0.4498969 0.8840469 0.2897969
0.5794048 0.8835048 0.2892548
0.7089127 0.8829627 0.2887127
0.8384206 0.8824206 0.2881705
0.9679284 0.8818784 0.2876284
0.0000000 1.0000000 0.2901417
0.0595496 1.0000000 0.2895996
0.1890574 1.0000000 0.2890574
0.3185653 1.0000000 0.2885153
0.4480732 1.0000000 0.2879732
0.5775811 1.0000000 0.2874310
0.7070889 1.0000000 0.2868889
0.8365968 1.0000000 0.2863468
0.9661047 1.0000000 0.2858047
0.0000000 0.0000000 0.4345977
0.0739555 0.0000000 0.4340555
0.2034634 0.0000000 0.4335134
0.3329713 0.0000000 0.4329713
0.4624792 0.0000000 0.4324291
0.5919870 0.0000000 0.4318870
0.7214949 0.0000000 0.4313449
0.8510028 0.0000000 0.4308028
0.9805106 0.0000000 0.4302606
0.0000000 0.1166739 0.4327739
0.0721318 0.1161318 0.4322318
0.2016397 0.1155896 0.4316897
0.3311475 0.1150475 0.4311475
0.4606554 0.1145054 0.4306054
0.5901633 0.1139633 0.4300633
0.7196711 0.1134211 0.4295211
0.8491790 0.1128790 0.4289790
0.9786869 0.1123369 0.4284369
0.0000000 0.2449001 0.4309501
0.0703080 0.2443580 0.4304080
0.1998159 0.2438159 0.4298659
0.3293238 0.2432738 0.4293238
0.4588316 0.2427316 0.4287816
0.5883395 0.2421895 0.4282395
0.7178474 0.2416474 0.4276974
0.8473552 0.2411052 0.4271552
0.9768631 0.2405631 0.4266131
0.0000000 0.3731264 0.4291264
0.0684843 0.3725843 0.4285843
0.1979921 0.3720421 0.4280421
0.3275000 0.3715000 0.4275000
0.4570079 0.3709579 0.4269579
0.5865157 0.3704157 0.4264157
0.7160236 0.3698736 0.4258736
0.8455315 0.3693315 0.4253315
0.9750393 0.3687894 0.4247894
0.0000000 0.5013526 0.4273026
0.0666605 0.5008105 0.4267605
0.1961684 0.5002684 0.4262184
0.3256762 0.4997262 0.4256762
0.4551841 0.4991841 0.4251341
0.5846920 0.4986420 0.4245920
0.7141998 0.4980999 0.4240499
0.8437077 0.4975577 0.4235077
0.9732156 0.4970156 0.4229656
0.0000000 0.6295789 0.4254789
0.0648367 0.6290367 0.4249367
0.1943446 0.6284946 0.4243946
0.3238525 0.6279525 0.4238525
0.4533604 0.6274104 0.4233103
0.5828682 0.6268682 0.4227682
0.7123761 0.6263261 0.4222261
0.8418840 0.6257840 0.4216840
0.9713918 0.6252418 0.4211418
0.0000000 0.7578051 0.4236551
0.0630130 0.7572630 0.4231130
0.1925208 0.7567209 0.4225708
0.3220287 0.7561787 0.4220287
0.4515366 0.7556366 0.4214866
0.5810445 0.7550945 0.4209445
0.7105523 0.7545523 0.4204023
0.8400602 0.7540102 0.4198602
0.9695681 0.7534681 0.4193181
0.0000000 0.8860313 0.4218313
0.0611892 0.8854892 0.4212892
0.1906971 0.8849471 0.4207471
0.3202050 0.8844050 0.4202050
0.4497128 0.8838628 0.4196628
0.5792207 0.8833207 0.4191207
0.7087286 0.8827786 0.4185786
0.8382364 0.8822364 0.4180364
0.9677443 0.8816943 0.4174943
0.0000000 1.0000000 0.4200076
0.0593655 1.0000000 0.4194655
0.1888733 1.0000000 0.4189233
0.3183812 1.0000000 0.4183812
0.4478891 1.0000000 0.4178391
0.5773969 1.0000000 0.4172969
0.7069048 1.0000000 0.4167548
0.8364127 1.0000000 0.4162127
0.9659205 1.0000000 0.4156705
0.0000000 0.0000000 0.5644636
0.0737714 0.0000000 0.5639214
0.2032793 0.0000000 0.5633793
0.3327872 0.0000000 0.5628372
0.4622950 0.0000000 0.5622950
0.5918029 0.0000000 0.5617529
0.7213108 0.0000000 0.5612108
0.8508187 0.0000000 0.5606686
0.9803265 0.0000000 0.5601265
0.0000000 0.1164898 0.5626398
0.0719477 0.1159477 0.5620977
0.2014555 0.1154055 0.5615555
0.3309634 0.1148634 0.5610134
0.4604713 0.1143213 0.5604713
0.5899791 0.1137791 0.5599292
0.7194870 0.1132370 0.5593870
0.8489949 0.1126949 0.5588449
0.9785028 0.1121528 0.5583028
0.0000000 0.2447160 0.5608160
0.0701239 0.2441739 0.5602739
0.1996318 0.2436318 0.5597318
0.3291397 0.2430896 0.5591897
0.4586475 0.2425475 0.5586475
0.5881554 0.2420054 0.5581054
0.7176633 0.2414633 0.5575633
0.8471711 0.2409211 0.5570211
0.9766790 0.2403790 0.5564790
0.0000000 0.3729423 0.5589923
0.0683001 0.3724002 0.5584502
0.1978080 0.3718580 0.5579080
0.3273159 0.3713159 0.5573659
0.4568238 0.3707738 0.5568238
0.5863316 0.3702316 0.5562816
0.7158395 0.3696895 0.5557395
0.8453474 0.3691474 0.5551974
0.9748552 0.3686052 0.5546552
0.0000000 0.5011685 0.5571685
0.0664764 0.5006264 0.5566264
0.1959843 0.5000843 0.5560843
0.3254921 0.4995421 0.5555421
0.4550000 0.4990000 0.5550000
0.5845079 0.4984579 0.5544579
0.7140157 0.4979157 0.5539157
0.8435236 0.4973736 0.5533736
0.9730315 0.4968315 0.5528315
0.0000000 0.6293948 0.5553448
0.0646526 0.6288526 0.5548026
0.1941605 0.6283105 0.5542605
0.3236684 0.6277684 0.5537184
0.4531762 0.6272262 0.5531762
0.5826841 0.6266841 0.5526341
0.7121920 0.6261420 0.5520920
0.8416999 0.6255998 0.5515499
0.9712077 0.6250577 0.5510077
0.0000000 0.7576210 0.5535210
0.0628289 0.7570789 0.5529789
0.1923367 0.7565367 0.5524367
0.3218446 0.7559946 0.5518946
0.4513525 0.7554525 0.5513525
0.5808603 0.7549103 0.5508104
0.7103682 0.7543682 0.5502682
0.8398761 0.7538261 0.5497261
0.9693840 0.7532840 0.5491840
0.0000000 0.8858472 0.5516972
0.0610051 0.8853051 0.5511551
0.1905130 0.8847630 0.5506130
0.3200208 0.8842209 0.5500709
0.4495287 0.8836787 0.5495287
0.5790366 0.8831366 0.5489866
0.7085445 0.8825945 0.5484445
0.8380523 0.8820523 0.5479023
0.9675602 0.8815102 0.5473602
0.0000000 1.0000000 0.5498735
0.0591813 1.0000000 0.5493313
0.1886892 1.0000000 0.5487892
0.3181971 1.0000000 0.5482471
0.4477050 1.0000000 0.5477050
0.5772128 1.0000000 0.5471628
0.7067207 1.0000000 0.5466207
0.8362286 1.0000000 0.5460786
0.9657364 1.0000000 0.5455364
0.0000000 0.0000000 0.6943295
0.0735873 0.0000000 0.6937873
0.2030952 0.0000000 0.6932452
0.3326031 0.0000000 0.6927031
0.4621109 0.0000000 0.6921609
0.5916188 0.0000000 0.6916188
0.7211267 0.0000000 0.6910767
0.8506345 0.0000000 0.6905345
0.9801424 0.0000000 0.6899924
0.0000000 0.1163057 0.6925057
0.0717636 0.1157636 0.6919636
0.2012714 0.1152214 0.6914214
0.3307793 0.1146793 0.6908793
0.4602872 0.1141372 0.6903372
0.5897950 0.1135950 0.6897950
0.7193029 0.1130529 0.6892529
0.8488108 0.1125108 0.6887108
0.9783186 0.1119687 0.6881687
0.0000000 0.2445319 0.6906819
0.0699398 0.2439898 0.6901398
0.1994477 0.2434477 0.6895977
0.3289555 0.2429055 0.6890555
0.4584634 0.2423634 0.6885134
0.5879713 0.2418213 0.6879713
0.7174791 0.2412791 0.6874292
0.8469870 0.2407370 0.6868870
0.9764949 0.2401949 0.6863449
0.0000000 0.3727582 0.6888582
0.0681160 0.3722160 0.6883160
0.1976239 0.3716739 0.6877739
0.3271318 0.3711318 0.6872318
0.4566397 0.3705896 0.6866897
0.5861475 0.3700475 0.6861475
0.7156554 0.3695054 0.6856054
0.8451633 0.3689633 0.6850633
0.9746711 0.3684211 0.6845211
0.0000000 0.5009844 0.6870344
0.0662923 0.5004423 0.6864923
0.1958002 0.4999001 0.6859502
0.3253080 0.4993580 0.6854080
0.4548159 0.4988159 0.6848659
0.5843238 0.4982738 0.6843238
0.7138316 0.4977316 0.6837816
0.8433395 0.4971895 0.6832395
0.9728474 0.4966474 0.6826974
0.0000000 0.6292106 0.6852107
0.0644685 0.6286685 0.6846685
0.1939764 0.6281264 0.6841264
0.3234843 0.6275843 0.6835843
0.4529921 0.6270421 0.6830421
0.5825000 0.6265000 0.6825000
0.7120079 0.6259579 0.6819579
0.8415157 0.6254157 0.6814157
0.9710236 0.6248736 0.6808736
0.0000000 0.7574369 0.6833869
0.0626448 0.7568948 0.6828448
0.1921526 0.7563526 0.6823026
0.3216605 0.7558105 0.6817605
0.4511684 0.7552684 0.6812184
0.5806762 0.7547262 0.6806762
0.7101841 0.7541841 0.6801341
0.8396920 0.7536420 0.6795920
0.9691998 0.7530999 0.6790498
0.0000000 0.8856631 0.6815631
0.0608210 0.8851210 0.6810210
0.1903289 0.8845789 0.6804789
0.3198367 0.8840367 0.6799367
0.4493446 0.8834946 0.6793946
0.5788525 0.8829525 0.6788525
0.7083603 0.8824103 0.6783103
0.8378682 0.8818682 0.6777682
0.9673761 0.8813261 0.6772261
0.0000000 1.0000000 0.6797394
0.0589972 1.0000000 0.6791972
0.1885051 1.0000000 0.6786551
0.3180130 1.0000000 0.6781130
0.4475208 1.0000000 0.6775709
0.5770287 1.0000000 0.6770287
0.7065366 1.0000000 0.6764866
0.8360445 1.0000000 0.6759445
0.9655523 1.0000000 0.6754023
0.0000000 0.0000000 0.8241953
0.0734032 0.0000000 0.8236532
0.2029111 0.0000000 0.8231111
0.3324190 0.0000000 0.8225690
0.4619268 0.0000000 0.8220268
0.5914347 0.0000000 0.8214847
0.7209426 0.0000000 0.8209426
0.8504504 0.0000000 0.8204004
0.9799583 0.0000000 0.8198583
0.0000000 0.1161216 0.8223716
0.0715794 0.1155794 0.8218295
0.2010873 0.1150373 0.8212873
0.3305952 0.1144952 0.8207452
0.4601031 0.1139531 0.8202031
0.5896109 0.1134109 0.8196609
0.7191188 0.1128688 0.8191188
0.8486267 0.1123267 0.8185767
0.9781345 0.1117845 0.8180345
0.0000000 0.2443478 0.8205478
0.0697557 0.2438057 0.8200057
0.1992636 0.2432636 0.8194636
0.3287714 0.2427214 0.8189214
0.4582793 0.2421793 0.8183793
0.5877872 0.2416372 0.8178372
0.7172950 0.2410950 0.8172950
0.8468029 0.2405529 0.8167529
0.9763108 0.2400108 0.8162108
0.0000000 0.3725741 0.8187241
0.0679319 0.3720319 0.8181819
0.1974398 0.3714898 0.8176398
0.3269477 0.3709477 0.8170977
0.4564555 0.3704055 0.8165555
0.5859634 0.3698634 0.8160134
0.7154713 0.3693213 0.8154713
0.8449792 0.3687792 0.8149292
0.9744870 0.3682370 0.8143870
0.0000000 0.5008003 0.8169003
0.0661082 0.5002582 0.8163582
0.1956160 0.4997160 0.8158160
0.3251239 0.4991739 0.8152739
0.4546318 0.4986318 0.8147318
0.5841396 0.4980896 0.8141897
0.7136475 0.4975475 0.8136475
0.8431554 0.4970054 0.8131054
0.9726633 0.4964633 0.8125633
0.0000000 0.6290265 0.8150765
0.0642844 0.6284844 0.8145344
0.1937923 0.6279423 0.8139923
0.3233002 0.6274002 0.8134502
0.4528080 0.6268580 0.8129080
0.5823159 0.6263159 0.8123659
0.7118238 0.6257738 0.8118238
0.8413316 0.6252316 0.8112816
0.9708395 0.6246895 0.8107395
0.0000000 0.7572528 0.8132528
0.0624606 0.7567106 0.8127106
0.1919685 0.7561685 0.8121685
0.3214764 0.7556264 0.8116264
0.4509843 0.7550843 0.8110843
0.5804921 0.7545421 0.8105421
0.7100000 0.7540000 0.8100000
0.8395079 0.7534579 0.8094579
0.9690157 0.7529157 0.8089157
0.0000000 0.8854790 0.8114290
0.0606369 0.8849369 0.8108869
0.1901448 0.8843948 0.8103448
0.3196526 0.8838526 0.8098026
0.4491605 0.8833105 0.8092605
0.5786684 0.8827684 0.8087184
0.7081762 0.8822262 0.8081762
0.8376841 0.8816841 0.8076341
0.9671920 0.8811420 0.8070920
0.0000000 1.0000000 0.8096053
0.0588131 1.0000000 0.8090631
0.1883210 1.0000000 0.8085210
0.3178289 1.0000000 0.8079789
0.4473367 1.0000000 0.8074367
0.5768446 1.0000000 0.8068946
0.7063525 1.0000000 0.8063525
0.8358604 1.0000000 0.8058104
0.9653682 1.0000000 0.8052682
0.0000000 0.0000000 0.9540612
0.0732191 0.0000000 0.9535191
0.2027270 0.0000000 0.9529770
0.3322348 0.0000000 0.9524348
0.4617427 0.0000000 0.9518927
0.5912506 0.0000000 0.9513506
0.7207584 0.0000000 0.9508084
0.8502663 0.0000000 0.9502663
0.9797742 0.0000000 0.9497242
0.0000000 0.1159375 0.9522375
0.0713953 0.1153953 0.9516953
0.2009032 0.1148532 0.9511532
0.3304111 0.1143111 0.9506111
0.4599189 0.1137689 0.9500690
0.5894268 0.1132268 0.9495268
0.7189347 0.1126847 0.9489847
0.8484426 0.1121426 0.9484426
0.9779504 0.1116004 0.9479004
0.0000000 0.2441637 0.9504137
0.0695716 0.2436216 0.9498716
0.1990794 0.2430794 0.9493295
0.3285873 0.2425373 0.9487873
0.4580952 0.2419952 0.9482452
0.5876031 0.2414531 0.9477031
0.7171109 0.2409109 0.9471609
0.8466188 0.2403688 0.9466188
0.9761267 0.2398267 0.9460767
0.0000000 0.3723899 0.9485900
0.0677478 0.3718478 0.9480478
0.1972557 0.3713057 0.9475057
0.3267636 0.3707636 0.9469636
0.4562714 0.3702214 0.9464214
0.5857793 0.3696793 0.9458793
0.7152872 0.3691372 0.9453372
0.8447950 0.3685950 0.9447950
0.9743029 0.3680529 0.9442529
0.0000000 0.5006162 0.9467662
0.0659241 0.5000741 0.9462241
0.1954319 0.4995319 0.9456819
0.3249398 0.4989898 0.9451398
0.4544477 0.4984477 0.9445977
0.5839555 0.4979055 0.9440555
0.7134634 0.4973634 0.9435134
0.8429713 0.4968213 0.9429713
0.9724791 0.4962792 0.9424292
0.0000000 0.6288424 0.9449424
0.0641003 0.6283003 0.9444003
0.1936082 0.6277582 0.9438582
0.3231160 0.6272160 0.9433160
0.4526239 0.6266739 0.9427739
0.5821318 0.6261318 0.9422318
0.7116396 0.6255897 0.9416897
0.8411475 0.6250475 0.9411475
0.9706554 0.6245054 0.9406054
0.0000000 0.7570687 0.9431187
0.0622765 0.7565265 0.9425765
0.1917844 0.7559844 0.9420344
0.3212923 0.7554423 0.9414923
0.4508002 0.7549001 0.9409502
0.5803080 0.7543580 0.9404080
0.7098159 0.7538159 0.9398659
0.8393238 0.7532738 0.9393238
0.9688316 0.7527316 0.9387816
0.0000000 0.8852949 0.9412949
0.0604528 0.8847528 0.9407528
0.1899607 0.8842106 0.9402107
0.3194685 0.8836685 0.9396685
0.4489764 0.8831264 0.9391264
0.5784843 0.8825843 0.9385843
0.7079921 0.8820421 0.9380421
0.8375000 0.8815000 0.9375000
0.9670079 0.8809579 0.9369579
0.0000000 1.0000000 0.9394712
0.0586290 1.0000000 0.9389290
0.1881369 1.0000000 0.9383869
0.3176448 1.0000000 0.9378448
0.4471526 1.0000000 0.9373026
0.5766605 1.0000000 0.9367605
0.7061684 1.0000000 0.9362184
0.8356762 1.0000000 0.9356762
0.9651841 1.0000000 0.9351341
0.0000000 0.0000000 1.0000000
0.0730350 0.0000000 1.0000000
0.2025429 0.0000000 1.0000000
0.3320507 0.0000000 1.0000000
0.4615586 0.0000000 1.0000000
0.5910665 0.0000000 1.0000000
0.7205743 0.0000000 1.0000000
0.8500822 0.0000000 1.0000000
0.9795901 0.0000000 1.0000000
0.0000000 0.1157534 1.0000000
0.0712112 0.1152112 1.0000000
0.2007191 0.1146691 1.0000000
0.3302270 0.1141270 1.0000000
0.4597348 0.1135848 1.0000000
0.5892427 0.1130427 1.0000000
0.7187506 0.1125006 1.0000000
0.8482584 0.1119585 1.0000000
0.9777663 0.1114163 1.0000000
0.0000000 0.2439796 1.0000000
0.0693875 0.2434375 1.0000000
0.1988953 0.2428953 1.0000000
0.3284032 0.2423532 1.0000000
0.4579111 0.2418111 1.0000000
0.5874189 0.2412689 1.0000000
0.7169268 0.2407268 1.0000000
0.8464347 0.2401847 1.0000000
0.9759426 0.2396426 1.0000000
0.0000000 0.3722058 1.0000000
0.0675637 0.3716637 1.0000000
0.1970716 0.3711216 1.0000000
0.3265794 0.3705794 1.0000000
0.4560873 0.3700373 1.0000000
0.5855952 0.3694952 1.0000000
0.7151031 0.3689531 1.0000000
0.8446109 0.3684109 1.0000000
0.9741188 0.3678688 1.0000000
0.0000000 0.5004321 1.0000000
0.0657399 0.4998900 1.0000000
0.1952478 0.4993478 1.0000000
0.3247557 0.4988057 1.0000000
0.4542636 0.4982636 1.0000000
0.5837714 0.4977214 1.0000000
0.7132793 0.4971793 1.0000000
0.8427872 0.4966372 1.0000000
0.9722950 0.4960950 1.0000000
0.0000000 0.6286583 1.0000000
0.0639162 0.6281162 1.0000000
0.1934241 0.6275741 1.0000000
0.3229319 0.6270319 1.0000000
0.4524398 0.6264898 1.0000000
0.5819477 0.6259477 1.0000000
0.7114555 0.6254055 1.0000000
0.8409634 0.6248634 1.0000000
0.9704713 0.6243213 1.0000000
0.0000000 0.7568846 1.0000000
0.0620924 0.7563424 1.0000000
0.1916003 0.7558003 1.0000000
0.3211082 0.7552582 1.0000000
0.4506160 0.7547160 1.0000000
0.5801239 0.7541739 1.0000000
0.7096318 0.7536318 1.0000000
0.8391397 0.7530897 1.0000000
0.9686475 0.7525475 1.0000000
0.0000000 0.8851108 1.0000000
0.0602687 0.8845687 1.0000000
0.1897765 0.8840265 1.0000000
0.3192844 0.8834844 1.0000000
0.4487923 0.8829423 1.0000000
0.5783002 0.8824001 1.0000000
0.7078080 0.8818580 1.0000000
0.8373159 0.8813159 1.0000000
0.9668238 0.8807738 1.0000000
0.0000000 1.0000000 1.0000000
0.0584449 1.0000000 1.0000000
0.1879528 1.0000000 1.0000000
0.3174607 1.0000000 1.0000000
0.4469685 1.0000000 1.0000000
0.5764764 1.0000000 1.0000000
0.7059843 1.0000000 1.0000000
0.8354921 1.0000000 1.0000000
0.9650000 1.0000000 1.0000000
