android/app/src/main/assets/luts/Cool%20Tone.cube
TITLE "MirrorBridge Cool Tone"
# Generated by scripts/generate_luts.py with {"contrast": 1.02, "lift": 0.005, "saturation": 1.02, "temperature": -0.05}
LUT_3D_SIZE 5
DOMAIN_MIN 0.0 0.0 0.0
DOMAIN_MAX 1.0 1.0 1.0
0.0000000 0.0000000 0.0450000
0.2040157 0.0000000 0.0439157
0.4630315 0.0000000 0.0428315
0.7220472 0.0000000 0.0417472
0.9810630 0.0000000 0.0406630
0.0000000 0.2454525 0.0413525
0.2003682 0.2443682 0.0402682
0.4593840 0.2432840 0.0391840
0.7183997 0.2421997 0.0380997
0.9774154 0.2411154 0.0370154
0.0000000 0.5019050 0.0377050
0.1967207 0.5008207 0.0366207
0.4557364 0.4997364 0.0355364
0.7147522 0.4986522 0.0344522
0.9737679 0.4975679 0.0333679
0.0000000 0.7583574 0.0340574
0.1930732 0.7572732 0.0329732
0.4520889 0.7561889 0.0318889
0.7111047 0.7551047 0.0308047
0.9701204 0.7540204 0.0297204
0.0000000 1.0000000 0.0304099
0.1894257 1.0000000 0.0293257
0.4484414 1.0000000 0.0282414
0.7074571 1.0000000 0.0271571
0.9664729 1.0000000 0.0260729
0.0000000 0.0000000 0.3047318
0.2036475 0.0000000 0.3036475
0.4626633 0.0000000 0.3025633
0.7216790 0.0000000 0.3014790
0.9806947 0.0000000 0.3003947
0.0000000 0.2450843 0.3010843
0.2000000 0.2440000 0.3000000
0.4590157 0.2429157 0.2989157
0.7180315 0.2418315 0.2978315
0.9770472 0.2407472 0.2967472
0.0000000 0.5015367 0.2974367
0.1963525 0.5004525 0.2963525
0.4553682 0.4993682 0.2952682
0.7143840 0.4982840 0.2941840
0.9733997 0.4971997 0.2930997
0.0000000 0.7579892 0.2937892
0.1927050 0.7569050 0.2927050
0.4517207 0.7558207 0.2916207
0.7107364 0.7547364 0.2905364
0.9697522 0.7536522 0.2894522
0.0000000 1.0000000 0.2901417
0.1890574 1.0000000 0.2890574
0.4480732 1.0000000 0.2879732
0.7070889 1.0000000 0.2868889
0.9661047 1.0000000 0.2858047
0.0000000 0.0000000 0.5644636
0.2032793 0.0000000 0.5633793
0.4622950 0.0000000 0.5622950
0.7213108 0.0000000 0.5612108
0.9803265 0.0000000 0.5601265
0.0000000 0.2447160 0.5608160
0.1996318 0.2436318 0.5597318
0.4586475 0.2425475 0.5586475
0.7176633 0.2414633 0.5575633
0.9766790 0.2403790 0.5564790
0.0000000 0.5011685 0.5571685
0.1959843 0.5000843 0.5560843
0.4550000 0.4990000 0.5550000
0.7140157 0.4979157 0.5539157
0.9730315 0.4968315 0.5528315
0.0000000 0.7576210 0.5535210
0.1923367 0.7565367 0.5524367
0.4513525 0.7554525 0.5513525
0.7103682 0.7543682 0.5502682
0.9693840 0.7532840 0.5491840
0.0000000 1.0000000 0.5498735
0.1886892 1.0000000 0.5487892
0.4477050 1.0000000 0.5477050
0.7067207 1.0000000 0.5466207
0.9657364 1.0000000 0.5455364
0.0000000 0.0000000 0.8241953
0.2029111 0.0000000 0.8231111
0.4619268 0.0000000 0.8220268
0.7209426 0.0000000 0.8209426
0.9799583 0.0000000 0.8198583
0.0000000 0.2443478 0.8205478
0.1992636 0.2432636 0.8194636
0.4582793 0.2421793 0.8183793
0.7172950 0.2410950 0.8172950
0.9763108 0.2400108 0.8162108
0.0000000 0.5008003 0.8169003
0.1956160 0.4997160 0.8158160
0.4546318 0.4986318 0.8147318
0.7136475 0.4975475 0.8136475
0.9726633 0.4964633 0.8125633
0.0000000 0.7572528 0.8132528
0.1919685 0.7561685 0.8121685
0.4509843 0.7550843 0.8110843
0.7100000 0.7540000 0.8100000
0.9690157 0.7529157 0.8089157
0.0000000 1.0000000 0.8096053
0.1883210 1.0000000 0.8085210
0.4473367 1.0000000 0.8074367
0.7063525 1.0000000 0.8063525
0.9653682 1.0000000 0.8052682
0.0000000 0.0000000 1.0000000
0.2025429 0.0000000 1.0000000
0.4615586 0.0000000 1.0000000
0.7205743 0.0000000 1.0000000
0.9795901 0.0000000 1.0000000
0.0000000 0.2439796 1.0000000
0.1988953 0.2428953 1.0000000
0.4579111 0.2418111 1.0000000
0.7169268 0.2407268 1.0000000
0.9759426 0.2396426 1.0000000
0.0000000 0.5004321 1.0000000
0.1952478 0.4993478 1.0000000
0.4542636 0.4982636 1.0000000
0.7132793 0.4971793 1.0000000
0.9722950 0.4960950 1.0000000
0.0000000 0.7568846 1.0000000
0.1916003 0.7558003 1.0000000
0.4506160 0.7547160 1.0000000
0.7096318 0.7536318 1.0000000
0.9686475 0.7525475 1.0000000
0.0000000 1.0000000 1.0000000
0.1879528 1.0000000 1.0000000
0.4469685 1.0000000 1.0000000
0.7059843 1.0000000 1.0000000
0.9650000 1.0000000 1.0000000
