android/app/src/main/assets/luts/Cool%20Tone.cube
TITLE "MirrorBridge Cool Tone"
# Generated by scripts/generate_luts.py with {"contrast": 1.02, "lift": 0.005, "saturation": 1.02, "temperature": -0.05}
LUT_3D_SIZE 17
DOMAIN_MIN 0.0 0.0 0.0
DOMAIN_MAX 1.0 1.0 1.0
0.0000000 0.0000000 0.0450000
0.0097539 0.0000000 0.0447289
0.0745079 0.0000000 0.0444579
0.1392618 0.0000000 0.0441868
0.2040157 0.0000000 0.0439157
0.2687697 0.0000000 0.0436447
0.3335236 0.0000000 0.0433736
0.3982775 0.0000000 0.0431025
0.4630315 0.0000000 0.0428315
0.5277854 0.0000000 0.0425604
0.5925393 0.0000000 0.0422894
0.6572933 0.0000000 0.0420183
0.7220472 0.0000000 0.0417472
0.7868012 0.0000000 0.0414762
0.8515551 0.0000000 0.0412051
0.9163090 0.0000000 0.0409340
0.9810630 0.0000000 0.0406630
0.0000000 0.0531131 0.0440881
0.0088421 0.0528421 0.0438171
0.0735960 0.0525710 0.0435460
0.1383499 0.0522999 0.0432749
0.2031039 0.0520289 0.0430039
0.2678578 0.0517578 0.0427328
0.3326117 0.0514867 0.0424617
0.3973657 0.0512157 0.0421907
0.4621196 0.0509446 0.0419196
0.5268735 0.0506735 0.0416485
0.5916275 0.0504025 0.0413775
0.6563814 0.0501314 0.0411064
0.7211353 0.0498603 0.0408353
0.7858893 0.0495893 0.0405643
0.8506432 0.0493182 0.0402932
0.9153971 0.0490471 0.0400221
0.9801511 0.0487761 0.0397511
0.0000000 0.1172262 0.0431762
0.0079302 0.1169552 0.0429052
0.0726841 0.1166841 0.0426341
0.1374380 0.1164130 0.0423630
0.2021920 0.1161420 0.0420920
0.2669459 0.1158709 0.0418209
0.3316999 0.1155999 0.0415498
0.3964538 0.1153288 0.0412788
0.4612077 0.1150577 0.0410077
0.5259617 0.1147867 0.0407367
0.5907156 0.1145156 0.0404656
0.6554695 0.1142445 0.0401945
0.7202235 0.1139735 0.0399235
0.7849774 0.1137024 0.0396524
0.8497313 0.1134313 0.0393813
0.9144853 0.1131603 0.0391103
0.9792392 0.1128892 0.0388392
0.0000000 0.1813394 0.0422644
0.0070183 0.1810683 0.0419933
0.0717722 0.1807972 0.0417222
0.1365262 0.1805262 0.0414512
0.2012801 0.1802551 0.0411801
0.2660340 0.1799840 0.0409090
0.3307880 0.1797130 0.0406380
0.3955419 0.1794419 0.0403669
0.4602958 0.1791708 0.0400958
0.5250498 0.1788998 0.0398248
0.5898037 0.1786287 0.0395537
0.6545576 0.1783576 0.0392826
0.7193116 0.1780866 0.0390116
0.7840655 0.1778155 0.0387405
0.8488195 0.1775444 0.0384694
0.9135734 0.1772734 0.0381984
0.9783273 0.1770023 0.0379273
0.0000000 0.2454525 0.0413525
0.0061064 0.2451814 0.0410814
0.0708604 0.2449103 0.0408103
0.1356143 0.2446393 0.0405393
0.2003682 0.2443682 0.0402682
0.2651222 0.2440972 0.0399972
0.3298761 0.2438261 0.0397261
0.3946300 0.2435550 0.0394550
0.4593840 0.2432840 0.0391840
0.5241379 0.2430129 0.0389129
0.5888918 0.2427418 0.0386418
0.6536458 0.2424708 0.0383708
0.7183997 0.2421997 0.0380997
0.7831536 0.2419286 0.0378286
0.8479076 0.2416576 0.0375576
0.9126615 0.2413865 0.0372865
0.9774154 0.2411154 0.0370154
0.0000000 0.3095656 0.0404406
0.0051945 0.3092945 0.0401695
0.0699485 0.3090235 0.0398985
0.1347024 0.3087524 0.0396274
0.1994563 0.3084813 0.0393563
0.2642103 0.3082103 0.0390853
0.3289642 0.3079392 0.0388142
0.3937181 0.3076681 0.0385431
0.4584721 0.3073971 0.0382721
0.5232260 0.3071260 0.0380010
0.5879799 0.3068550 0.0377300
0.6527339 0.3065839 0.0374589
0.7174878 0.3063128 0.0371878
0.7822418 0.3060418 0.0369168
0.8469957 0.3057707 0.0366457
0.9117496 0.3054996 0.0363746
0.9765036 0.3052286 0.0361036
0.0000000 0.3736787 0.0395287
0.0042827 0.3734077 0.0392577
0.0690366 0.3731366 0.0389866
0.1337905 0.3728655 0.0387155
0.1985445 0.3725945 0.0384445
0.2632984 0.3723234 0.0381734
0.3280523 0.3720523 0.0379023
0.3928063 0.3717813 0.0376313
0.4575602 0.3715102 0.0373602
0.5223141 0.3712391 0.0370891
0.5870681 0.3709681 0.0368181
0.6518220 0.3706970 0.0365470
0.7165759 0.3704259 0.0362759
0.7813299 0.3701549 0.0360049
0.8460838 0.3698838 0.0357338
0.9108377 0.3696127 0.0354627
0.9755917 0.3693417 0.0351917
0.0000000 0.4377918 0.0386168
0.0033708 0.4375208 0.0383458
0.0681247 0.4372497 0.0380747
0.1328786 0.4369786 0.0378036
0.1976326 0.4367076 0.0375326
0.2623865 0.4364365 0.0372615
0.3271405 0.4361655 0.0369904
0.3918944 0.4358944 0.0367194
0.4566483 0.4356233 0.0364483
0.5214023 0.4353523 0.0361773
0.5861562 0.4350812 0.0359062
0.6509101 0.4348101 0.0356351
0.7156641 0.4345391 0.0353641
0.7804180 0.4342680 0.0350930
0.8451719 0.4339969 0.0348219
0.9099259 0.4337259 0.0345509
0.9746798 0.4334548 0.0342798
0.0000000 0.5019050 0.0377050
0.0024589 0.5016339 0.0374339
0.0672128 0.5013628 0.0371628
0.1319668 0.5010918 0.0368918
0.1967207 0.5008207 0.0366207
0.2614746 0.5005496 0.0363496
0.3262286 0.5002786 0.0360786
0.3909825 0.5000075 0.0358075
0.4557364 0.4997364 0.0355364
0.5204904 0.4994654 0.0352654
0.5852443 0.4991943 0.0349943
0.6499982 0.4989232 0.0347232
0.7147522 0.4986522 0.0344522
0.7795061 0.4983811 0.0341811
0.8442601 0.4981100 0.0339100
0.9090140 0.4978390 0.0336390
0.9737679 0.4975679 0.0333679
0.0000000 0.5660181 0.0367931
0.0015470 0.5657470 0.0365220
0.0663009 0.5654759 0.0362509
0.1310549 0.5652049 0.0359799
0.1958088 0.5649338 0.0357088
0.2605628 0.5646628 0.0354378
0.3253167 0.5643917 0.0351667
0.3900706 0.5641206 0.0348956
0.4548246 0.5638496 0.0346246
0.5195785 0.5635785 0.0343535
0.5843324 0.5633074 0.0340824
0.6490864 0.5630364 0.0338114
0.7138403 0.5627653 0.0335403
0.7785942 0.5624942 0.0332692
0.8433482 0.5622232 0.0329982
0.9081021 0.5619521 0.0327271
0.9728560 0.5616810 0.0324560
0.0000000 0.6301312 0.0358812
0.0006351 0.6298601 0.0356101
0.0653891 0.6295891 0.0353391
0.1301430 0.6293180 0.0350680
0.1948969 0.6290469 0.0347969
0.2596509 0.6287759 0.0345259
0.3244048 0.6285048 0.0342548
0.3891587 0.6282337 0.0339837
0.4539127 0.6279627 0.0337127
0.5186666 0.6276916 0.0334416
0.5834205 0.6274205 0.0331705
0.6481745 0.6271495 0.0328995
0.7129284 0.6268784 0.0326284
0.7776824 0.6266074 0.0323574
0.8424363 0.6263363 0.0320863
0.9071902 0.6260652 0.0318152
0.9719442 0.6257942 0.0315442
0.0000000 0.6942443 0.0349693
0.0000000 0.6939733 0.0346983
0.0644772 0.6937022 0.0344272
0.1292311 0.6934311 0.0341561
0.1939851 0.6931601 0.0338851
0.2587390 0.6928890 0.0336140
0.3234929 0.6926179 0.0333429
0.3882469 0.6923469 0.0330719
0.4530008 0.6920758 0.0328008
0.5177547 0.6918047 0.0325297
0.5825087 0.6915337 0.0322587
0.6472626 0.6912626 0.0319876
0.7120165 0.6909915 0.0317165
0.7767705 0.6907205 0.0314455
0.8415244 0.6904494 0.0311744
0.9062783 0.6901783 0.0309033
0.9710323 0.6899073 0.0306323
0.0000000 0.7583574 0.0340574
0.0000000 0.7580864 0.0337864
0.0635653 0.7578153 0.0335153
0.1283192 0.7575442 0.0332442
0.1930732 0.7572732 0.0329732
0.2578271 0.7570021 0.0327021
0.3225810 0.7567311 0.0324310
0.3873350 0.7564600 0.0321600
0.4520889 0.7561889 0.0318889
0.5168429 0.7559179 0.0316179
0.5815968 0.7556468 0.0313468
0.6463507 0.7553757 0.0310757
0.7111047 0.7551047 0.0308047
0.7758586 0.7548336 0.0305336
0.8406125 0.7545625 0.0302625
0.9053665 0.7542915 0.0299915
0.9701204 0.7540204 0.0297204
0.0000000 0.8224706 0.0331456
0.0000000 0.8221995 0.0328745
0.0626534 0.8219284 0.0326034
0.1274074 0.8216574 0.0323324
0.1921613 0.8213863 0.0320613
0.2569152 0.8211152 0.0317902
0.3216692 0.8208442 0.0315192
0.3864231 0.8205731 0.0312481
0.4511770 0.8203020 0.0309770
0.5159310 0.8200310 0.0307060
0.5806849 0.8197599 0.0304349
0.6454388 0.8194888 0.0301638
0.7101928 0.8192178 0.0298928
0.7749467 0.8189467 0.0296217
0.8397007 0.8186756 0.0293506
0.9044546 0.8184046 0.0290796
0.9692085 0.8181335 0.0288085
0.0000000 0.8865837 0.0322337
0.0000000 0.8863126 0.0319626
0.0617415 0.8860415 0.0316915
0.1264955 0.8857705 0.0314205
0.1912494 0.8854994 0.0311494
0.2560034 0.8852284 0.0308784
0.3207573 0.8849573 0.0306073
0.3855112 0.8846862 0.0303362
0.4502652 0.8844152 0.0300652
0.5150191 0.8841441 0.0297941
0.5797730 0.8838730 0.0295230
0.6445270 0.8836020 0.0292520
0.7092809 0.8833309 0.0289809
0.7740348 0.8830598 0.0287098
0.8387888 0.8827888 0.0284388
0.9035427 0.8825177 0.0281677
0.9682966 0.8822466 0.0278966
0.0000000 0.9506968 0.0313218
0.0000000 0.9504257 0.0310507
0.0608297 0.9501547 0.0307797
0.1255836 0.9498836 0.0305086
0.1903375 0.9496125 0.0302375
0.2550915 0.9493415 0.0299665
0.3198454 0.9490704 0.0296954
0.3845993 0.9487993 0.0294243
0.4493533 0.9485283 0.0291533
0.5141072 0.9482572 0.0288822
0.5788612 0.9479862 0.0286111
0.6436151 0.9477151 0.0283401
0.7083690 0.9474440 0.0280690
0.7731230 0.9471730 0.0277980
0.8378769 0.9469019 0.0275269
0.9026308 0.9466308 0.0272558
0.9673848 0.9463598 0.0269848
0.0000000 1.0000000 0.0304099
0.0000000 1.0000000 0.0301389
0.0599178 1.0000000 0.0298678
0.1246717 1.0000000 0.0295967
0.1894257 1.0000000 0.0293257
0.2541796 1.0000000 0.0290546
0.3189335 1.0000000 0.0287835
0.3836875 1.0000000 0.0285125
0.4484414 1.0000000 0.0282414
0.5131953 1.0000000 0.0279703
0.5779493 1.0000000 0.0276993
0.6427032 1.0000000 0.0274282
0.7074571 1.0000000 0.0271571
0.7722111 1.0000000 0.0268861
0.8369650 1.0000000 0.0266150
0.9017189 1.0000000 0.0263439
0.9664729 1.0000000 0.0260729
0.0000000 0.0000000 0.1099329
0.0096619 0.0000000 0.1096619
0.0744158 0.0000000 0.1093908
0.1391697 0.0000000 0.1091197
0.2039237 0.0000000 0.1088487
0.2686776 0.0000000 0.1085776
0.3334316 0.0000000 0.1083066
0.3981855 0.0000000 0.1080355
0.4629394 0.0000000 0.1077644
0.5276934 0.0000000 0.1074934
0.5924473 0.0000000 0.1072223
0.6572012 0.0000000 0.1069512
0.7219552 0.0000000 0.1066802
0.7867091 0.0000000 0.1064091
0.8514630 0.0000000 0.1061380
0.9162170 0.0000000 0.1058670
0.9809709 0.0000000 0.1055959
0.0000000 0.0530211 0.1090211
0.0087500 0.0527500 0.1087500
0.0735039 0.0524789 0.1084789
0.1382579 0.0522079 0.1082079
0.2030118 0.0519368 0.1079368
0.2677657 0.0516657 0.1076657
0.3325197 0.0513947 0.1073947
0.3972736 0.0511236 0.1071236
0.4620275 0.0508525 0.1068525
0.5267815 0.0505815 0.1065815
0.5915354 0.0503104 0.1063104
0.6562893 0.0500394 0.1060394
0.7210433 0.0497683 0.1057683
0.7857972 0.0494972 0.1054972
0.8505512 0.0492262 0.1052262
0.9153051 0.0489551 0.1049551
0.9800590 0.0486840 0.1046840
0.0000000 0.1171342 0.1081092
0.0078381 0.1168631 0.1078381
0.0725921 0.1165921 0.1075671
0.1373460 0.1163210 0.1072960
0.2020999 0.1160499 0.1070249
0.2668539 0.1157789 0.1067539
0.3316078 0.1155078 0.1064828
0.3963617 0.1152367 0.1062117
0.4611157 0.1149657 0.1059407
0.5258696 0.1146946 0.1056696
0.5906235 0.1144235 0.1053985
0.6553775 0.1141525 0.1051275
0.7201314 0.1138814 0.1048564
0.7848853 0.1136103 0.1045853
0.8496393 0.1133393 0.1043143
0.9143932 0.1130682 0.1040432
0.9791471 0.1127971 0.1037721
0.0000000 0.1812473 0.1071973
0.0069262 0.1809762 0.1069262
0.0716802 0.1807052 0.1066552
0.1364341 0.1804341 0.1063841
0.2011880 0.1801630 0.1061130
0.2659420 0.1798920 0.1058420
0.3306959 0.1796209 0.1055709
0.3954498 0.1793498 0.1052998
0.4602038 0.1790788 0.1050288
0.5249577 0.1788077 0.1047577
0.5897117 0.1785367 0.1044867
0.6544656 0.1782656 0.1042156
0.7192195 0.1779945 0.1039445
0.7839735 0.1777235 0.1036735
0.8487274 0.1774524 0.1034024
0.9134813 0.1771813 0.1031313
0.9782353 0.1769103 0.1028603
0.0000000 0.2453604 0.1062854
0.0060144 0.2450894 0.1060144
0.0707683 0.2448183 0.1057433
0.1355222 0.2445472 0.1054722
0.2002762 0.2442762 0.1052012
0.2650301 0.2440051 0.1049301
0.3297840 0.2437340 0.1046590
0.3945380 0.2434630 0.1043880
0.4592919 0.2431919 0.1041169
0.5240458 0.2429208 0.1038458
0.5887998 0.2426498 0.1035748
0.6535537 0.2423787 0.1033037
0.7183076 0.2421076 0.1030326
0.7830616 0.2418366 0.1027616
0.8478155 0.2415655 0.1024905
0.9125695 0.2412944 0.1022194
0.9773234 0.2410234 0.1019484
0.0000000 0.3094735 0.1053735
0.0051025 0.3092025 0.1051025
0.0698564 0.3089314 0.1048314
0.1346104 0.3086604 0.1045603
0.1993643 0.3083893 0.1042893
0.2641182 0.3081182 0.1040182
0.3288722 0.3078472 0.1037472
0.3936261 0.3075761 0.1034761
0.4583800 0.3073050 0.1032050
0.5231340 0.3070340 0.1029340
0.5878879 0.3067629 0.1026629
0.6526418 0.3064918 0.1023918
0.7173958 0.3062208 0.1021208
0.7821497 0.3059497 0.1018497
0.8469036 0.3056786 0.1015786
0.9116576 0.3054076 0.1013076
0.9764115 0.3051365 0.1010365
0.0000000 0.3735867 0.1044617
0.0041906 0.3733156 0.1041906
0.0689445 0.3730445 0.1039195
0.1336985 0.3727735 0.1036485
0.1984524 0.3725024 0.1033774
0.2632063 0.3722313 0.1031063
0.3279603 0.3719603 0.1028353
0.3927142 0.3716892 0.1025642
0.4574681 0.3714181 0.1022931
0.5222221 0.3711471 0.1020221
0.5869760 0.3708760 0.1017510
0.6517300 0.3706050 0.1014799
0.7164839 0.3703339 0.1012089
0.7812378 0.3700628 0.1009378
0.8459918 0.3697918 0.1006668
0.9107457 0.3695207 0.1003957
0.9754996 0.3692496 0.1001246
0.0000000 0.4376998 0.1035498
0.0032787 0.4374287 0.1032787
0.0680327 0.4371577 0.1030077
0.1327866 0.4368866 0.1027366
0.1975405 0.4366155 0.1024655
0.2622945 0.4363445 0.1021945
0.3270484 0.4360734 0.1019234
0.3918023 0.4358023 0.1016523
0.4565563 0.4355313 0.1013813
0.5213102 0.4352602 0.1011102
0.5860641 0.4349891 0.1008391
0.6508181 0.4347181 0.1005681
0.7155720 0.4344470 0.1002970
0.7803259 0.4341759 0.1000259
0.8450799 0.4339049 0.0997549
0.9098338 0.4336338 0.0994838
0.9745877 0.4333627 0.0992127
0.0000000 0.5018129 0.1026379
0.0023668 0.5015418 0.1023668
0.0671208 0.5012708 0.1020958
0.1318747 0.5009997 0.1018247
0.1966286 0.5007286 0.1015536
0.2613826 0.5004576 0.1012826
0.3261365 0.5001865 0.1010115
0.3908905 0.4999155 0.1007404
0.4556444 0.4996444 0.1004694
0.5203983 0.4993733 0.1001983
0.5851523 0.4991023 0.0999273
0.6499062 0.4988312 0.0996562
0.7146601 0.4985601 0.0993851
0.7794141 0.4982891 0.0991141
0.8441680 0.4980180 0.0988430
0.9089219 0.4977469 0.0985719
0.9736759 0.4974759 0.0983009
0.0000000 0.5659260 0.1017260
0.0014550 0.5656550 0.1014550
0.0662089 0.5653839 0.1011839
0.1309628 0.5651128 0.1009128
0.1957168 0.5648418 0.1006418
0.2604707 0.5645707 0.1003707
0.3252246 0.5642996 0.1000996
0.3899786 0.5640286 0.0998286
0.4547325 0.5637575 0.0995575
0.5194864 0.5634864 0.0992864
0.5842404 0.5632154 0.0990154
0.6489943 0.5629443 0.0987443
0.7137482 0.5626732 0.0984732
0.7785022 0.5624022 0.0982022
0.8432561 0.5621311 0.0979311
0.9080101 0.5618600 0.0976600
0.9727640 0.5615890 0.0973890
0.0000000 0.6300391 0.1008141
0.0005431 0.6297681 0.1005431
0.0652970 0.6294970 0.1002720
0.1300509 0.6292260 0.1000009
0.1948049 0.6289549 0.0997299
0.2595588 0.6286838 0.0994588
0.3243128 0.6284128 0.0991878
0.3890667 0.6281417 0.0989167
0.4538206 0.6278706 0.0986456
0.5185746 0.6275996 0.0983746
0.5833285 0.6273285 0.0981035
0.6480824 0.6270574 0.0978324
0.7128364 0.6267864 0.0975614
0.7775903 0.6265153 0.0972903
0.8423442 0.6262442 0.0970192
0.9070982 0.6259732 0.0967482
0.9718521 0.6257021 0.0964771
0.0000000 0.6941523 0.0999023
0.0000000 0.6938812 0.0996312
0.0643851 0.6936101 0.0993601
0.1291391 0.6933391 0.0990891
0.1938930 0.6930680 0.0988180
0.2586469 0.6927969 0.0985469
0.3234009 0.6925259 0.0982759
0.3881548 0.6922548 0.0980048
0.4529087 0.6919837 0.0977337
0.5176627 0.6917127 0.0974627
0.5824166 0.6914416 0.0971916
0.6471706 0.6911706 0.0969205
0.7119245 0.6908995 0.0966495
0.7766784 0.6906284 0.0963784
0.8414324 0.6903574 0.0961074
0.9061863 0.6900863 0.0958363
0.9709402 0.6898152 0.0955652
0.0000000 0.7582654 0.0989904
0.0000000 0.7579943 0.0987193
0.0634733 0.7577233 0.0984483
0.1282272 0.7574522 0.0981772
0.1929811 0.7571811 0.0979061
0.2577351 0.7569101 0.0976351
0.3224890 0.7566390 0.0973640
0.3872429 0.7563679 0.0970929
0.4519969 0.7560969 0.0968219
0.5167508 0.7558258 0.0965508
0.5815047 0.7555547 0.0962797
0.6462587 0.7552837 0.0960087
0.7110126 0.7550126 0.0957376
0.7757665 0.7547415 0.0954665
0.8405205 0.7544705 0.0951955
0.9052744 0.7541994 0.0949244
0.9700283 0.7539283 0.0946533
0.0000000 0.8223785 0.0980785
0.0000000 0.8221074 0.0978074
0.0625614 0.8218364 0.0975364
0.1273153 0.8215653 0.0972653
0.1920692 0.8212942 0.0969942
0.2568232 0.8210232 0.0967232
0.3215771 0.8207521 0.0964521
0.3863311 0.8204811 0.0961810
0.4510850 0.8202100 0.0959100
0.5158389 0.8199389 0.0956389
0.5805929 0.8196679 0.0953679
0.6453468 0.8193968 0.0950968
0.7101007 0.8191257 0.0948257
0.7748547 0.8188547 0.0945547
0.8396086 0.8185836 0.0942836
0.9043625 0.8183125 0.0940125
0.9691165 0.8180415 0.0937415
0.0000000 0.8864916 0.0971666
0.0000000 0.8862206 0.0968956
0.0616495 0.8859495 0.0966245
0.1264034 0.8856784 0.0963534
0.1911574 0.8854074 0.0960824
0.2559113 0.8851363 0.0958113
0.3206652 0.8848652 0.0955402
0.3854192 0.8845942 0.0952692
0.4501731 0.8843231 0.0949981
0.5149270 0.8840520 0.0947270
0.5796810 0.8837810 0.0944560
0.6444349 0.8835099 0.0941849
0.7091888 0.8832388 0.0939138
0.7739428 0.8829678 0.0936428
0.8386967 0.8826967 0.0933717
0.9034507 0.8824256 0.0931006
0.9682046 0.8821546 0.0928296
0.0000000 0.9506047 0.0962547
0.0000000 0.9503337 0.0959837
0.0607376 0.9500626 0.0957126
0.1254915 0.9497915 0.0954415
0.1902455 0.9495205 0.0951705
0.2549994 0.9492494 0.0948994
0.3197534 0.9489784 0.0946284
0.3845073 0.9487073 0.0943573
0.4492612 0.9484362 0.0940862
0.5140152 0.9481652 0.0938152
0.5787691 0.9478941 0.0935441
0.6435230 0.9476230 0.0932730
0.7082770 0.9473520 0.0930020
0.7730309 0.9470809 0.0927309
0.8377848 0.9468098 0.0924598
0.9025388 0.9465388 0.0921888
0.9672927 0.9462677 0.0919177
0.0000000 1.0000000 0.0953429
0.0000000 1.0000000 0.0950718
0.0598257 1.0000000 0.0948007
0.1245797 1.0000000 0.0945297
0.1893336 1.0000000 0.0942586
0.2540875 1.0000000 0.0939875
0.3188415 1.0000000 0.0937165
0.3835954 1.0000000 0.0934454
0.4483493 1.0000000 0.0931743
0.5131033 1.0000000 0.0929033
0.5778572 1.0000000 0.0926322
0.6426112 1.0000000 0.0923611
0.7073651 1.0000000 0.0920901
0.7721190 1.0000000 0.0918190
0.8368730 1.0000000 0.0915480
0.9016269 1.0000000 0.0912769
0.9663808 1.0000000 0.0910058
0.0000000 0.0000000 0.1748659
0.0095698 0.0000000 0.1745948
0.0743238 0.0000000 0.1743238
0.1390777 0.0000000 0.1740527
0.2038316 0.0000000 0.1737816
0.2685856 0.0000000 0.1735106
0.3333395 0.0000000 0.1732395
0.3980934 0.0000000 0.1729684
0.4628474 0.0000000 0.1726974
0.5276013 0.0000000 0.1724263
0.5923552 0.0000000 0.1721552
0.6571092 0.0000000 0.1718842
0.7218631 0.0000000 0.1716131
0.7866170 0.0000000 0.1713420
0.8513710 0.0000000 0.1710710
0.9161249 0.0000000 0.1707999
0.9808789 0.0000000 0.1705289
0.0000000 0.0529290 0.1739540
0.0086579 0.0526579 0.1736829
0.0734119 0.0523869 0.1734119
0.1381658 0.0521158 0.1731408
0.2029198 0.0518447 0.1728697
0.2676737 0.0515737 0.1725987
0.3324276 0.0513026 0.1723276
0.3971816 0.0510316 0.1720566
0.4619355 0.0507605 0.1717855
0.5266894 0.0504894 0.1715144
0.5914434 0.0502184 0.1712434
0.6561973 0.0499473 0.1709723
0.7209512 0.0496762 0.1707012
0.7857052 0.0494052 0.1704302
0.8504591 0.0491341 0.1701591
0.9152130 0.0488630 0.1698880
0.9799670 0.0485920 0.1696170
0.0000000 0.1170421 0.1730421
0.0077461 0.1167711 0.1727711
0.0725000 0.1165000 0.1725000
0.1372539 0.1162289 0.1722289
0.2020079 0.1159579 0.1719579
0.2667618 0.1156868 0.1716868
0.3315157 0.1154157 0.1714157
0.3962697 0.1151447 0.1711447
0.4610236 0.1148736 0.1708736
0.5257775 0.1146025 0.1706025
0.5905315 0.1143315 0.1703315
0.6552854 0.1140604 0.1700604
0.7200393 0.1137894 0.1697894
0.7847933 0.1135183 0.1695183
0.8495472 0.1132472 0.1692472
0.9143012 0.1129762 0.1689762
0.9790551 0.1127051 0.1687051
0.0000000 0.1811552 0.1721302
0.0068342 0.1808842 0.1718592
0.0715881 0.1806131 0.1715881
0.1363421 0.1803421 0.1713171
0.2010960 0.1800710 0.1710460
0.2658499 0.1797999 0.1707749
0.3306039 0.1795289 0.1705039
0.3953578 0.1792578 0.1702328
0.4601117 0.1789867 0.1699617
0.5248657 0.1787157 0.1696907
0.5896196 0.1784446 0.1694196
0.6543735 0.1781735 0.1691485
0.7191275 0.1779025 0.1688775
0.7838814 0.1776314 0.1686064
0.8486353 0.1773603 0.1683353
0.9133893 0.1770893 0.1680643
0.9781432 0.1768182 0.1677932
0.0000000 0.2452684 0.1712184
0.0059223 0.2449973 0.1709473
0.0706762 0.2447262 0.1706762
0.1354302 0.2444552 0.1704052
0.2001841 0.2441841 0.1701341
0.2649380 0.2439130 0.1698630
0.3296920 0.2436420 0.1695920
0.3944459 0.2433709 0.1693209
0.4591999 0.2430999 0.1690499
0.5239538 0.2428288 0.1687788
0.5887077 0.2425577 0.1685077
0.6534617 0.2422867 0.1682367
0.7182156 0.2420156 0.1679656
0.7829695 0.2417445 0.1676945
0.8477235 0.2414735 0.1674235
0.9124774 0.2412024 0.1671524
0.9772313 0.2409313 0.1668813
0.0000000 0.3093815 0.1703065
0.0050104 0.3091104 0.1700354
0.0697644 0.3088394 0.1697644
0.1345183 0.3085683 0.1694933
0.1992722 0.3082972 0.1692222
0.2640262 0.3080262 0.1689512
0.3287801 0.3077551 0.1686801
0.3935340 0.3074840 0.1684090
0.4582880 0.3072130 0.1681380
0.5230419 0.3069419 0.1678669
0.5877958 0.3066708 0.1675958
0.6525498 0.3063998 0.1673248
0.7173037 0.3061287 0.1670537
0.7820576 0.3058576 0.1667826
0.8468116 0.3055866 0.1665116
0.9115655 0.3053155 0.1662405
0.9763194 0.3050445 0.1659694
0.0000000 0.3734946 0.1693946
0.0040985 0.3732235 0.1691235
0.0688525 0.3729525 0.1688525
0.1336064 0.3726814 0.1685814
0.1983604 0.3724104 0.1683103
0.2631143 0.3721393 0.1680393
0.3278682 0.3718682 0.1677682
0.3926222 0.3715972 0.1674972
0.4573761 0.3713261 0.1672261
0.5221300 0.3710550 0.1669550
0.5868840 0.3707840 0.1666840
0.6516379 0.3705129 0.1664129
0.7163918 0.3702418 0.1661418
0.7811458 0.3699708 0.1658708
0.8458997 0.3696997 0.1655997
0.9106536 0.3694286 0.1653286
0.9754076 0.3691576 0.1650576
0.0000000 0.4376077 0.1684827
0.0031867 0.4373367 0.1682117
0.0679406 0.4370656 0.1679406
0.1326945 0.4367945 0.1676695
0.1974485 0.4365235 0.1673985
0.2622024 0.4362524 0.1671274
0.3269563 0.4359813 0.1668563
0.3917103 0.4357103 0.1665853
0.4564642 0.4354392 0.1663142
0.5212181 0.4351681 0.1660431
0.5859721 0.4348971 0.1657721
0.6507260 0.4346260 0.1655010
0.7154799 0.4343550 0.1652299
0.7802339 0.4340839 0.1649589
0.8449878 0.4338128 0.1646878
0.9097418 0.4335418 0.1644168
0.9744957 0.4332707 0.1641457
0.0000000 0.5017208 0.1675708
0.0022748 0.5014498 0.1672998
0.0670287 0.5011787 0.1670287
0.1317827 0.5009077 0.1667577
0.1965366 0.5006366 0.1664866
0.2612905 0.5003655 0.1662155
0.3260445 0.5000945 0.1659445
0.3907984 0.4998234 0.1656734
0.4555523 0.4995523 0.1654023
0.5203063 0.4992813 0.1651313
0.5850602 0.4990102 0.1648602
0.6498141 0.4987391 0.1645891
0.7145681 0.4984681 0.1643181
0.7793220 0.4981970 0.1640470
0.8440759 0.4979259 0.1637759
0.9088299 0.4976549 0.1635049
0.9735838 0.4973838 0.1632338
0.0000000 0.5658340 0.1666590
0.0013629 0.5655629 0.1663879
0.0661168 0.5652918 0.1661168
0.1308708 0.5650208 0.1658458
0.1956247 0.5647497 0.1655747
0.2603786 0.5644786 0.1653036
0.3251326 0.5642076 0.1650326
0.3898865 0.5639365 0.1647615
0.4546405 0.5636655 0.1644905
0.5193944 0.5633944 0.1642194
0.5841483 0.5631233 0.1639483
0.6489023 0.5628523 0.1636773
0.7136562 0.5625812 0.1634062
0.7784101 0.5623101 0.1631351
0.8431641 0.5620391 0.1628641
0.9079180 0.5617680 0.1625930
0.9726719 0.5614969 0.1623219
0.0000000 0.6299471 0.1657471
0.0004510 0.6296760 0.1654760
0.0652050 0.6294050 0.1652050
0.1299589 0.6291339 0.1649339
0.1947128 0.6288628 0.1646628
0.2594668 0.6285918 0.1643918
0.3242207 0.6283207 0.1641207
0.3889746 0.6280496 0.1638496
0.4537286 0.6277786 0.1635786
0.5184825 0.6275075 0.1633075
0.5832364 0.6272364 0.1630364
0.6479904 0.6269654 0.1627654
0.7127443 0.6266943 0.1624943
0.7774982 0.6264232 0.1622232
0.8422522 0.6261522 0.1619522
0.9070061 0.6258811 0.1616811
0.9717600 0.6256100 0.1614100
0.0000000 0.6940602 0.1648352
0.0000000 0.6937891 0.1645641
0.0642931 0.6935181 0.1642931
0.1290470 0.6932470 0.1640220
0.1938009 0.6929760 0.1637509
0.2585549 0.6927049 0.1634799
0.3233088 0.6924338 0.1632088
0.3880628 0.6921628 0.1629378
0.4528167 0.6918917 0.1626667
0.5175706 0.6916206 0.1623956
0.5823246 0.6913496 0.1621246
0.6470785 0.6910785 0.1618535
0.7118324 0.6908074 0.1615824
0.7765864 0.6905364 0.1613114
0.8413403 0.6902653 0.1610403
0.9060942 0.6899942 0.1607692
0.9708482 0.6897232 0.1604982
0.0000000 0.7581733 0.1639233
0.0000000 0.7579023 0.1636523
0.0633812 0.7576312 0.1633812
0.1281351 0.7573601 0.1631101
0.1928891 0.7570891 0.1628391
0.2576430 0.7568180 0.1625680
0.3223969 0.7565469 0.1622969
0.3871509 0.7562759 0.1620259
0.4519048 0.7560048 0.1617548
0.5166587 0.7557337 0.1614837
