android/app/src/main/assets/luts/High%20Contrast.cube
TITLE "MirrorBridge High Contrast"
# Generated by scripts/generate_luts.py with {"contrast": 1.28, "lift": -0.015, "saturation": 1.05, "temperature": 0.0}
LUT_3D_SIZE 17
DOMAIN_MIN 0.0 0.0 0.0
DOMAIN_MAX 1.0 1.0 1.0
0.0000000 0.0000000 0.0000000
0.0000000 0.0000000 0.0000000
0.0112992 0.0000000 0.0000000
0.0944488 0.0000000 0.0000000
0.1775984 0.0000000 0.0000000
0.2607480 0.0000000 0.0000000
0.3438976 0.0000000 0.0000000
0.4270472 0.0000000 0.0000000
0.5101968 0.0000000 0.0000000
0.5933464 0.0000000 0.0000000
0.6764960 0.0000000 0.0000000
0.7596456 0.0000000 0.0000000
0.8427952 0.0000000 0.0000000
0.9259448 0.0000000 0.0000000
1.0000000 0.0000000 0.0000000
1.0000000 0.0000000 0.0000000
1.0000000 0.0000000 0.0000000
0.0000000 0.0000000 0.0000000
0.0000000 0.0000000 0.0000000
0.0084384 0.0000000 0.0000000
0.0915880 0.0000000 0.0000000
0.1747376 0.0000000 0.0000000
0.2578872 0.0000000 0.0000000
0.3410368 0.0000000 0.0000000
0.4241864 0.0000000 0.0000000
0.5073360 0.0000000 0.0000000
0.5904856 0.0000000 0.0000000
0.6736352 0.0000000 0.0000000
0.7567848 0.0000000 0.0000000
0.8399344 0.0000000 0.0000000
0.9230840 0.0000000 0.0000000
1.0000000 0.0000000 0.0000000
1.0000000 0.0000000 0.0000000
1.0000000 0.0000000 0.0000000
0.0000000 0.0072784 0.0000000
0.0000000 0.0064280 0.0000000
0.0055776 0.0055776 0.0000000
0.0887272 0.0047272 0.0000000
0.1718768 0.0038768 0.0000000
0.2550264 0.0030264 0.0000000
0.3381760 0.0021760 0.0000000
0.4213256 0.0013256 0.0000000
0.5044752 0.0004752 0.0000000
0.5876248 0.0000000 0.0000000
0.6707744 0.0000000 0.0000000
0.7539240 0.0000000 0.0000000
0.8370736 0.0000000 0.0000000
0.9202232 0.0000000 0.0000000
1.0000000 0.0000000 0.0000000
1.0000000 0.0000000 0.0000000
1.0000000 0.0000000 0.0000000
0.0000000 0.0884176 0.0000000
0.0000000 0.0875672 0.0000000
0.0027168 0.0867168 0.0000000
0.0858664 0.0858664 0.0000000
0.1690160 0.0850160 0.0000000
0.2521656 0.0841656 0.0000000
0.3353152 0.0833152 0.0000000
0.4184648 0.0824648 0.0000000
0.5016144 0.0816144 0.0000000
0.5847640 0.0807640 0.0000000
0.6679136 0.0799136 0.0000000
0.7510632 0.0790632 0.0000000
0.8342128 0.0782128 0.0000000
0.9173624 0.0773624 0.0000000
1.0000000 0.0765120 0.0000000
1.0000000 0.0756616 0.0000000
1.0000000 0.0748112 0.0000000
0.0000000 0.1695568 0.0000000
0.0000000 0.1687064 0.0000000
0.0000000 0.1678560 0.0000000
0.0830056 0.1670056 0.0000000
0.1661552 0.1661552 0.0000000
0.2493048 0.1653048 0.0000000
0.3324544 0.1644544 0.0000000
0.4156040 0.1636040 0.0000000
0.4987536 0.1627536 0.0000000
0.5819032 0.1619032 0.0000000
0.6650528 0.1610528 0.0000000
0.7482024 0.1602024 0.0000000
0.8313520 0.1593520 0.0000000
0.9145016 0.1585016 0.0000000
0.9976512 0.1576512 0.0000000
1.0000000 0.1568008 0.0000000
1.0000000 0.1559504 0.0000000
0.0000000 0.2506960 0.0000000
0.0000000 0.2498456 0.0000000
0.0000000 0.2489952 0.0000000
0.0801448 0.2481448 0.0000000
0.1632944 0.2472944 0.0000000
0.2464440 0.2464440 0.0000000
0.3295936 0.2455936 0.0000000
0.4127432 0.2447432 0.0000000
0.4958928 0.2438928 0.0000000
0.5790424 0.2430424 0.0000000
0.6621920 0.2421920 0.0000000
0.7453416 0.2413416 0.0000000
0.8284912 0.2404912 0.0000000
0.9116408 0.2396408 0.0000000
0.9947904 0.2387904 0.0000000
1.0000000 0.2379400 0.0000000
1.0000000 0.2370896 0.0000000
0.0000000 0.3318352 0.0000000
0.0000000 0.3309848 0.0000000
0.0000000 0.3301344 0.0000000
0.0772840 0.3292840 0.0000000
0.1604336 0.3284336 0.0000000
0.2435832 0.3275832 0.0000000
0.3267328 0.3267328 0.0000000
0.4098824 0.3258824 0.0000000
0.4930320 0.3250320 0.0000000
0.5761816 0.3241816 0.0000000
0.6593312 0.3233312 0.0000000
0.7424808 0.3224808 0.0000000
0.8256304 0.3216304 0.0000000
0.9087800 0.3207800 0.0000000
0.9919296 0.3199296 0.0000000
1.0000000 0.3190792 0.0000000
1.0000000 0.3182288 0.0000000
0.0000000 0.4129744 0.0000000
0.0000000 0.4121240 0.0000000
0.0000000 0.4112736 0.0000000
0.0744232 0.4104232 0.0000000
0.1575728 0.4095728 0.0000000
0.2407224 0.4087224 0.0000000
0.3238720 0.4078720 0.0000000
0.4070216 0.4070216 0.0000000
0.4901712 0.4061712 0.0000000
0.5733208 0.4053208 0.0000000
0.6564704 0.4044704 0.0000000
0.7396200 0.4036200 0.0000000
0.8227696 0.4027696 0.0000000
0.9059192 0.4019192 0.0000000
0.9890688 0.4010688 0.0000000
1.0000000 0.4002184 0.0000000
1.0000000 0.3993680 0.0000000
0.0000000 0.4941136 0.0000000
0.0000000 0.4932632 0.0000000
0.0000000 0.4924128 0.0000000
0.0715624 0.4915624 0.0000000
0.1547120 0.4907120 0.0000000
0.2378616 0.4898616 0.0000000
0.3210112 0.4890112 0.0000000
0.4041608 0.4881608 0.0000000
0.4873104 0.4873104 0.0000000
0.5704600 0.4864600 0.0000000
0.6536096 0.4856096 0.0000000
0.7367592 0.4847592 0.0000000
0.8199088 0.4839088 0.0000000
0.9030584 0.4830584 0.0000000
0.9862080 0.4822080 0.0000000
1.0000000 0.4813576 0.0000000
1.0000000 0.4805072 0.0000000
0.0000000 0.5752528 0.0000000
0.0000000 0.5744024 0.0000000
0.0000000 0.5735520 0.0000000
0.0687016 0.5727016 0.0000000
0.1518512 0.5718512 0.0000000
0.2350008 0.5710008 0.0000000
0.3181504 0.5701504 0.0000000
0.4013000 0.5693000 0.0000000
0.4844496 0.5684496 0.0000000
0.5675992 0.5675992 0.0000000
0.6507488 0.5667488 0.0000000
0.7338984 0.5658984 0.0000000
0.8170480 0.5650480 0.0000000
0.9001976 0.5641976 0.0000000
0.9833472 0.5633472 0.0000000
1.0000000 0.5624968 0.0000000
1.0000000 0.5616464 0.0000000
0.0000000 0.6563920 0.0000000
0.0000000 0.6555416 0.0000000
0.0000000 0.6546912 0.0000000
0.0658408 0.6538408 0.0000000
0.1489904 0.6529904 0.0000000
0.2321400 0.6521400 0.0000000
0.3152896 0.6512896 0.0000000
0.3984392 0.6504392 0.0000000
0.4815888 0.6495888 0.0000000
0.5647384 0.6487384 0.0000000
0.6478880 0.6478880 0.0000000
0.7310376 0.6470376 0.0000000
0.8141872 0.6461872 0.0000000
0.8973368 0.6453368 0.0000000
0.9804864 0.6444864 0.0000000
1.0000000 0.6436360 0.0000000
1.0000000 0.6427856 0.0000000
0.0000000 0.7375312 0.0000000
0.0000000 0.7366808 0.0000000
0.0000000 0.7358304 0.0000000
0.0629800 0.7349800 0.0000000
0.1461296 0.7341296 0.0000000
0.2292792 0.7332792 0.0000000
0.3124288 0.7324288 0.0000000
0.3955784 0.7315784 0.0000000
0.4787280 0.7307280 0.0000000
0.5618776 0.7298776 0.0000000
0.6450272 0.7290272 0.0000000
0.7281768 0.7281768 0.0000000
0.8113264 0.7273264 0.0000000
0.8944760 0.7264760 0.0000000
0.9776256 0.7256256 0.0000000
1.0000000 0.7247752 0.0000000
1.0000000 0.7239248 0.0000000
0.0000000 0.8186704 0.0000000
0.0000000 0.8178200 0.0000000
0.0000000 0.8169696 0.0000000
0.0601192 0.8161192 0.0000000
0.1432688 0.8152688 0.0000000
0.2264184 0.8144184 0.0000000
0.3095680 0.8135680 0.0000000
0.3927176 0.8127176 0.0000000
0.4758672 0.8118672 0.0000000
0.5590168 0.8110168 0.0000000
0.6421664 0.8101664 0.0000000
0.7253160 0.8093160 0.0000000
0.8084656 0.8084656 0.0000000
0.8916152 0.8076152 0.0000000
0.9747648 0.8067648 0.0000000
1.0000000 0.8059144 0.0000000
1.0000000 0.8050640 0.0000000
0.0000000 0.8998096 0.0000000
0.0000000 0.8989592 0.0000000
0.0000000 0.8981088 0.0000000
0.0572584 0.8972584 0.0000000
0.1404080 0.8964080 0.0000000
0.2235576 0.8955576 0.0000000
0.3067072 0.8947072 0.0000000
0.3898568 0.8938568 0.0000000
0.4730064 0.8930064 0.0000000
0.5561560 0.8921560 0.0000000
0.6393056 0.8913056 0.0000000
0.7224552 0.8904552 0.0000000
0.8056048 0.8896048 0.0000000
0.8887544 0.8887544 0.0000000
0.9719040 0.8879040 0.0000000
1.0000000 0.8870536 0.0000000
1.0000000 0.8862032 0.0000000
0.0000000 0.9809488 0.0000000
0.0000000 0.9800984 0.0000000
0.0000000 0.9792480 0.0000000
0.0543976 0.9783976 0.0000000
0.1375472 0.9775472 0.0000000
0.2206968 0.9766968 0.0000000
0.3038464 0.9758464 0.0000000
0.3869960 0.9749960 0.0000000
0.4701456 0.9741456 0.0000000
0.5532952 0.9732952 0.0000000
0.6364448 0.9724448 0.0000000
0.7195944 0.9715944 0.0000000
0.8027440 0.9707440 0.0000000
0.8858936 0.9698936 0.0000000
0.9690432 0.9690432 0.0000000
1.0000000 0.9681928 0.0000000
1.0000000 0.9673424 0.0000000
0.0000000 1.0000000 0.0000000
0.0000000 1.0000000 0.0000000
0.0000000 1.0000000 0.0000000
0.0515368 1.0000000 0.0000000
0.1346864 1.0000000 0.0000000
0.2178360 1.0000000 0.0000000
0.3009856 1.0000000 0.0000000
0.3841352 1.0000000 0.0000000
0.4672848 1.0000000 0.0000000
0.5504344 1.0000000 0.0000000
0.6335840 1.0000000 0.0000000
0.7167336 1.0000000 0.0000000
0.7998832 1.0000000 0.0000000
0.8830328 1.0000000 0.0000000
0.9661824 1.0000000 0.0000000
1.0000000 1.0000000 0.0000000
1.0000000 1.0000000 0.0000000
0.0000000 1.0000000 0.0000000
0.0000000 1.0000000 0.0000000
0.0000000 1.0000000 0.0000000
0.0486760 1.0000000 0.0000000
0.1318256 1.0000000 0.0000000
0.2149752 1.0000000 0.0000000
0.2981248 1.0000000 0.0000000
0.3812744 1.0000000 0.0000000
0.4644240 1.0000000 0.0000000
0.5475736 1.0000000 0.0000000
0.6307232 1.0000000 0.0000000
0.7138728 1.0000000 0.0000000
0.7970224 1.0000000 0.0000000
0.8801720 1.0000000 0.0000000
0.9633216 1.0000000 0.0000000
1.0000000 1.0000000 0.0000000
1.0000000 1.0000000 0.0000000
0.0000000 0.0000000 0.0000000
0.0000000 0.0000000 0.0000000
0.0110104 0.0000000 0.0000000
0.0941600 0.0000000 0.0000000
0.1773096 0.0000000 0.0000000
0.2604592 0.0000000 0.0000000
0.3436088 0.0000000 0.0000000
0.4267584 0.0000000 0.0000000
0.5099080 0.0000000 0.0000000
0.5930576 0.0000000 0.0000000
0.6762072 0.0000000 0.0000000
0.7593568 0.0000000 0.0000000
0.8425064 0.0000000 0.0000000
0.9256560 0.0000000 0.0000000
1.0000000 0.0000000 0.0000000
1.0000000 0.0000000 0.0000000
1.0000000 0.0000000 0.0000000
0.0000000 0.0000000 0.0000000
0.0000000 0.0000000 0.0000000
0.0081496 0.0000000 0.0000000
0.0912992 0.0000000 0.0000000
0.1744488 0.0000000 0.0000000
0.2575984 0.0000000 0.0000000
0.3407480 0.0000000 0.0000000
0.4238976 0.0000000 0.0000000
0.5070472 0.0000000 0.0000000
0.5901968 0.0000000 0.0000000
0.6733464 0.0000000 0.0000000
0.7564960 0.0000000 0.0000000
0.8396456 0.0000000 0.0000000
0.9227952 0.0000000 0.0000000
1.0000000 0.0000000 0.0000000
1.0000000 0.0000000 0.0000000
1.0000000 0.0000000 0.0000000
0.0000000 0.0069896 0.0000000
0.0000000 0.0061392 0.0000000
0.0052888 0.0052888 0.0000000
0.0884384 0.0044384 0.0000000
0.1715880 0.0035880 0.0000000
0.2547376 0.0027376 0.0000000
0.3378872 0.0018872 0.0000000
0.4210368 0.0010368 0.0000000
0.5041864 0.0001864 0.0000000
0.5873360 0.0000000 0.0000000
0.6704856 0.0000000 0.0000000
0.7536352 0.0000000 0.0000000
0.8367848 0.0000000 0.0000000
0.9199344 0.0000000 0.0000000
1.0000000 0.0000000 0.0000000
1.0000000 0.0000000 0.0000000
1.0000000 0.0000000 0.0000000
0.0000000 0.0881288 0.0000000
0.0000000 0.0872784 0.0000000
0.0024280 0.0864280 0.0000000
0.0855776 0.0855776 0.0000000
0.1687272 0.0847272 0.0000000
0.2518768 0.0838768 0.0000000
0.3350264 0.0830264 0.0000000
0.4181760 0.0821760 0.0000000
0.5013256 0.0813256 0.0000000
0.5844752 0.0804752 0.0000000
0.6676248 0.0796248 0.0000000
0.7507744 0.0787744 0.0000000
0.8339240 0.0779240 0.0000000
0.9170736 0.0770736 0.0000000
1.0000000 0.0762232 0.0000000
1.0000000 0.0753728 0.0000000
1.0000000 0.0745224 0.0000000
0.0000000 0.1692680 0.0000000
0.0000000 0.1684176 0.0000000
0.0000000 0.1675672 0.0000000
0.0827168 0.1667168 0.0000000
0.1658664 0.1658664 0.0000000
0.2490160 0.1650160 0.0000000
0.3321656 0.1641656 0.0000000
0.4153152 0.1633152 0.0000000
0.4984648 0.1624648 0.0000000
0.5816144 0.1616144 0.0000000
0.6647640 0.1607640 0.0000000
0.7479136 0.1599136 0.0000000
0.8310632 0.1590632 0.0000000
0.9142128 0.1582128 0.0000000
0.9973624 0.1573624 0.0000000
1.0000000 0.1565120 0.0000000
1.0000000 0.1556616 0.0000000
0.0000000 0.2504072 0.0000000
0.0000000 0.2495568 0.0000000
0.0000000 0.2487064 0.0000000
0.0798560 0.2478560 0.0000000
0.1630056 0.2470056 0.0000000
0.2461552 0.2461552 0.0000000
0.3293048 0.2453048 0.0000000
0.4124544 0.2444544 0.0000000
0.4956040 0.2436040 0.0000000
0.5787536 0.2427536 0.0000000
0.6619032 0.2419032 0.0000000
0.7450528 0.2410528 0.0000000
0.8282024 0.2402024 0.0000000
0.9113520 0.2393520 0.0000000
0.9945016 0.2385016 0.0000000
1.0000000 0.2376512 0.0000000
1.0000000 0.2368008 0.0000000
0.0000000 0.3315464 0.0000000
0.0000000 0.3306960 0.0000000
0.0000000 0.3298456 0.0000000
0.0769952 0.3289952 0.0000000
0.1601448 0.3281448 0.0000000
0.2432944 0.3272944 0.0000000
0.3264440 0.3264440 0.0000000
0.4095936 0.3255936 0.0000000
0.4927432 0.3247432 0.0000000
0.5758928 0.3238928 0.0000000
0.6590424 0.3230424 0.0000000
0.7421920 0.3221920 0.0000000
0.8253416 0.3213416 0.0000000
0.9084912 0.3204912 0.0000000
0.9916408 0.3196408 0.0000000
1.0000000 0.3187904 0.0000000
1.0000000 0.3179400 0.0000000
0.0000000 0.4126856 0.0000000
0.0000000 0.4118352 0.0000000
0.0000000 0.4109848 0.0000000
0.0741344 0.4101344 0.0000000
0.1572840 0.4092840 0.0000000
0.2404336 0.4084336 0.0000000
0.3235832 0.4075832 0.0000000
0.4067328 0.4067328 0.0000000
0.4898824 0.4058824 0.0000000
0.5730320 0.4050320 0.0000000
0.6561816 0.4041816 0.0000000
0.7393312 0.4033312 0.0000000
0.8224808 0.4024808 0.0000000
0.9056304 0.4016304 0.0000000
0.9887800 0.4007800 0.0000000
1.0000000 0.3999296 0.0000000
1.0000000 0.3990792 0.0000000
0.0000000 0.4938248 0.0000000
0.0000000 0.4929744 0.0000000
0.0000000 0.4921240 0.0000000
0.0712736 0.4912736 0.0000000
0.1544232 0.4904232 0.0000000
0.2375728 0.4895728 0.0000000
0.3207224 0.4887224 0.0000000
0.4038720 0.4878720 0.0000000
0.4870216 0.4870216 0.0000000
0.5701712 0.4861712 0.0000000
0.6533208 0.4853208 0.0000000
0.7364704 0.4844704 0.0000000
0.8196200 0.4836200 0.0000000
0.9027696 0.4827696 0.0000000
0.9859192 0.4819192 0.0000000
1.0000000 0.4810688 0.0000000
1.0000000 0.4802184 0.0000000
0.0000000 0.5749640 0.0000000
0.0000000 0.5741136 0.0000000
0.0000000 0.5732632 0.0000000
0.0684128 0.5724128 0.0000000
0.1515624 0.5715624 0.0000000
0.2347120 0.5707120 0.0000000
0.3178616 0.5698616 0.0000000
0.4010112 0.5690112 0.0000000
0.4841608 0.5681608 0.0000000
0.5673104 0.5673104 0.0000000
0.6504600 0.5664600 0.0000000
0.7336096 0.5656096 0.0000000
0.8167592 0.5647592 0.0000000
0.8999088 0.5639088 0.0000000
0.9830584 0.5630584 0.0000000
1.0000000 0.5622080 0.0000000
1.0000000 0.5613576 0.0000000
0.0000000 0.6561032 0.0000000
0.0000000 0.6552528 0.0000000
0.0000000 0.6544024 0.0000000
0.0655520 0.6535520 0.0000000
0.1487016 0.6527016 0.0000000
0.2318512 0.6518512 0.0000000
0.3150008 0.6510008 0.0000000
0.3981504 0.6501504 0.0000000
0.4813000 0.6493000 0.0000000
0.5644496 0.6484496 0.0000000
0.6475992 0.6475992 0.0000000
0.7307488 0.6467488 0.0000000
0.8138984 0.6458984 0.0000000
0.8970480 0.6450480 0.0000000
0.9801976 0.6441976 0.0000000
1.0000000 0.6433472 0.0000000
1.0000000 0.6424968 0.0000000
0.0000000 0.7372424 0.0000000
0.0000000 0.7363920 0.0000000
0.0000000 0.7355416 0.0000000
0.0626912 0.7346912 0.0000000
0.1458408 0.7338408 0.0000000
0.2289904 0.7329904 0.0000000
0.3121400 0.7321400 0.0000000
0.3952896 0.7312896 0.0000000
0.4784392 0.7304392 0.0000000
0.5615888 0.7295888 0.0000000
0.6447384 0.7287384 0.0000000
0.7278880 0.7278880 0.0000000
0.8110376 0.7270376 0.0000000
0.8941872 0.7261872 0.0000000
0.9773368 0.7253368 0.0000000
1.0000000 0.7244864 0.0000000
1.0000000 0.7236360 0.0000000
0.0000000 0.8183816 0.0000000
0.0000000 0.8175312 0.0000000
0.0000000 0.8166808 0.0000000
0.0598304 0.8158304 0.0000000
0.1429800 0.8149800 0.0000000
0.2261296 0.8141296 0.0000000
0.3092792 0.8132792 0.0000000
0.3924288 0.8124288 0.0000000
0.4755784 0.8115784 0.0000000
0.5587280 0.8107280 0.0000000
0.6418776 0.8098776 0.0000000
0.7250272 0.8090272 0.0000000
0.8081768 0.8081768 0.0000000
0.8913264 0.8073264 0.0000000
0.9744760 0.8064760 0.0000000
1.0000000 0.8056256 0.0000000
1.0000000 0.8047752 0.0000000
0.0000000 0.8995208 0.0000000
0.0000000 0.8986704 0.0000000
0.0000000 0.8978200 0.0000000
0.0569696 0.8969696 0.0000000
0.1401192 0.8961192 0.0000000
0.2232688 0.8952688 0.0000000
0.3064184 0.8944184 0.0000000
0.3895680 0.8935680 0.0000000
0.4727176 0.8927176 0.0000000
0.5558672 0.8918672 0.0000000
0.6390168 0.8910168 0.0000000
0.7221664 0.8901664 0.0000000
0.8053160 0.8893160 0.0000000
0.8884656 0.8884656 0.0000000
0.9716152 0.8876152 0.0000000
1.0000000 0.8867648 0.0000000
1.0000000 0.8859144 0.0000000
0.0000000 0.9806600 0.0000000
0.0000000 0.9798096 0.0000000
0.0000000 0.9789592 0.0000000
0.0541088 0.9781088 0.0000000
0.1372584 0.9772584 0.0000000
0.2204080 0.9764080 0.0000000
0.3035576 0.9755576 0.0000000
0.3867072 0.9747072 0.0000000
0.4698568 0.9738568 0.0000000
0.5530064 0.9730064 0.0000000
0.6361560 0.9721560 0.0000000
0.7193056 0.9713056 0.0000000
0.8024552 0.9704552 0.0000000
0.8856048 0.9696048 0.0000000
0.9687544 0.9687544 0.0000000
1.0000000 0.9679040 0.0000000
1.0000000 0.9670536 0.0000000
0.0000000 1.0000000 0.0000000
0.0000000 1.0000000 0.0000000
0.0000000 1.0000000 0.0000000
0.0512480 1.0000000 0.0000000
0.1343976 1.0000000 0.0000000
0.2175472 1.0000000 0.0000000
0.3006968 1.0000000 0.0000000
0.3838464 1.0000000 0.0000000
0.4669960 1.0000000 0.0000000
0.5501456 1.0000000 0.0000000
0.6332952 1.0000000 0.0000000
0.7164448 1.0000000 0.0000000
0.7995944 1.0000000 0.0000000
0.8827440 1.0000000 0.0000000
0.9658936 1.0000000 0.0000000
1.0000000 1.0000000 0.0000000
1.0000000 1.0000000 0.0000000
0.0000000 1.0000000 0.0000000
0.0000000 1.0000000 0.0000000
0.0000000 1.0000000 0.0000000
0.0483872 1.0000000 0.0000000
0.1315368 1.0000000 0.0000000
0.2146864 1.0000000 0.0000000
0.2978360 1.0000000 0.0000000
0.3809856 1.0000000 0.0000000
0.4641352 1.0000000 0.0000000
0.5472848 1.0000000 0.0000000
0.6304344 1.0000000 0.0000000
0.7135840 1.0000000 0.0000000
0.7967336 1.0000000 0.0000000
0.8798832 1.0000000 0.0000000
0.9630328 1.0000000 0.0000000
1.0000000 1.0000000 0.0000000
1.0000000 1.0000000 0.0000000
0.0000000 0.0000000 0.0124224
0.0000000 0.0000000 0.0115720
0.0107216 0.0000000 0.0107216
0.0938712 0.0000000 0.0098712
0.1770208 0.0000000 0.0090208
0.2601704 0.0000000 0.0081704
0.3433200 0.0000000 0.0073200
0.4264696 0.0000000 0.0064696
0.5096192 0.0000000 0.0056192
0.5927688 0.0000000 0.0047688
0.6759184 0.0000000 0.0039184
0.7590680 0.0000000 0.0030680
0.8422176 0.0000000 0.0022176
0.9253672 0.0000000 0.0013672
1.0000000 0.0000000 0.0005168
1.0000000 0.0000000 0.0000000
1.0000000 0.0000000 0.0000000
0.0000000 0.0000000 0.0095616
0.0000000 0.0000000 0.0087112
0.0078608 0.0000000 0.0078608
0.0910104 0.0000000 0.0070104
0.1741600 0.0000000 0.0061600
0.2573096 0.0000000 0.0053096
0.3404592 0.0000000 0.0044592
0.4236088 0.0000000 0.0036088
0.5067584 0.0000000 0.0027584
0.5899080 0.0000000 0.0019080
0.6730576 0.0000000 0.0010576
0.7562072 0.0000000 0.0002072
0.8393568 0.0000000 0.0000000
0.9225064 0.0000000 0.0000000
1.0000000 0.0000000 0.0000000
1.0000000 0.0000000 0.0000000
1.0000000 0.0000000 0.0000000
0.0000000 0.0067008 0.0067008
0.0000000 0.0058504 0.0058504
0.0050000 0.0050000 0.0050000
0.0881496 0.0041496 0.0041496
0.1712992 0.0032992 0.0032992
0.2544488 0.0024488 0.0024488
0.3375984 0.0015984 0.0015984
0.4207480 0.0007480 0.0007480
0.5038976 0.0000000 0.0000000
0.5870472 0.0000000 0.0000000
0.6701968 0.0000000 0.0000000
0.7533464 0.0000000 0.0000000
0.8364960 0.0000000 0.0000000
0.9196456 0.0000000 0.0000000
1.0000000 0.0000000 0.0000000
1.0000000 0.0000000 0.0000000
1.0000000 0.0000000 0.0000000
0.0000000 0.0878400 0.0038400
0.0000000 0.0869896 0.0029896
0.0021392 0.0861392 0.0021392
0.0852888 0.0852888 0.0012888
0.1684384 0.0844384 0.0004384
0.2515880 0.0835880 0.0000000
0.3347376 0.0827376 0.0000000
0.4178872 0.0818872 0.0000000
0.5010368 0.0810368 0.0000000
0.5841864 0.0801864 0.0000000
0.6673360 0.0793360 0.0000000
0.7504856 0.0784856 0.0000000
0.8336352 0.0776352 0.0000000
0.9167848 0.0767848 0.0000000
0.9999344 0.0759344 0.0000000
1.0000000 0.0750840 0.0000000
1.0000000 0.0742336 0.0000000
0.0000000 0.1689792 0.0009792
0.0000000 0.1681288 0.0001288
0.0000000 0.1672784 0.0000000
0.0824280 0.1664280 0.0000000
0.1655776 0.1655776 0.0000000
0.2487272 0.1647272 0.0000000
0.3318768 0.1638768 0.0000000
0.4150264 0.1630264 0.0000000
0.4981760 0.1621760 0.0000000
0.5813256 0.1613256 0.0000000
0.6644752 0.1604752 0.0000000
0.7476248 0.1596248 0.0000000
0.8307744 0.1587744 0.0000000
0.9139240 0.1579240 0.0000000
0.9970736 0.1570736 0.0000000
1.0000000 0.1562232 0.0000000
1.0000000 0.1553728 0.0000000
0.0000000 0.2501184 0.0000000
0.0000000 0.2492680 0.0000000
0.0000000 0.2484176 0.0000000
0.0795672 0.2475672 0.0000000
0.1627168 0.2467168 0.0000000
0.2458664 0.2458664 0.0000000
0.3290160 0.2450160 0.0000000
0.4121656 0.2441656 0.0000000
0.4953152 0.2433152 0.0000000
0.5784648 0.2424648 0.0000000
0.6616144 0.2416144 0.0000000
0.7447640 0.2407640 0.0000000
0.8279136 0.2399136 0.0000000
0.9110632 0.2390632 0.0000000
0.9942128 0.2382128 0.0000000
1.0000000 0.2373624 0.0000000
1.0000000 0.2365120 0.0000000
0.0000000 0.3312576 0.0000000
0.0000000 0.3304072 0.0000000
0.0000000 0.3295568 0.0000000
0.0767064 0.3287064 0.0000000
0.1598560 0.3278560 0.0000000
0.2430056 0.3270056 0.0000000
0.3261552 0.3261552 0.0000000
0.4093048 0.3253048 0.0000000
0.4924544 0.3244544 0.0000000
0.5756040 0.3236040 0.0000000
0.6587536 0.3227536 0.0000000
0.7419032 0.3219032 0.0000000
0.8250528 0.3210528 0.0000000
0.9082024 0.3202024 0.0000000
0.9913520 0.3193520 0.0000000
1.0000000 0.3185016 0.0000000
1.0000000 0.3176512 0.0000000
0.0000000 0.4123968 0.0000000
0.0000000 0.4115464 0.0000000
0.0000000 0.4106960 0.0000000
0.0738456 0.4098456 0.0000000
0.1569952 0.4089952 0.0000000
0.2401448 0.4081448 0.0000000
0.3232944 0.4072944 0.0000000
0.4064440 0.4064440 0.0000000
0.4895936 0.4055936 0.0000000
0.5727432 0.4047432 0.0000000
0.6558928 0.4038928 0.0000000
0.7390424 0.4030424 0.0000000
0.8221920 0.4021920 0.0000000
0.9053416 0.4013416 0.0000000
0.9884912 0.4004912 0.0000000
1.0000000 0.3996408 0.0000000
1.0000000 0.3987904 0.0000000
0.0000000 0.4935360 0.0000000
0.0000000 0.4926856 0.0000000
0.0000000 0.4918352 0.0000000
0.0709848 0.4909848 0.0000000
0.1541344 0.4901344 0.0000000
0.2372840 0.4892840 0.0000000
0.3204336 0.4884336 0.0000000
0.4035832 0.4875832 0.0000000
0.4867328 0.4867328 0.0000000
0.5698824 0.4858824 0.0000000
0.6530320 0.4850320 0.0000000
0.7361816 0.4841816 0.0000000
0.8193312 0.4833312 0.0000000
0.9024808 0.4824808 0.0000000
0.9856304 0.4816304 0.0000000
1.0000000 0.4807800 0.0000000
1.0000000 0.4799296 0.0000000
0.0000000 0.5746752 0.0000000
0.0000000 0.5738248 0.0000000
0.0000000 0.5729744 0.0000000
0.0681240 0.5721240 0.0000000
0.1512736 0.5712736 0.0000000
0.2344232 0.5704232 0.0000000
0.3175728 0.5695728 0.0000000
0.4007224 0.5687224 0.0000000
0.4838720 0.5678720 0.0000000
0.5670216 0.5670216 0.0000000
0.6501712 0.5661712 0.0000000
0.7333208 0.5653208 0.0000000
0.8164704 0.5644704 0.0000000
0.8996200 0.5636200 0.0000000
0.9827696 0.5627696 0.0000000
1.0000000 0.5619192 0.0000000
1.0000000 0.5610688 0.0000000
0.0000000 0.6558144 0.0000000
0.0000000 0.6549640 0.0000000
0.0000000 0.6541136 0.0000000
0.0652632 0.6532632 0.0000000
0.1484128 0.6524128 0.0000000
0.2315624 0.6515624 0.0000000
0.3147120 0.6507120 0.0000000
0.3978616 0.6498616 0.0000000
0.4810112 0.6490112 0.0000000
0.5641608 0.6481608 0.0000000
0.6473104 0.6473104 0.0000000
0.7304600 0.6464600 0.0000000
0.8136096 0.6456096 0.0000000
0.8967592 0.6447592 0.0000000
0.9799088 0.6439088 0.0000000
1.0000000 0.6430584 0.0000000
1.0000000 0.6422080 0.0000000
0.0000000 0.7369536 0.0000000
0.0000000 0.7361032 0.0000000
0.0000000 0.7352528 0.0000000
0.0624024 0.7344024 0.0000000
0.1455520 0.7335520 0.0000000
0.2287016 0.7327016 0.0000000
0.3118512 0.7318512 0.0000000
0.3950008 0.7310008 0.0000000
0.4781504 0.7301504 0.0000000
0.5613000 0.7293000 0.0000000
0.6444496 0.7284496 0.0000000
0.7275992 0.7275992 0.0000000
0.8107488 0.7267488 0.0000000
0.8938984 0.7258984 0.0000000
0.9770480 0.7250480 0.0000000
1.0000000 0.7241976 0.0000000
1.0000000 0.7233472 0.0000000
0.0000000 0.8180928 0.0000000
0.0000000 0.8172424 0.0000000
0.0000000 0.8163920 0.0000000
0.0595416 0.8155416 0.0000000
0.1426912 0.8146912 0.0000000
0.2258408 0.8138408 0.0000000
0.3089904 0.8129904 0.0000000
0.3921400 0.8121400 0.0000000
0.4752896 0.8112896 0.0000000
0.5584392 0.8104392 0.0000000
