android/app/src/main/assets/luts/High%20Contrast.cube
TITLE "MirrorBridge High Contrast"
# Generated by scripts/generate_luts.py with {"contrast": 1.28, "lift": -0.015, "saturation": 1.05, "temperature": 0.0}
LUT_3D_SIZE 5
DOMAIN_MIN 0.0 0.0 0.0
DOMAIN_MAX 1.0 1.0 1.0
0.0000000 0.0000000 0.0000000
0.1775984 0.0000000 0.0000000
0.5101968 0.0000000 0.0000000
0.8427952 0.0000000 0.0000000
1.0000000 0.0000000 0.0000000
0.0000000 0.1695568 0.0000000
0.1661552 0.1661552 0.0000000
0.4987536 0.1627536 0.0000000
0.8313520 0.1593520 0.0000000
1.0000000 0.1559504 0.0000000
0.0000000 0.4941136 0.0000000
0.1547120 0.4907120 0.0000000
0.4873104 0.4873104 0.0000000
0.8199088 0.4839088 0.0000000
1.0000000 0.4805072 0.0000000
0.0000000 0.8186704 0.0000000
0.1432688 0.8152688 0.0000000
0.4758672 0.8118672 0.0000000
0.8084656 0.8084656 0.0000000
1.0000000 0.8050640 0.0000000
0.0000000 1.0000000 0.0000000
0.1318256 1.0000000 0.0000000
0.4644240 1.0000000 0.0000000
0.7970224 1.0000000 0.0000000
1.0000000 1.0000000 0.0000000
0.0000000 0.0000000 0.1798448
0.1764432 0.0000000 0.1764432
0.5090416 0.0000000 0.1730416
0.8416400 0.0000000 0.1696400
1.0000000 0.0000000 0.1662384
0.0000000 0.1684016 0.1684016
0.1650000 0.1650000 0.1650000
0.4975984 0.1615984 0.1615984
0.8301968 0.1581968 0.1581968
1.0000000 0.1547952 0.1547952
0.0000000 0.4929584 0.1569584
0.1535568 0.4895568 0.1535568
0.4861552 0.4861552 0.1501552
0.8187536 0.4827536 0.1467536
1.0000000 0.4793520 0.1433520
0.0000000 0.8175152 0.1455152
0.1421136 0.8141136 0.1421136
0.4747120 0.8107120 0.1387120
0.8073104 0.8073104 0.1353104
1.0000000 0.8039088 0.1319088
0.0000000 1.0000000 0.1340720
0.1306704 1.0000000 0.1306704
0.4632688 1.0000000 0.1272688
0.7958672 1.0000000 0.1238672
1.0000000 1.0000000 0.1204656
0.0000000 0.0000000 0.5146896
0.1752880 0.0000000 0.5112880
0.5078864 0.0000000 0.5078864
0.8404848 0.0000000 0.5044848
1.0000000 0.0000000 0.5010832
0.0000000 0.1672464 0.5032464
0.1638448 0.1638448 0.4998448
0.4964432 0.1604432 0.4964432
0.8290416 0.1570416 0.4930416
1.0000000 0.1536400 0.4896400
0.0000000 0.4918032 0.4918032
0.1524016 0.4884016 0.4884016
0.4850000 0.4850000 0.4850000
0.8175984 0.4815984 0.4815984
1.0000000 0.4781968 0.4781968
0.0000000 0.8163600 0.4803600
0.1409584 0.8129584 0.4769584
0.4735568 0.8095568 0.4735568
0.8061552 0.8061552 0.4701552
1.0000000 0.8027536 0.4667536
0.0000000 1.0000000 0.4689168
0.1295152 1.0000000 0.4655152
0.4621136 1.0000000 0.4621136
0.7947120 1.0000000 0.4587120
1.0000000 1.0000000 0.4553104
0.0000000 0.0000000 0.8495344
0.1741328 0.0000000 0.8461328
0.5067312 0.0000000 0.8427312
0.8393296 0.0000000 0.8393296
1.0000000 0.0000000 0.8359280
0.0000000 0.1660912 0.8380912
0.1626896 0.1626896 0.8346896
0.4952880 0.1592880 0.8312880
0.8278864 0.1558864 0.8278864
1.0000000 0.1524848 0.8244848
0.0000000 0.4906480 0.8266480
0.1512464 0.4872464 0.8232464
0.4838448 0.4838448 0.8198448
0.8164432 0.4804432 0.8164432
1.0000000 0.4770416 0.8130416
0.0000000 0.8152048 0.8152048
0.1398032 0.8118032 0.8118032
0.4724016 0.8084016 0.8084016
0.8050000 0.8050000 0.8050000
1.0000000 0.8015984 0.8015984
0.0000000 1.0000000 0.8037616
0.1283600 1.0000000 0.8003600
0.4609584 1.0000000 0.7969584
0.7935568 1.0000000 0.7935568
1.0000000 1.0000000 0.7901552
0.0000000 0.0000000 1.0000000
0.1729776 0.0000000 1.0000000
0.5055760 0.0000000 1.0000000
0.8381744 0.0000000 1.0000000
1.0000000 0.0000000 1.0000000
0.0000000 0.1649360 1.0000000
0.1615344 0.1615344 1.0000000
0.4941328 0.1581328 1.0000000
0.8267312 0.1547312 1.0000000
1.0000000 0.1513296 1.0000000
0.0000000 0.4894928 1.0000000
0.1500912 0.4860912 1.0000000
0.4826896 0.4826896 1.0000000
0.8152880 0.4792880 1.0000000
1.0000000 0.4758864 1.0000000
0.0000000 0.8140496 1.0000000
0.1386480 0.8106480 1.0000000
0.4712464 0.8072464 1.0000000
0.8038448 0.8038448 1.0000000
1.0000000 0.8004432 1.0000000
0.0000000 1.0000000 1.0000000
0.1272048 1.0000000 1.0000000
0.4598032 1.0000000 1.0000000
0.7924016 1.0000000 1.0000000
1.0000000 1.0000000 1.0000000
