android/app/src/main/assets/luts/High%20Contrast.cube
TITLE "MirrorBridge High Contrast"
# Generated by scripts/generate_luts.py with {"contrast": 1.28, "lift": -0.015, "saturation": 1.05, "temperature": 0.0}
LUT_3D_SIZE 9
DOMAIN_MIN 0.0 0.0 0.0
DOMAIN_MAX 1.0 1.0 1.0
0.0000000 0.0000000 0.0000000
0.0112992 0.0000000 0.0000000
0.1775984 0.0000000 0.0000000
0.3438976 0.0000000 0.0000000
0.5101968 0.0000000 0.0000000
0.6764960 0.0000000 0.0000000
0.8427952 0.0000000 0.0000000
1.0000000 0.0000000 0.0000000
1.0000000 0.0000000 0.0000000
0.0000000 0.0072784 0.0000000
0.0055776 0.0055776 0.0000000
0.1718768 0.0038768 0.0000000
0.3381760 0.0021760 0.0000000
0.5044752 0.0004752 0.0000000
0.6707744 0.0000000 0.0000000
0.8370736 0.0000000 0.0000000
1.0000000 0.0000000 0.0000000
1.0000000 0.0000000 0.0000000
0.0000000 0.1695568 0.0000000
0.0000000 0.1678560 0.0000000
0.1661552 0.1661552 0.0000000
0.3324544 0.1644544 0.0000000
0.4987536 0.1627536 0.0000000
0.6650528 0.1610528 0.0000000
0.8313520 0.1593520 0.0000000
0.9976512 0.1576512 0.0000000
1.0000000 0.1559504 0.0000000
0.0000000 0.3318352 0.0000000
0.0000000 0.3301344 0.0000000
0.1604336 0.3284336 0.0000000
0.3267328 0.3267328 0.0000000
0.4930320 0.3250320 0.0000000
0.6593312 0.3233312 0.0000000
0.8256304 0.3216304 0.0000000
0.9919296 0.3199296 0.0000000
1.0000000 0.3182288 0.0000000
0.0000000 0.4941136 0.0000000
0.0000000 0.4924128 0.0000000
0.1547120 0.4907120 0.0000000
0.3210112 0.4890112 0.0000000
0.4873104 0.4873104 0.0000000
0.6536096 0.4856096 0.0000000
0.8199088 0.4839088 0.0000000
0.9862080 0.4822080 0.0000000
1.0000000 0.4805072 0.0000000
0.0000000 0.6563920 0.0000000
0.0000000 0.6546912 0.0000000
0.1489904 0.6529904 0.0000000
0.3152896 0.6512896 0.0000000
0.4815888 0.6495888 0.0000000
0.6478880 0.6478880 0.0000000
0.8141872 0.6461872 0.0000000
0.9804864 0.6444864 0.0000000
1.0000000 0.6427856 0.0000000
0.0000000 0.8186704 0.0000000
0.0000000 0.8169696 0.0000000
0.1432688 0.8152688 0.0000000
0.3095680 0.8135680 0.0000000
0.4758672 0.8118672 0.0000000
0.6421664 0.8101664 0.0000000
0.8084656 0.8084656 0.0000000
0.9747648 0.8067648 0.0000000
1.0000000 0.8050640 0.0000000
0.0000000 0.9809488 0.0000000
0.0000000 0.9792480 0.0000000
0.1375472 0.9775472 0.0000000
0.3038464 0.9758464 0.0000000
0.4701456 0.9741456 0.0000000
0.6364448 0.9724448 0.0000000
0.8027440 0.9707440 0.0000000
0.9690432 0.9690432 0.0000000
1.0000000 0.9673424 0.0000000
0.0000000 1.0000000 0.0000000
0.0000000 1.0000000 0.0000000
0.1318256 1.0000000 0.0000000
0.2981248 1.0000000 0.0000000
0.4644240 1.0000000 0.0000000
0.6307232 1.0000000 0.0000000
0.7970224 1.0000000 0.0000000
0.9633216 1.0000000 0.0000000
1.0000000 1.0000000 0.0000000
0.0000000 0.0000000 0.0124224
0.0107216 0.0000000 0.0107216
0.1770208 0.0000000 0.0090208
0.3433200 0.0000000 0.0073200
0.5096192 0.0000000 0.0056192
0.6759184 0.0000000 0.0039184
0.8422176 0.0000000 0.0022176
1.0000000 0.0000000 0.0005168
1.0000000 0.0000000 0.0000000
0.0000000 0.0067008 0.0067008
0.0050000 0.0050000 0.0050000
0.1712992 0.0032992 0.0032992
0.3375984 0.0015984 0.0015984
0.5038976 0.0000000 0.0000000
0.6701968 0.0000000 0.0000000
0.8364960 0.0000000 0.0000000
1.0000000 0.0000000 0.0000000
1.0000000 0.0000000 0.0000000
0.0000000 0.1689792 0.0009792
0.0000000 0.1672784 0.0000000
0.1655776 0.1655776 0.0000000
0.3318768 0.1638768 0.0000000
0.4981760 0.1621760 0.0000000
0.6644752 0.1604752 0.0000000
0.8307744 0.1587744 0.0000000
0.9970736 0.1570736 0.0000000
1.0000000 0.1553728 0.0000000
0.0000000 0.3312576 0.0000000
0.0000000 0.3295568 0.0000000
0.1598560 0.3278560 0.0000000
0.3261552 0.3261552 0.0000000
0.4924544 0.3244544 0.0000000
0.6587536 0.3227536 0.0000000
0.8250528 0.3210528 0.0000000
0.9913520 0.3193520 0.0000000
1.0000000 0.3176512 0.0000000
0.0000000 0.4935360 0.0000000
0.0000000 0.4918352 0.0000000
0.1541344 0.4901344 0.0000000
0.3204336 0.4884336 0.0000000
0.4867328 0.4867328 0.0000000
0.6530320 0.4850320 0.0000000
0.8193312 0.4833312 0.0000000
0.9856304 0.4816304 0.0000000
1.0000000 0.4799296 0.0000000
0.0000000 0.6558144 0.0000000
0.0000000 0.6541136 0.0000000
0.1484128 0.6524128 0.0000000
0.3147120 0.6507120 0.0000000
0.4810112 0.6490112 0.0000000
0.6473104 0.6473104 0.0000000
0.8136096 0.6456096 0.0000000
0.9799088 0.6439088 0.0000000
1.0000000 0.6422080 0.0000000
0.0000000 0.8180928 0.0000000
0.0000000 0.8163920 0.0000000
0.1426912 0.8146912 0.0000000
0.3089904 0.8129904 0.0000000
0.4752896 0.8112896 0.0000000
0.6415888 0.8095888 0.0000000
0.8078880 0.8078880 0.0000000
0.9741872 0.8061872 0.0000000
1.0000000 0.8044864 0.0000000
0.0000000 0.9803712 0.0000000
0.0000000 0.9786704 0.0000000
0.1369696 0.9769696 0.0000000
0.3032688 0.9752688 0.0000000
0.4695680 0.9735680 0.0000000
0.6358672 0.9718672 0.0000000
0.8021664 0.9701664 0.0000000
0.9684656 0.9684656 0.0000000
1.0000000 0.9667648 0.0000000
0.0000000 1.0000000 0.0000000
0.0000000 1.0000000 0.0000000
0.1312480 1.0000000 0.0000000
0.2975472 1.0000000 0.0000000
0.4638464 1.0000000 0.0000000
0.6301456 1.0000000 0.0000000
0.7964448 1.0000000 0.0000000
0.9627440 1.0000000 0.0000000
1.0000000 1.0000000 0.0000000
0.0000000 0.0000000 0.1798448
0.0101440 0.0000000 0.1781440
0.1764432 0.0000000 0.1764432
0.3427424 0.0000000 0.1747424
0.5090416 0.0000000 0.1730416
0.6753408 0.0000000 0.1713408
0.8416400 0.0000000 0.1696400
1.0000000 0.0000000 0.1679392
1.0000000 0.0000000 0.1662384
0.0000000 0.0061232 0.1741232
0.0044224 0.0044224 0.1724224
0.1707216 0.0027216 0.1707216
0.3370208 0.0010208 0.1690208
0.5033200 0.0000000 0.1673200
0.6696192 0.0000000 0.1656192
0.8359184 0.0000000 0.1639184
1.0000000 0.0000000 0.1622176
1.0000000 0.0000000 0.1605168
0.0000000 0.1684016 0.1684016
0.0000000 0.1667008 0.1667008
0.1650000 0.1650000 0.1650000
0.3312992 0.1632992 0.1632992
0.4975984 0.1615984 0.1615984
0.6638976 0.1598976 0.1598976
0.8301968 0.1581968 0.1581968
0.9964960 0.1564960 0.1564960
1.0000000 0.1547952 0.1547952
0.0000000 0.3306800 0.1626800
0.0000000 0.3289792 0.1609792
0.1592784 0.3272784 0.1592784
0.3255776 0.3255776 0.1575776
0.4918768 0.3238768 0.1558768
0.6581760 0.3221760 0.1541760
0.8244752 0.3204752 0.1524752
0.9907744 0.3187744 0.1507744
1.0000000 0.3170736 0.1490736
0.0000000 0.4929584 0.1569584
0.0000000 0.4912576 0.1552576
0.1535568 0.4895568 0.1535568
0.3198560 0.4878560 0.1518560
0.4861552 0.4861552 0.1501552
0.6524544 0.4844544 0.1484544
0.8187536 0.4827536 0.1467536
0.9850528 0.4810528 0.1450528
1.0000000 0.4793520 0.1433520
0.0000000 0.6552368 0.1512368
0.0000000 0.6535360 0.1495360
0.1478352 0.6518352 0.1478352
0.3141344 0.6501344 0.1461344
0.4804336 0.6484336 0.1444336
0.6467328 0.6467328 0.1427328
0.8130320 0.6450320 0.1410320
0.9793312 0.6433312 0.1393312
1.0000000 0.6416304 0.1376304
0.0000000 0.8175152 0.1455152
0.0000000 0.8158144 0.1438144
0.1421136 0.8141136 0.1421136
0.3084128 0.8124128 0.1404128
0.4747120 0.8107120 0.1387120
0.6410112 0.8090112 0.1370112
0.8073104 0.8073104 0.1353104
0.9736096 0.8056096 0.1336096
1.0000000 0.8039088 0.1319088
0.0000000 0.9797936 0.1397936
0.0000000 0.9780928 0.1380928
0.1363920 0.9763920 0.1363920
0.3026912 0.9746912 0.1346912
0.4689904 0.9729904 0.1329904
0.6352896 0.9712896 0.1312896
0.8015888 0.9695888 0.1295888
0.9678880 0.9678880 0.1278880
1.0000000 0.9661872 0.1261872
0.0000000 1.0000000 0.1340720
0.0000000 1.0000000 0.1323712
0.1306704 1.0000000 0.1306704
0.2969696 1.0000000 0.1289696
0.4632688 1.0000000 0.1272688
0.6295680 1.0000000 0.1255680
0.7958672 1.0000000 0.1238672
0.9621664 1.0000000 0.1221664
1.0000000 1.0000000 0.1204656
0.0000000 0.0000000 0.3472672
0.0095664 0.0000000 0.3455664
0.1758656 0.0000000 0.3438656
0.3421648 0.0000000 0.3421648
0.5084640 0.0000000 0.3404640
0.6747632 0.0000000 0.3387632
0.8410624 0.0000000 0.3370624
1.0000000 0.0000000 0.3353616
1.0000000 0.0000000 0.3336608
0.0000000 0.0055456 0.3415456
0.0038448 0.0038448 0.3398448
0.1701440 0.0021440 0.3381440
0.3364432 0.0004432 0.3364432
0.5027424 0.0000000 0.3347424
0.6690416 0.0000000 0.3330416
0.8353408 0.0000000 0.3313408
1.0000000 0.0000000 0.3296400
1.0000000 0.0000000 0.3279392
0.0000000 0.1678240 0.3358240
0.0000000 0.1661232 0.3341232
0.1644224 0.1644224 0.3324224
0.3307216 0.1627216 0.3307216
0.4970208 0.1610208 0.3290208
0.6633200 0.1593200 0.3273200
0.8296192 0.1576192 0.3256192
0.9959184 0.1559184 0.3239184
1.0000000 0.1542176 0.3222176
0.0000000 0.3301024 0.3301024
0.0000000 0.3284016 0.3284016
0.1587008 0.3267008 0.3267008
0.3250000 0.3250000 0.3250000
0.4912992 0.3232992 0.3232992
0.6575984 0.3215984 0.3215984
0.8238976 0.3198976 0.3198976
0.9901968 0.3181968 0.3181968
1.0000000 0.3164960 0.3164960
0.0000000 0.4923808 0.3243808
0.0000000 0.4906800 0.3226800
0.1529792 0.4889792 0.3209792
0.3192784 0.4872784 0.3192784
0.4855776 0.4855776 0.3175776
0.6518768 0.4838768 0.3158768
0.8181760 0.4821760 0.3141760
0.9844752 0.4804752 0.3124752
1.0000000 0.4787744 0.3107744
0.0000000 0.6546592 0.3186592
0.0000000 0.6529584 0.3169584
0.1472576 0.6512576 0.3152576
0.3135568 0.6495568 0.3135568
0.4798560 0.6478560 0.3118560
0.6461552 0.6461552 0.3101552
0.8124544 0.6444544 0.3084544
0.9787536 0.6427536 0.3067536
1.0000000 0.6410528 0.3050528
0.0000000 0.8169376 0.3129376
0.0000000 0.8152368 0.3112368
0.1415360 0.8135360 0.3095360
0.3078352 0.8118352 0.3078352
0.4741344 0.8101344 0.3061344
0.6404336 0.8084336 0.3044336
0.8067328 0.8067328 0.3027328
0.9730320 0.8050320 0.3010320
1.0000000 0.8033312 0.2993312
0.0000000 0.9792160 0.3072160
0.0000000 0.9775152 0.3055152
0.1358144 0.9758144 0.3038144
0.3021136 0.9741136 0.3021136
0.4684128 0.9724128 0.3004128
0.6347120 0.9707120 0.2987120
0.8010112 0.9690112 0.2970112
0.9673104 0.9673104 0.2953104
1.0000000 0.9656096 0.2936096
0.0000000 1.0000000 0.3014944
0.0000000 1.0000000 0.2997936
0.1300928 1.0000000 0.2980928
0.2963920 1.0000000 0.2963920
0.4626912 1.0000000 0.2946912
0.6289904 1.0000000 0.2929904
0.7952896 1.0000000 0.2912896
0.9615888 1.0000000 0.2895888
1.0000000 1.0000000 0.2878880
0.0000000 0.0000000 0.5146896
0.0089888 0.0000000 0.5129888
0.1752880 0.0000000 0.5112880
0.3415872 0.0000000 0.5095872
0.5078864 0.0000000 0.5078864
0.6741856 0.0000000 0.5061856
0.8404848 0.0000000 0.5044848
1.0000000 0.0000000 0.5027840
1.0000000 0.0000000 0.5010832
0.0000000 0.0049680 0.5089680
0.0032672 0.0032672 0.5072672
0.1695664 0.0015664 0.5055664
0.3358656 0.0000000 0.5038656
0.5021648 0.0000000 0.5021648
0.6684640 0.0000000 0.5004640
0.8347632 0.0000000 0.4987632
1.0000000 0.0000000 0.4970624
1.0000000 0.0000000 0.4953616
0.0000000 0.1672464 0.5032464
0.0000000 0.1655456 0.5015456
0.1638448 0.1638448 0.4998448
0.3301440 0.1621440 0.4981440
0.4964432 0.1604432 0.4964432
0.6627424 0.1587424 0.4947424
0.8290416 0.1570416 0.4930416
0.9953408 0.1553408 0.4913408
1.0000000 0.1536400 0.4896400
0.0000000 0.3295248 0.4975248
0.0000000 0.3278240 0.4958240
0.1581232 0.3261232 0.4941232
0.3244224 0.3244224 0.4924224
0.4907216 0.3227216 0.4907216
0.6570208 0.3210208 0.4890208
0.8233200 0.3193200 0.4873200
0.9896192 0.3176192 0.4856192
1.0000000 0.3159184 0.4839184
0.0000000 0.4918032 0.4918032
0.0000000 0.4901024 0.4901024
0.1524016 0.4884016 0.4884016
0.3187008 0.4867008 0.4867008
0.4850000 0.4850000 0.4850000
0.6512992 0.4832992 0.4832992
0.8175984 0.4815984 0.4815984
0.9838976 0.4798976 0.4798976
1.0000000 0.4781968 0.4781968
0.0000000 0.6540816 0.4860816
0.0000000 0.6523808 0.4843808
0.1466800 0.6506800 0.4826800
0.3129792 0.6489792 0.4809792
0.4792784 0.6472784 0.4792784
0.6455776 0.6455776 0.4775776
0.8118768 0.6438768 0.4758768
0.9781760 0.6421760 0.4741760
1.0000000 0.6404752 0.4724752
0.0000000 0.8163600 0.4803600
0.0000000 0.8146592 0.4786592
0.1409584 0.8129584 0.4769584
0.3072576 0.8112576 0.4752576
0.4735568 0.8095568 0.4735568
0.6398560 0.8078560 0.4718560
0.8061552 0.8061552 0.4701552
0.9724544 0.8044544 0.4684544
1.0000000 0.8027536 0.4667536
0.0000000 0.9786384 0.4746384
0.0000000 0.9769376 0.4729376
0.1352368 0.9752368 0.4712368
0.3015360 0.9735360 0.4695360
0.4678352 0.9718352 0.4678352
0.6341344 0.9701344 0.4661344
0.8004336 0.9684336 0.4644336
0.9667328 0.9667328 0.4627328
1.0000000 0.9650320 0.4610320
0.0000000 1.0000000 0.4689168
0.0000000 1.0000000 0.4672160
0.1295152 1.0000000 0.4655152
0.2958144 1.0000000 0.4638144
0.4621136 1.0000000 0.4621136
0.6284128 1.0000000 0.4604128
0.7947120 1.0000000 0.4587120
0.9610112 1.0000000 0.4570112
1.0000000 1.0000000 0.4553104
0.0000000 0.0000000 0.6821120
0.0084112 0.0000000 0.6804112
0.1747104 0.0000000 0.6787104
0.3410096 0.0000000 0.6770096
0.5073088 0.0000000 0.6753088
0.6736080 0.0000000 0.6736080
0.8399072 0.0000000 0.6719072
1.0000000 0.0000000 0.6702064
1.0000000 0.0000000 0.6685056
0.0000000 0.0043904 0.6763904
0.0026896 0.0026896 0.6746896
0.1689888 0.0009888 0.6729888
0.3352880 0.0000000 0.6712880
0.5015872 0.0000000 0.6695872
0.6678864 0.0000000 0.6678864
0.8341856 0.0000000 0.6661856
1.0000000 0.0000000 0.6644848
1.0000000 0.0000000 0.6627840
0.0000000 0.1666688 0.6706688
0.0000000 0.1649680 0.6689680
0.1632672 0.1632672 0.6672672
0.3295664 0.1615664 0.6655664
0.4958656 0.1598656 0.6638656
0.6621648 0.1581648 0.6621648
0.8284640 0.1564640 0.6604640
0.9947632 0.1547632 0.6587632
1.0000000 0.1530624 0.6570624
0.0000000 0.3289472 0.6649472
0.0000000 0.3272464 0.6632464
0.1575456 0.3255456 0.6615456
0.3238448 0.3238448 0.6598448
0.4901440 0.3221440 0.6581440
0.6564432 0.3204432 0.6564432
0.8227424 0.3187424 0.6547424
0.9890416 0.3170416 0.6530416
1.0000000 0.3153408 0.6513408
0.0000000 0.4912256 0.6592256
0.0000000 0.4895248 0.6575248
0.1518240 0.4878240 0.6558240
0.3181232 0.4861232 0.6541232
0.4844224 0.4844224 0.6524224
0.6507216 0.4827216 0.6507216
0.8170208 0.4810208 0.6490208
0.9833200 0.4793200 0.6473200
1.0000000 0.4776192 0.6456192
0.0000000 0.6535040 0.6535040
0.0000000 0.6518032 0.6518032
0.1461024 0.6501024 0.6501024
0.3124016 0.6484016 0.6484016
0.4787008 0.6467008 0.6467008
0.6450000 0.6450000 0.6450000
0.8112992 0.6432992 0.6432992
0.9775984 0.6415984 0.6415984
1.0000000 0.6398976 0.6398976
0.0000000 0.8157824 0.6477824
0.0000000 0.8140816 0.6460816
0.1403808 0.8123808 0.6443808
0.3066800 0.8106800 0.6426800
0.4729792 0.8089792 0.6409792
0.6392784 0.8072784 0.6392784
0.8055776 0.8055776 0.6375776
0.9718768 0.8038768 0.6358768
1.0000000 0.8021760 0.6341760
0.0000000 0.9780608 0.6420608
0.0000000 0.9763600 0.6403600
0.1346592 0.9746592 0.6386592
0.3009584 0.9729584 0.6369584
0.4672576 0.9712576 0.6352576
0.6335568 0.9695568 0.6335568
0.7998560 0.9678560 0.6318560
0.9661552 0.9661552 0.6301552
1.0000000 0.9644544 0.6284544
0.0000000 1.0000000 0.6363392
0.0000000 1.0000000 0.6346384
0.1289376 1.0000000 0.6329376
0.2952368 1.0000000 0.6312368
0.4615360 1.0000000 0.6295360
0.6278352 1.0000000 0.6278352
0.7941344 1.0000000 0.6261344
0.9604336 1.0000000 0.6244336
1.0000000 1.0000000 0.6227328
0.0000000 0.0000000 0.8495344
0.0078336 0.0000000 0.8478336
0.1741328 0.0000000 0.8461328
0.3404320 0.0000000 0.8444320
0.5067312 0.0000000 0.8427312
0.6730304 0.0000000 0.8410304
0.8393296 0.0000000 0.8393296
1.0000000 0.0000000 0.8376288
1.0000000 0.0000000 0.8359280
0.0000000 0.0038128 0.8438128
0.0021120 0.0021120 0.8421120
0.1684112 0.0004112 0.8404112
0.3347104 0.0000000 0.8387104
0.5010096 0.0000000 0.8370096
0.6673088 0.0000000 0.8353088
0.8336080 0.0000000 0.8336080
0.9999072 0.0000000 0.8319072
1.0000000 0.0000000 0.8302064
0.0000000 0.1660912 0.8380912
0.0000000 0.1643904 0.8363904
0.1626896 0.1626896 0.8346896
0.3289888 0.1609888 0.8329888
0.4952880 0.1592880 0.8312880
0.6615872 0.1575872 0.8295872
0.8278864 0.1558864 0.8278864
0.9941856 0.1541856 0.8261856
1.0000000 0.1524848 0.8244848
0.0000000 0.3283696 0.8323696
0.0000000 0.3266688 0.8306688
0.1569680 0.3249680 0.8289680
0.3232672 0.3232672 0.8272672
0.4895664 0.3215664 0.8255664
0.6558656 0.3198656 0.8238656
0.8221648 0.3181648 0.8221648
0.9884640 0.3164640 0.8204640
1.0000000 0.3147632 0.8187632
0.0000000 0.4906480 0.8266480
0.0000000 0.4889472 0.8249472
0.1512464 0.4872464 0.8232464
0.3175456 0.4855456 0.8215456
0.4838448 0.4838448 0.8198448
0.6501440 0.4821440 0.8181440
0.8164432 0.4804432 0.8164432
0.9827424 0.4787424 0.8147424
1.0000000 0.4770416 0.8130416
0.0000000 0.6529264 0.8209264
0.0000000 0.6512256 0.8192256
0.1455248 0.6495248 0.8175248
0.3118240 0.6478240 0.8158240
0.4781232 0.6461232 0.8141232
0.6444224 0.6444224 0.8124224
0.8107216 0.6427216 0.8107216
0.9770208 0.6410208 0.8090208
1.0000000 0.6393200 0.8073200
0.0000000 0.8152048 0.8152048
0.0000000 0.8135040 0.8135040
0.1398032 0.8118032 0.8118032
0.3061024 0.8101024 0.8101024
0.4724016 0.8084016 0.8084016
0.6387008 0.8067008 0.8067008
0.8050000 0.8050000 0.8050000
0.9712992 0.8032992 0.8032992
1.0000000 0.8015984 0.8015984
0.0000000 0.9774832 0.8094832
0.0000000 0.9757824 0.8077824
0.1340816 0.9740816 0.8060816
0.3003808 0.9723808 0.8043808
0.4666800 0.9706800 0.8026800
0.6329792 0.9689792 0.8009792
0.7992784 0.9672784 0.7992784
0.9655776 0.9655776 0.7975776
1.0000000 0.9638768 0.7958768
0.0000000 1.0000000 0.8037616
0.0000000 1.0000000 0.8020608
0.1283600 1.0000000 0.8003600
0.2946592 1.0000000 0.7986592
0.4609584 1.0000000 0.7969584
0.6272576 1.0000000 0.7952576
0.7935568 1.0000000 0.7935568
0.9598560 1.0000000 0.7918560
1.0000000 1.0000000 0.7901552
0.0000000 0.0000000 1.0000000
0.0072560 0.0000000 1.0000000
0.1735552 0.0000000 1.0000000
0.3398544 0.0000000 1.0000000
0.5061536 0.0000000 1.0000000
0.6724528 0.0000000 1.0000000
0.8387520 0.0000000 1.0000000
1.0000000 0.0000000 1.0000000
1.0000000 0.0000000 1.0000000
0.0000000 0.0032352 1.0000000
0.0015344 0.0015344 1.0000000
0.1678336 0.0000000 1.0000000
0.3341328 0.0000000 1.0000000
0.5004320 0.0000000 1.0000000
0.6667312 0.0000000 1.0000000
0.8330304 0.0000000 1.0000000
0.9993296 0.0000000 0.9993296
1.0000000 0.0000000 0.9976288
0.0000000 0.1655136 1.0000000
0.0000000 0.1638128 1.0000000
0.1621120 0.1621120 1.0000000
0.3284112 0.1604112 1.0000000
0.4947104 0.1587104 0.9987104
0.6610096 0.1570096 0.9970096
0.8273088 0.1553088 0.9953088
0.9936080 0.1536080 0.9936080
1.0000000 0.1519072 0.9919072
0.0000000 0.3277920 0.9997920
0.0000000 0.3260912 0.9980912
0.1563904 0.3243904 0.9963904
0.3226896 0.3226896 0.9946896
0.4889888 0.3209888 0.9929888
0.6552880 0.3192880 0.9912880
0.8215872 0.3175872 0.9895872
0.9878864 0.3158864 0.9878864
1.0000000 0.3141856 0.9861856
0.0000000 0.4900704 0.9940704
0.0000000 0.4883696 0.9923696
0.1506688 0.4866688 0.9906688
0.3169680 0.4849680 0.9889680
0.4832672 0.4832672 0.9872672
0.6495664 0.4815664 0.9855664
0.8158656 0.4798656 0.9838656
0.9821648 0.4781648 0.9821648
1.0000000 0.4764640 0.9804640
0.0000000 0.6523488 0.9883488
0.0000000 0.6506480 0.9866480
0.1449472 0.6489472 0.9849472
0.3112464 0.6472464 0.9832464
0.4775456 0.6455456 0.9815456
0.6438448 0.6438448 0.9798448
0.8101440 0.6421440 0.9781440
0.9764432 0.6404432 0.9764432
1.0000000 0.6387424 0.9747424
0.0000000 0.8146272 0.9826272
0.0000000 0.8129264 0.9809264
0.1392256 0.8112256 0.9792256
0.3055248 0.8095248 0.9775248
0.4718240 0.8078240 0.9758240
0.6381232 0.8061232 0.9741232
0.8044224 0.8044224 0.9724224
0.9707216 0.8027216 0.9707216
1.0000000 0.8010208 0.9690208
0.0000000 0.9769056 0.9769056
0.0000000 0.9752048 0.9752048
0.1335040 0.9735040 0.9735040
0.2998032 0.9718032 0.9718032
0.4661024 0.9701024 0.9701024
0.6324016 0.9684016 0.9684016
0.7987008 0.9667008 0.9667008
0.9650000 0.9650000 0.9650000
1.0000000 0.9632992 0.9632992
0.0000000 1.0000000 0.9711840
0.0000000 1.0000000 0.9694832
0.1277824 1.0000000 0.9677824
0.2940816 1.0000000 0.9660816
0.4603808 1.0000000 0.9643808
0.6266800 1.0000000 0.9626800
0.7929792 1.0000000 0.9609792
0.9592784 1.0000000 0.9592784
1.0000000 1.0000000 0.9575776
0.0000000 0.0000000 1.0000000
0.0066784 0.0000000 1.0000000
0.1729776 0.0000000 1.0000000
0.3392768 0.0000000 1.0000000
0.5055760 0.0000000 1.0000000
0.6718752 0.0000000 1.0000000
0.8381744 0.0000000 1.0000000
1.0000000 0.0000000 1.0000000
1.0000000 0.0000000 1.0000000
0.0000000 0.0026576 1.0000000
0.0009568 0.0009568 1.0000000
0.1672560 0.0000000 1.0000000
0.3335552 0.0000000 1.0000000
0.4998544 0.0000000 1.0000000
0.6661536 0.0000000 1.0000000
0.8324528 0.0000000 1.0000000
0.9987520 0.0000000 1.0000000
1.0000000 0.0000000 1.0000000
0.0000000 0.1649360 1.0000000
0.0000000 0.1632352 1.0000000
0.1615344 0.1615344 1.0000000
0.3278336 0.1598336 1.0000000
0.4941328 0.1581328 1.0000000
0.6604320 0.1564320 1.0000000
0.8267312 0.1547312 1.0000000
0.9930304 0.1530304 1.0000000
1.0000000 0.1513296 1.0000000
0.0000000 0.3272144 1.0000000
0.0000000 0.3255136 1.0000000
0.1558128 0.3238128 1.0000000
0.3221120 0.3221120 1.0000000
0.4884112 0.3204112 1.0000000
0.6547104 0.3187104 1.0000000
0.8210096 0.3170096 1.0000000
0.9873088 0.3153088 1.0000000
1.0000000 0.3136080 1.0000000
0.0000000 0.4894928 1.0000000
0.0000000 0.4877920 1.0000000
0.1500912 0.4860912 1.0000000
0.3163904 0.4843904 1.0000000
0.4826896 0.4826896 1.0000000
0.6489888 0.4809888 1.0000000
0.8152880 0.4792880 1.0000000
0.9815872 0.4775872 1.0000000
1.0000000 0.4758864 1.0000000
0.0000000 0.6517712 1.0000000
0.0000000 0.6500704 1.0000000
0.1443696 0.6483696 1.0000000
0.3106688 0.6466688 1.0000000
0.4769680 0.6449680 1.0000000
0.6432672 0.6432672 1.0000000
0.8095664 0.6415664 1.0000000
0.9758656 0.6398656 1.0000000
1.0000000 0.6381648 1.0000000
0.0000000 0.8140496 1.0000000
0.0000000 0.8123488 1.0000000
0.1386480 0.8106480 1.0000000
0.3049472 0.8089472 1.0000000
0.4712464 0.8072464 1.0000000
0.6375456 0.8055456 1.0000000
0.8038448 0.8038448 1.0000000
0.9701440 0.8021440 1.0000000
1.0000000 0.8004432 1.0000000
0.0000000 0.9763280 1.0000000
0.0000000 0.9746272 1.0000000
0.1329264 0.9729264 1.0000000
0.2992256 0.9712256 1.0000000
0.4655248 0.9695248 1.0000000
0.6318240 0.9678240 1.0000000
0.7981232 0.9661232 1.0000000
0.9644224 0.9644224 1.0000000
1.0000000 0.9627216 1.0000000
0.0000000 1.0000000 1.0000000
0.0000000 1.0000000 1.0000000
0.1272048 1.0000000 1.0000000
0.2935040 1.0000000 1.0000000
0.4598032 1.0000000 1.0000000
0.6261024 1.0000000 1.0000000
0.7924016 1.0000000 1.0000000
0.9587008 1.0000000 1.0000000
1.0000000 1.0000000 1.0000000
