android/app/src/main/assets/luts/Matte%20Film.cube
TITLE "MirrorBridge Matte Film"
# Generated by scripts/generate_luts.py with {"contrast": 0.92, "lift": 0.075, "saturation": 0.88, "temperature": 0.018}
LUT_3D_SIZE 5
DOMAIN_MIN 0.0 0.0 0.0
DOMAIN_MAX 1.0 1.0 1.0
0.1330000 0.1171600 0.0970000
0.3412678 0.1230278 0.1028678
0.5495355 0.1288955 0.1087355
0.7578033 0.1347633 0.1146033
0.9660710 0.1406310 0.1204710
0.1527395 0.3392995 0.1167395
0.3610073 0.3451673 0.1226073
0.5692750 0.3510350 0.1284750
0.7775428 0.3569028 0.1343428
0.9858106 0.3627706 0.1402106
0.1724790 0.5614390 0.1364790
0.3807468 0.5673068 0.1423468
0.5890146 0.5731746 0.1482146
0.7972823 0.5790423 0.1540823
1.0000000 0.5849101 0.1599501
0.1922186 0.7835786 0.1562186
0.4004863 0.7894463 0.1620863
0.6087541 0.7953141 0.1679541
0.8170218 0.8011818 0.1738218
1.0000000 0.8070496 0.1796896
0.2119581 1.0000000 0.1759581
0.4202258 1.0000000 0.1818258
0.6284936 1.0000000 0.1876936
0.8367614 1.0000000 0.1935614
1.0000000 1.0000000 0.1994291
0.1349927 0.1191527 0.3013927
0.3432605 0.1250205 0.3072605
0.5515282 0.1308882 0.3131282
0.7597960 0.1367560 0.3189960
0.9680638 0.1426238 0.3248638
0.1547322 0.3412922 0.3211322
0.3630000 0.3471600 0.3270000
0.5712678 0.3530278 0.3328678
0.7795355 0.3588955 0.3387355
0.9878033 0.3647633 0.3446033
0.1744718 0.5634318 0.3408718
0.3827395 0.5692995 0.3467395
0.5910073 0.5751673 0.3526073
0.7992750 0.5810350 0.3584750
1.0000000 0.5869028 0.3643428
0.1942113 0.7855713 0.3606113
0.4024790 0.7914390 0.3664790
0.6107468 0.7973068 0.3723468
0.8190146 0.8031746 0.3782146
1.0000000 0.8090423 0.3840823
0.2139508 1.0000000 0.3803508
0.4222186 1.0000000 0.3862186
0.6304863 1.0000000 0.3920863
0.8387541 1.0000000 0.3979541
1.0000000 1.0000000 0.4038218
0.1369854 0.1211454 0.5057854
0.3452532 0.1270132 0.5116532
0.5535210 0.1328810 0.5175210
0.7617887 0.1387487 0.5233887
0.9700565 0.1446165 0.5292565
0.1567250 0.3432850 0.5255250
0.3649927 0.3491527 0.5313927
0.5732605 0.3550205 0.5372605
0.7815282 0.3608882 0.5431282
0.9897960 0.3667560 0.5489960
0.1764645 0.5654245 0.5452645
0.3847322 0.5712922 0.5511322
0.5930000 0.5771600 0.5570000
0.8012678 0.5830278 0.5628678
1.0000000 0.5888955 0.5687355
0.1962040 0.7875640 0.5650040
0.4044718 0.7934318 0.5708718
0.6127395 0.7992995 0.5767395
0.8210073 0.8051673 0.5826073
1.0000000 0.8110350 0.5884750
0.2159435 1.0000000 0.5847435
0.4242113 1.0000000 0.5906113
0.6324790 1.0000000 0.5964790
0.8407468 1.0000000 0.6023468
1.0000000 1.0000000 0.6082146
0.1389782 0.1231382 0.7101782
0.3472459 0.1290059 0.7160459
0.5555137 0.1348737 0.7219137
0.7637814 0.1407414 0.7277814
0.9720492 0.1466092 0.7336492
0.1587177 0.3452777 0.7299177
0.3669854 0.3511454 0.7357854
0.5752532 0.3570132 0.7416532
0.7835210 0.3628810 0.7475210
0.9917887 0.3687487 0.7533887
0.1784572 0.5674172 0.7496572
0.3867250 0.5732850 0.7555250
0.5949927 0.5791527 0.7613927
0.8032605 0.5850205 0.7672605
1.0000000 0.5908882 0.7731282
0.1981967 0.7895567 0.7693967
0.4064645 0.7954245 0.7752645
0.6147322 0.8012922 0.7811322
0.8230000 0.8071600 0.7870000
1.0000000 0.8130278 0.7928678
0.2179362 1.0000000 0.7891362
0.4262040 1.0000000 0.7950040
0.6344718 1.0000000 0.8008718
0.8427395 1.0000000 0.8067395
1.0000000 1.0000000 0.8126073
0.1409709 0.1251309 0.9145709
0.3492386 0.1309986 0.9204386
0.5575064 0.1368664 0.9263064
0.7657742 0.1427342 0.9321742
0.9740419 0.1486019 0.9380419
0.1607104 0.3472704 0.9343104
0.3689782 0.3531382 0.9401782
0.5772459 0.3590059 0.9460459
0.7855137 0.3648737 0.9519137
0.9937814 0.3707414 0.9577814
0.1804499 0.5694099 0.9540499
0.3887177 0.5752777 0.9599177
0.5969854 0.5811454 0.9657854
0.8052532 0.5870132 0.9716532
1.0000000 0.5928810 0.9775210
0.2001894 0.7915494 0.9737894
0.4084572 0.7974172 0.9796572
0.6167250 0.8032850 0.9855250
0.8249927 0.8091527 0.9913927
1.0000000 0.8150205 0.9972605
0.2199290 1.0000000 0.9935290
0.4281967 1.0000000 0.9993967
0.6364645 1.0000000 1.0000000
0.8447322 1.0000000 1.0000000
1.0000000 1.0000000 1.0000000
