android/app/src/main/assets/luts/Matte%20Film.cube
TITLE "MirrorBridge Matte Film"
# Generated by scripts/generate_luts.py with {"contrast": 0.92, "lift": 0.075, "saturation": 0.88, "temperature": 0.018}
LUT_3D_SIZE 17
DOMAIN_MIN 0.0 0.0 0.0
DOMAIN_MAX 1.0 1.0 1.0
0.1330000 0.1171600 0.0970000
0.1850669 0.1186269 0.0984669
0.2371339 0.1200939 0.0999339
0.2892008 0.1215608 0.1014008
0.3412678 0.1230278 0.1028678
0.3933347 0.1244947 0.1043347
0.4454016 0.1259616 0.1058016
0.4974686 0.1274286 0.1072686
0.5495355 0.1288955 0.1087355
0.6016025 0.1303625 0.1102025
0.6536694 0.1318294 0.1116694
0.7057363 0.1332963 0.1131363
0.7578033 0.1347633 0.1146033
0.8098702 0.1362302 0.1160702
0.8619372 0.1376972 0.1175372
0.9140041 0.1391641 0.1190041
0.9660710 0.1406310 0.1204710
0.1379349 0.1726949 0.1019349
0.1900018 0.1741618 0.1034018
0.2420688 0.1756288 0.1048688
0.2941357 0.1770957 0.1063357
0.3462026 0.1785626 0.1078026
0.3982696 0.1800296 0.1092696
0.4503365 0.1814965 0.1107365
0.5024035 0.1829635 0.1122035
0.5544704 0.1844304 0.1136704
0.6065373 0.1858973 0.1151373
0.6586043 0.1873643 0.1166043
0.7106712 0.1888312 0.1180712
0.7627382 0.1902982 0.1195382
0.8148051 0.1917651 0.1210051
0.8668720 0.1932320 0.1224720
0.9189390 0.1946990 0.1239390
0.9710059 0.1961659 0.1254059
0.1428698 0.2282298 0.1068698
0.1949367 0.2296967 0.1083367
0.2470036 0.2311636 0.1098036
0.2990706 0.2326306 0.1112706
0.3511375 0.2340975 0.1127375
0.4032045 0.2355645 0.1142045
0.4552714 0.2370314 0.1156714
0.5073383 0.2384983 0.1171383
0.5594053 0.2399653 0.1186053
0.6114722 0.2414322 0.1200722
0.6635392 0.2428992 0.1215392
0.7156061 0.2443661 0.1230061
0.7676730 0.2458330 0.1244730
0.8197400 0.2473000 0.1259400
0.8718069 0.2487669 0.1274069
0.9238739 0.2502339 0.1288739
0.9759408 0.2517008 0.1303408
0.1478046 0.2837646 0.1118046
0.1998716 0.2852316 0.1132716
0.2519385 0.2866985 0.1147385
0.3040055 0.2881655 0.1162055
0.3560724 0.2896324 0.1176724
0.4081393 0.2910993 0.1191393
0.4602063 0.2925663 0.1206063
0.5122732 0.2940332 0.1220732
0.5643402 0.2955002 0.1235402
0.6164071 0.2969671 0.1250071
0.6684740 0.2984340 0.1264740
0.7205410 0.2999010 0.1279410
0.7726079 0.3013679 0.1294079
0.8246749 0.3028349 0.1308749
0.8767418 0.3043018 0.1323418
0.9288087 0.3057687 0.1338087
0.9808757 0.3072357 0.1352757
0.1527395 0.3392995 0.1167395
0.2048065 0.3407665 0.1182065
0.2568734 0.3422334 0.1196734
0.3089403 0.3437003 0.1211403
0.3610073 0.3451673 0.1226073
0.4130742 0.3466342 0.1240742
0.4651412 0.3481012 0.1255412
0.5172081 0.3495681 0.1270081
0.5692750 0.3510350 0.1284750
0.6213420 0.3525020 0.1299420
0.6734089 0.3539689 0.1314089
0.7254759 0.3554359 0.1328759
0.7775428 0.3569028 0.1343428
0.8296097 0.3583697 0.1358097
0.8816767 0.3598367 0.1372767
0.9337436 0.3613036 0.1387436
0.9858106 0.3627706 0.1402106
0.1576744 0.3948344 0.1216744
0.2097413 0.3963013 0.1231413
0.2618083 0.3977683 0.1246083
0.3138752 0.3992352 0.1260752
0.3659422 0.4007022 0.1275422
0.4180091 0.4021691 0.1290091
0.4700760 0.4036360 0.1304760
0.5221430 0.4051030 0.1319430
0.5742099 0.4065699 0.1334099
0.6262769 0.4080369 0.1348769
0.6783438 0.4095038 0.1363438
0.7304107 0.4109707 0.1378107
0.7824777 0.4124377 0.1392777
0.8345446 0.4139046 0.1407446
0.8866116 0.4153716 0.1422116
0.9386785 0.4168385 0.1436785
0.9907454 0.4183054 0.1451454
0.1626093 0.4503693 0.1266093
0.2146762 0.4518362 0.1280762
0.2667432 0.4533032 0.1295432
0.3188101 0.4547701 0.1310101
0.3708770 0.4562370 0.1324770
0.4229440 0.4577040 0.1339440
0.4750109 0.4591709 0.1354109
0.5270779 0.4606379 0.1368779
0.5791448 0.4621048 0.1383448
0.6312117 0.4635717 0.1398117
0.6832787 0.4650387 0.1412787
0.7353456 0.4665056 0.1427456
0.7874126 0.4679726 0.1442126
0.8394795 0.4694395 0.1456795
0.8915464 0.4709064 0.1471464
0.9436134 0.4723734 0.1486134
0.9956803 0.4738403 0.1500803
0.1675442 0.5059042 0.1315442
0.2196111 0.5073711 0.1330111
0.2716780 0.5088380 0.1344780
0.3237450 0.5103050 0.1359450
0.3758119 0.5117719 0.1374119
0.4278789 0.5132389 0.1388789
0.4799458 0.5147058 0.1403458
0.5320127 0.5161727 0.1418127
0.5840797 0.5176397 0.1432797
0.6361466 0.5191066 0.1447466
0.6882136 0.5205736 0.1462136
0.7402805 0.5220405 0.1476805
0.7923474 0.5235074 0.1491474
0.8444144 0.5249744 0.1506144
0.8964813 0.5264413 0.1520813
0.9485483 0.5279083 0.1535483
1.0000000 0.5293752 0.1550152
0.1724790 0.5614390 0.1364790
0.2245460 0.5629060 0.1379460
0.2766129 0.5643729 0.1394129
0.3286799 0.5658399 0.1408799
0.3807468 0.5673068 0.1423468
0.4328137 0.5687737 0.1438137
0.4848807 0.5702407 0.1452807
0.5369476 0.5717076 0.1467476
0.5890146 0.5731746 0.1482146
0.6410815 0.5746415 0.1496815
0.6931484 0.5761084 0.1511484
0.7452154 0.5775754 0.1526154
0.7972823 0.5790423 0.1540823
0.8493493 0.5805093 0.1555493
0.9014162 0.5819762 0.1570162
0.9534831 0.5834431 0.1584831
1.0000000 0.5849101 0.1599501
0.1774139 0.6169739 0.1414139
0.2294809 0.6184409 0.1428809
0.2815478 0.6199078 0.1443478
0.3336147 0.6213747 0.1458147
0.3856817 0.6228417 0.1472817
0.4377486 0.6243086 0.1487486
0.4898156 0.6257756 0.1502156
0.5418825 0.6272425 0.1516825
0.5939494 0.6287094 0.1531494
0.6460164 0.6301764 0.1546164
0.6980833 0.6316433 0.1560833
0.7501503 0.6331103 0.1575503
0.8022172 0.6345772 0.1590172
0.8542841 0.6360441 0.1604841
0.9063511 0.6375111 0.1619511
0.9584180 0.6389780 0.1634180
1.0000000 0.6404450 0.1648850
0.1823488 0.6725088 0.1463488
0.2344157 0.6739757 0.1478157
0.2864827 0.6754427 0.1492827
0.3385496 0.6769096 0.1507496
0.3906166 0.6783766 0.1522166
0.4426835 0.6798435 0.1536835
0.4947504 0.6813104 0.1551504
0.5468174 0.6827774 0.1566174
0.5988843 0.6842443 0.1580843
0.6509513 0.6857113 0.1595513
0.7030182 0.6871782 0.1610182
0.7550851 0.6886451 0.1624851
0.8071521 0.6901121 0.1639521
0.8592190 0.6915790 0.1654190
0.9112860 0.6930460 0.1668860
0.9633529 0.6945129 0.1683529
1.0000000 0.6959798 0.1698198
0.1872837 0.7280437 0.1512837
0.2393506 0.7295106 0.1527506
0.2914176 0.7309776 0.1542176
0.3434845 0.7324445 0.1556845
0.3955514 0.7339114 0.1571514
0.4476184 0.7353784 0.1586184
0.4996853 0.7368453 0.1600853
0.5517523 0.7383123 0.1615523
0.6038192 0.7397792 0.1630192
0.6558861 0.7412461 0.1644861
0.7079531 0.7427131 0.1659531
0.7600200 0.7441800 0.1674200
0.8120870 0.7456470 0.1688870
0.8641539 0.7471139 0.1703539
0.9162208 0.7485808 0.1718208
0.9682878 0.7500478 0.1732878
1.0000000 0.7515147 0.1747547
0.1922186 0.7835786 0.1562186
0.2442855 0.7850455 0.1576855
0.2963524 0.7865124 0.1591524
0.3484194 0.7879794 0.1606194
0.4004863 0.7894463 0.1620863
0.4525533 0.7909133 0.1635533
0.5046202 0.7923802 0.1650202
0.5566871 0.7938471 0.1664871
0.6087541 0.7953141 0.1679541
0.6608210 0.7967810 0.1694210
0.7128880 0.7982480 0.1708880
0.7649549 0.7997149 0.1723549
0.8170218 0.8011818 0.1738218
0.8690888 0.8026488 0.1752888
0.9211557 0.8041157 0.1767557
0.9732227 0.8055827 0.1782227
1.0000000 0.8070496 0.1796896
0.1971534 0.8391134 0.1611534
0.2492204 0.8405804 0.1626204
0.3012873 0.8420473 0.1640873
0.3533543 0.8435143 0.1655543
0.4054212 0.8449812 0.1670212
0.4574881 0.8464481 0.1684881
0.5095551 0.8479151 0.1699551
0.5616220 0.8493820 0.1714220
0.6136890 0.8508490 0.1728890
0.6657559 0.8523159 0.1743559
0.7178228 0.8537828 0.1758228
0.7698898 0.8552498 0.1772898
0.8219567 0.8567167 0.1787567
0.8740237 0.8581837 0.1802237
0.9260906 0.8596506 0.1816906
0.9781575 0.8611175 0.1831575
1.0000000 0.8625845 0.1846245
0.2020883 0.8946483 0.1660883
0.2541553 0.8961153 0.1675553
0.3062222 0.8975822 0.1690222
0.3582891 0.8990491 0.1704891
0.4103561 0.9005161 0.1719561
0.4624230 0.9019830 0.1734230
0.5144900 0.9034500 0.1748900
0.5665569 0.9049169 0.1763569
0.6186238 0.9063838 0.1778238
0.6706908 0.9078508 0.1792908
0.7227577 0.9093177 0.1807577
0.7748247 0.9107847 0.1822247
0.8268916 0.9122516 0.1836916
0.8789585 0.9137185 0.1851585
0.9310255 0.9151855 0.1866255
0.9830924 0.9166524 0.1880924
1.0000000 0.9181194 0.1895594
0.2070232 0.9501832 0.1710232
0.2590901 0.9516501 0.1724901
0.3111571 0.9531171 0.1739571
0.3632240 0.9545840 0.1754240
0.4152910 0.9560510 0.1768910
0.4673579 0.9575179 0.1783579
0.5194248 0.9589848 0.1798248
0.5714918 0.9604518 0.1812918
0.6235587 0.9619187 0.1827587
0.6756257 0.9633857 0.1842257
0.7276926 0.9648526 0.1856926
0.7797595 0.9663195 0.1871595
0.8318265 0.9677865 0.1886265
0.8838934 0.9692534 0.1900934
0.9359604 0.9707204 0.1915604
0.9880273 0.9721873 0.1930273
1.0000000 0.9736542 0.1944942
0.2119581 1.0000000 0.1759581
0.2640250 1.0000000 0.1774250
0.3160920 1.0000000 0.1788920
0.3681589 1.0000000 0.1803589
0.4202258 1.0000000 0.1818258
0.4722928 1.0000000 0.1832928
0.5243597 1.0000000 0.1847597
0.5764267 1.0000000 0.1862267
0.6284936 1.0000000 0.1876936
0.6805605 1.0000000 0.1891605
0.7326275 1.0000000 0.1906275
0.7846944 1.0000000 0.1920944
0.8367614 1.0000000 0.1935614
0.8888283 1.0000000 0.1950283
0.9408952 1.0000000 0.1964952
0.9929622 1.0000000 0.1979622
1.0000000 1.0000000 0.1994291
0.1334982 0.1176582 0.1480982
0.1855651 0.1191251 0.1495651
0.2376321 0.1205921 0.1510321
0.2896990 0.1220590 0.1524990
0.3417659 0.1235259 0.1539659
0.3938329 0.1249929 0.1554329
0.4458998 0.1264598 0.1568998
0.4979668 0.1279268 0.1583668
0.5500337 0.1293937 0.1598337
0.6021006 0.1308606 0.1613006
0.6541676 0.1323276 0.1627676
0.7062345 0.1337945 0.1642345
0.7583015 0.1352615 0.1657015
0.8103684 0.1367284 0.1671684
0.8624353 0.1381953 0.1686353
0.9145023 0.1396623 0.1701023
0.9665692 0.1411292 0.1715692
0.1384331 0.1731931 0.1530331
0.1905000 0.1746600 0.1545000
0.2425669 0.1761269 0.1559669
0.2946339 0.1775939 0.1574339
0.3467008 0.1790608 0.1589008
0.3987678 0.1805278 0.1603678
0.4508347 0.1819947 0.1618347
0.5029016 0.1834616 0.1633016
0.5549686 0.1849286 0.1647686
0.6070355 0.1863955 0.1662355
0.6591025 0.1878625 0.1677025
0.7111694 0.1893294 0.1691694
0.7632363 0.1907963 0.1706363
0.8153033 0.1922633 0.1721033
0.8673702 0.1937302 0.1735702
0.9194372 0.1951972 0.1750372
0.9715041 0.1966641 0.1765041
0.1433679 0.2287279 0.1579679
0.1954349 0.2301949 0.1594349
0.2475018 0.2316618 0.1609018
0.2995688 0.2331288 0.1623688
0.3516357 0.2345957 0.1638357
0.4037026 0.2360626 0.1653026
0.4557696 0.2375296 0.1667696
0.5078365 0.2389965 0.1682365
0.5599035 0.2404635 0.1697035
0.6119704 0.2419304 0.1711704
0.6640373 0.2433973 0.1726373
0.7161043 0.2448643 0.1741043
0.7681712 0.2463312 0.1755712
0.8202382 0.2477982 0.1770382
0.8723051 0.2492651 0.1785051
0.9243720 0.2507320 0.1799720
0.9764390 0.2521990 0.1814390
0.1483028 0.2842628 0.1629028
0.2003698 0.2857298 0.1643698
0.2524367 0.2871967 0.1658367
0.3045036 0.2886636 0.1673036
0.3565706 0.2901306 0.1687706
0.4086375 0.2915975 0.1702375
0.4607045 0.2930645 0.1717045
0.5127714 0.2945314 0.1731714
0.5648383 0.2959983 0.1746383
0.6169053 0.2974653 0.1761053
0.6689722 0.2989322 0.1775722
0.7210392 0.3003992 0.1790392
0.7731061 0.3018661 0.1805061
0.8251730 0.3033330 0.1819730
0.8772400 0.3048000 0.1834400
0.9293069 0.3062669 0.1849069
0.9813739 0.3077339 0.1863739
0.1532377 0.3397977 0.1678377
0.2053046 0.3412646 0.1693046
0.2573716 0.3427316 0.1707716
0.3094385 0.3441985 0.1722385
0.3615055 0.3456655 0.1737055
0.4135724 0.3471324 0.1751724
0.4656393 0.3485993 0.1766393
0.5177063 0.3500663 0.1781063
0.5697732 0.3515332 0.1795732
0.6218402 0.3530002 0.1810402
0.6739071 0.3544671 0.1825071
0.7259740 0.3559340 0.1839740
0.7780410 0.3574010 0.1854410
0.8301079 0.3588679 0.1869079
0.8821749 0.3603349 0.1883749
0.9342418 0.3618018 0.1898418
0.9863087 0.3632687 0.1913087
0.1581726 0.3953326 0.1727726
0.2102395 0.3967995 0.1742395
0.2623065 0.3982665 0.1757065
0.3143734 0.3997334 0.1771734
0.3664403 0.4012003 0.1786403
0.4185073 0.4026673 0.1801073
0.4705742 0.4041342 0.1815742
0.5226412 0.4056012 0.1830412
0.5747081 0.4070681 0.1845081
0.6267750 0.4085350 0.1859750
0.6788420 0.4100020 0.1874420
0.7309089 0.4114689 0.1889089
0.7829759 0.4129359 0.1903759
0.8350428 0.4144028 0.1918428
0.8871097 0.4158697 0.1933097
0.9391767 0.4173367 0.1947767
0.9912436 0.4188036 0.1962436
0.1631075 0.4508675 0.1777075
0.2151744 0.4523344 0.1791744
0.2672413 0.4538013 0.1806413
0.3193083 0.4552683 0.1821083
0.3713752 0.4567352 0.1835752
0.4234422 0.4582022 0.1850422
0.4755091 0.4596691 0.1865091
0.5275760 0.4611360 0.1879760
0.5796430 0.4626030 0.1894430
0.6317099 0.4640699 0.1909099
0.6837769 0.4655369 0.1923769
0.7358438 0.4670038 0.1938438
0.7879107 0.4684707 0.1953107
0.8399777 0.4699377 0.1967777
0.8920446 0.4714046 0.1982446
0.9441116 0.4728716 0.1997116
0.9961785 0.4743385 0.2011785
0.1680423 0.5064023 0.1826423
0.2201093 0.5078693 0.1841093
0.2721762 0.5093362 0.1855762
0.3242432 0.5108032 0.1870432
0.3763101 0.5122701 0.1885101
0.4283770 0.5137370 0.1899770
0.4804440 0.5152040 0.1914440
0.5325109 0.5166709 0.1929109
0.5845779 0.5181379 0.1943779
0.6366448 0.5196048 0.1958448
0.6887117 0.5210717 0.1973117
0.7407787 0.5225387 0.1987787
0.7928456 0.5240056 0.2002456
0.8449126 0.5254726 0.2017126
0.8969795 0.5269395 0.2031795
0.9490464 0.5284064 0.2046464
1.0000000 0.5298734 0.2061134
0.1729772 0.5619372 0.1875772
0.2250442 0.5634042 0.1890442
0.2771111 0.5648711 0.1905111
0.3291780 0.5663380 0.1919780
0.3812450 0.5678050 0.1934450
0.4333119 0.5692719 0.1949119
0.4853789 0.5707389 0.1963789
0.5374458 0.5722058 0.1978458
0.5895127 0.5736727 0.1993127
0.6415797 0.5751397 0.2007797
0.6936466 0.5766066 0.2022466
0.7457136 0.5780736 0.2037136
0.7977805 0.5795405 0.2051805
0.8498474 0.5810074 0.2066474
0.9019144 0.5824744 0.2081144
0.9539813 0.5839413 0.2095813
1.0000000 0.5854083 0.2110483
0.1779121 0.6174721 0.1925121
0.2299790 0.6189390 0.1939790
0.2820460 0.6204060 0.1954460
0.3341129 0.6218729 0.1969129
0.3861799 0.6233399 0.1983799
0.4382468 0.6248068 0.1998468
0.4903137 0.6262737 0.2013137
0.5423807 0.6277407 0.2027807
0.5944476 0.6292076 0.2042476
0.6465146 0.6306746 0.2057146
0.6985815 0.6321415 0.2071815
0.7506484 0.6336084 0.2086484
0.8027154 0.6350754 0.2101154
0.8547823 0.6365423 0.2115823
0.9068493 0.6380093 0.2130493
0.9589162 0.6394762 0.2145162
1.0000000 0.6409431 0.2159831
0.1828470 0.6730070 0.1974470
0.2349139 0.6744739 0.1989139
0.2869809 0.6759409 0.2003809
0.3390478 0.6774078 0.2018478
0.3911147 0.6788747 0.2033147
0.4431817 0.6803417 0.2047817
0.4952486 0.6818086 0.2062486
0.5473156 0.6832756 0.2077156
0.5993825 0.6847425 0.2091825
0.6514494 0.6862094 0.2106494
0.7035164 0.6876764 0.2121164
0.7555833 0.6891433 0.2135833
0.8076503 0.6906103 0.2150503
0.8597172 0.6920772 0.2165172
0.9117841 0.6935441 0.2179841
0.9638511 0.6950111 0.2194511
1.0000000 0.6964780 0.2209180
0.1877819 0.7285419 0.2023819
0.2398488 0.7300088 0.2038488
0.2919157 0.7314757 0.2053157
0.3439827 0.7329427 0.2067827
0.3960496 0.7344096 0.2082496
0.4481166 0.7358766 0.2097166
0.5001835 0.7373435 0.2111835
0.5522504 0.7388104 0.2126504
0.6043174 0.7402774 0.2141174
0.6563843 0.7417443 0.2155843
0.7084513 0.7432113 0.2170513
0.7605182 0.7446782 0.2185182
0.8125851 0.7461451 0.2199851
0.8646521 0.7476121 0.2214521
0.9167190 0.7490790 0.2229190
0.9687860 0.7505460 0.2243860
1.0000000 0.7520129 0.2258529
0.1927167 0.7840767 0.2073167
0.2447837 0.7855437 0.2087837
0.2968506 0.7870106 0.2102506
0.3489176 0.7884776 0.2117176
0.4009845 0.7899445 0.2131845
0.4530514 0.7914114 0.2146514
0.5051184 0.7928784 0.2161184
0.5571853 0.7943453 0.2175853
0.6092523 0.7958123 0.2190523
0.6613192 0.7972792 0.2205192
0.7133861 0.7987461 0.2219861
0.7654531 0.8002131 0.2234531
0.8175200 0.8016800 0.2249200
0.8695870 0.8031470 0.2263870
0.9216539 0.8046139 0.2278539
0.9737208 0.8060808 0.2293208
1.0000000 0.8075478 0.2307878
0.1976516 0.8396116 0.2122516
0.2497186 0.8410786 0.2137186
0.3017855 0.8425455 0.2151855
0.3538524 0.8440124 0.2166524
0.4059194 0.8454794 0.2181194
0.4579863 0.8469463 0.2195863
0.5100533 0.8484133 0.2210533
0.5621202 0.8498802 0.2225202
0.6141871 0.8513471 0.2239871
0.6662541 0.8528141 0.2254541
0.7183210 0.8542810 0.2269210
0.7703880 0.8557480 0.2283880
0.8224549 0.8572149 0.2298549
0.8745218 0.8586818 0.2313218
0.9265888 0.8601488 0.2327888
0.9786557 0.8616157 0.2342557
1.0000000 0.8630827 0.2357227
0.2025865 0.8951465 0.2171865
0.2546534 0.8966134 0.2186534
0.3067204 0.8980804 0.2201204
0.3587873 0.8995473 0.2215873
0.4108543 0.9010143 0.2230543
0.4629212 0.9024812 0.2245212
0.5149881 0.9039481 0.2259881
0.5670551 0.9054151 0.2274551
0.6191220 0.9068820 0.2289220
0.6711890 0.9083490 0.2303890
0.7232559 0.9098159 0.2318559
0.7753228 0.9112828 0.2333228
0.8273898 0.9127498 0.2347898
0.8794567 0.9142167 0.2362567
0.9315237 0.9156837 0.2377237
0.9835906 0.9171506 0.2391906
1.0000000 0.9186175 0.2406575
0.2075214 0.9506814 0.2221214
0.2595883 0.9521483 0.2235883
0.3116553 0.9536153 0.2250553
0.3637222 0.9550822 0.2265222
0.4157891 0.9565491 0.2279891
0.4678561 0.9580161 0.2294561
0.5199230 0.9594830 0.2309230
0.5719900 0.9609500 0.2323900
0.6240569 0.9624169 0.2338569
0.6761238 0.9638838 0.2353238
0.7281908 0.9653508 0.2367908
0.7802577 0.9668177 0.2382577
0.8323247 0.9682847 0.2397247
0.8843916 0.9697516 0.2411916
0.9364585 0.9712185 0.2426585
0.9885255 0.9726855 0.2441255
1.0000000 0.9741524 0.2455924
0.2124563 1.0000000 0.2270563
0.2645232 1.0000000 0.2285232
0.3165901 1.0000000 0.2299901
0.3686571 1.0000000 0.2314571
0.4207240 1.0000000 0.2329240
0.4727910 1.0000000 0.2343910
0.5248579 1.0000000 0.2358579
0.5769248 1.0000000 0.2373248
0.6289918 1.0000000 0.2387918
0.6810587 1.0000000 0.2402587
0.7331257 1.0000000 0.2417257
0.7851926 1.0000000 0.2431926
0.8372595 1.0000000 0.2446595
0.8893265 1.0000000 0.2461265
0.9413934 1.0000000 0.2475934
0.9934604 1.0000000 0.2490604
1.0000000 1.0000000 0.2505273
0.1339964 0.1181564 0.1991964
0.1860633 0.1196233 0.2006633
0.2381302 0.1210902 0.2021302
0.2901972 0.1225572 0.2035972
0.3422641 0.1240241 0.2050641
0.3943311 0.1254911 0.2065311
0.4463980 0.1269580 0.2079980
0.4984649 0.1284249 0.2094649
0.5505319 0.1298919 0.2109319
0.6025988 0.1313588 0.2123988
0.6546658 0.1328258 0.2138658
0.7067327 0.1342927 0.2153327
0.7587996 0.1357596 0.2167996
0.8108666 0.1372266 0.2182666
0.8629335 0.1386935 0.2197335
0.9150005 0.1401605 0.2212005
0.9670674 0.1416274 0.2226674
0.1389312 0.1736912 0.2041312
0.1909982 0.1751582 0.2055982
0.2430651 0.1766251 0.2070651
0.2951321 0.1780921 0.2085321
0.3471990 0.1795590 0.2099990
0.3992659 0.1810259 0.2114659
0.4513329 0.1824929 0.2129329
0.5033998 0.1839598 0.2143998
0.5554668 0.1854268 0.2158668
0.6075337 0.1868937 0.2173337
0.6596006 0.1883606 0.2188006
0.7116676 0.1898276 0.2202676
0.7637345 0.1912945 0.2217345
0.8158015 0.1927615 0.2232015
0.8678684 0.1942284 0.2246684
0.9199353 0.1956953 0.2261353
0.9720023 0.1971623 0.2276023
0.1438661 0.2292261 0.2090661
0.1959331 0.2306931 0.2105331
0.2480000 0.2321600 0.2120000
0.3000669 0.2336269 0.2134669
0.3521339 0.2350939 0.2149339
0.4042008 0.2365608 0.2164008
0.4562678 0.2380278 0.2178678
0.5083347 0.2394947 0.2193347
0.5604016 0.2409616 0.2208016
0.6124686 0.2424286 0.2222686
0.6645355 0.2438955 0.2237355
0.7166025 0.2453625 0.2252025
0.7686694 0.2468294 0.2266694
0.8207363 0.2482963 0.2281363
0.8728033 0.2497633 0.2296033
0.9248702 0.2512302 0.2310702
0.9769372 0.2526972 0.2325372
0.1488010 0.2847610 0.2140010
0.2008679 0.2862279 0.2154679
0.2529349 0.2876949 0.2169349
0.3050018 0.2891618 0.2184018
0.3570688 0.2906288 0.2198688
0.4091357 0.2920957 0.2213357
0.4612026 0.2935626 0.2228026
0.5132696 0.2950296 0.2242696
0.5653365 0.2964965 0.2257365
0.6174035 0.2979635 0.2272035
0.6694704 0.2994304 0.2286704
0.7215373 0.3008973 0.2301373
0.7736043 0.3023643 0.2316043
0.8256712 0.3038312 0.2330712
0.8777382 0.3052982 0.2345382
0.9298051 0.3067651 0.2360051
0.9818720 0.3082320 0.2374720
0.1537359 0.3402959 0.2189359
0.2058028 0.3417628 0.2204028
0.2578698 0.3432298 0.2218698
0.3099367 0.3446967 0.2233367
0.3620036 0.3461636 0.2248036
0.4140706 0.3476306 0.2262706
0.4661375 0.3490975 0.2277375
0.5182045 0.3505645 0.2292045
0.5702714 0.3520314 0.2306714
0.6223383 0.3534983 0.2321383
0.6744053 0.3549653 0.2336053
0.7264722 0.3564322 0.2350722
0.7785392 0.3578992 0.2365392
0.8306061 0.3593661 0.2380061
0.8826730 0.3608330 0.2394730
0.9347400 0.3623000 0.2409400
0.9868069 0.3637669 0.2424069
0.1586708 0.3958308 0.2238708
0.2107377 0.3972977 0.2253377
0.2628046 0.3987646 0.2268046
0.3148716 0.4002316 0.2282716
0.3669385 0.4016985 0.2297385
0.4190055 0.4031655 0.2312055
0.4710724 0.4046324 0.2326724
0.5231393 0.4060993 0.2341393
0.5752063 0.4075663 0.2356063
0.6272732 0.4090332 0.2370732
0.6793402 0.4105002 0.2385402
0.7314071 0.4119671 0.2400071
0.7834740 0.4134340 0.2414740
0.8355410 0.4149010 0.2429410
0.8876079 0.4163679 0.2444079
0.9396749 0.4178349 0.2458749
0.9917418 0.4193018 0.2473418
0.1636056 0.4513656 0.2288056
0.2156726 0.4528326 0.2302726
0.2677395 0.4542995 0.2317395
0.3198065 0.4557665 0.2332065
0.3718734 0.4572334 0.2346734
0.4239403 0.4587003 0.2361403
0.4760073 0.4601673 0.2376073
0.5280742 0.4616342 0.2390742
0.5801412 0.4631012 0.2405412
0.6322081 0.4645681 0.2420081
0.6842750 0.4660350 0.2434750
0.7363420 0.4675020 0.2449420
0.7884089 0.4689689 0.2464089
0.8404759 0.4704359 0.2478759
0.8925428 0.4719028 0.2493428
0.9446097 0.4733697 0.2508097
0.9966767 0.4748367 0.2522767
0.1685405 0.5069005 0.2337405
0.2206075 0.5083675 0.2352075
0.2726744 0.5098344 0.2366744
0.3247413 0.5113013 0.2381413
0.3768083 0.5127683 0.2396083
0.4288752 0.5142352 0.2410752
0.4809422 0.5157022 0.2425422
0.5330091 0.5171691 0.2440091
0.5850760 0.5186360 0.2454760
0.6371430 0.5201030 0.2469430
0.6892099 0.5215699 0.2484099
0.7412769 0.5230369 0.2498769
0.7933438 0.5245038 0.2513438
0.8454107 0.5259707 0.2528107
0.8974777 0.5274377 0.2542777
0.9495446 0.5289046 0.2557446
1.0000000 0.5303716 0.2572116
0.1734754 0.5624354 0.2386754
0.2255423 0.5639023 0.2401423
0.2776093 0.5653693 0.2416093
0.3296762 0.5668362 0.2430762
0.3817432 0.5683032 0.2445432
0.4338101 0.5697701 0.2460101
0.4858770 0.5712370 0.2474770
0.5379440 0.5727040 0.2489440
0.5900109 0.5741709 0.2504109
0.6420779 0.5756379 0.2518779
0.6941448 0.5771048 0.2533448
0.7462117 0.5785717 0.2548117
0.7982787 0.5800387 0.2562787
0.8503456 0.5815056 0.2577456
0.9024126 0.5829726 0.2592126
0.9544795 0.5844395 0.2606795
1.0000000 0.5859064 0.2621464
0.1784103 0.6179703 0.2436103
0.2304772 0.6194372 0.2450772
0.2825442 0.6209042 0.2465442
0.3346111 0.6223711 0.2480111
0.3866780 0.6238380 0.2494780
0.4387450 0.6253050 0.2509450
0.4908119 0.6267719 0.2524119
0.5428789 0.6282389 0.2538789
0.5949458 0.6297058 0.2553458
0.6470127 0.6311727 0.2568127
0.6990797 0.6326397 0.2582797
0.7511466 0.6341066 0.2597466
0.8032136 0.6355736 0.2612136
0.8552805 0.6370405 0.2626805
0.9073474 0.6385074 0.2641474
0.9594144 0.6399744 0.2656144
1.0000000 0.6414413 0.2670813
0.1833452 0.6735052 0.2485452
0.2354121 0.6749721 0.2500121
0.2874790 0.6764390 0.2514790
0.3395460 0.6779060 0.2529460
0.3916129 0.6793729 0.2544129
0.4436799 0.6808399 0.2558799
0.4957468 0.6823068 0.2573468
0.5478137 0.6837737 0.2588137
0.5998807 0.6852407 0.2602807
0.6519476 0.6867076 0.2617476
0.7040146 0.6881746 0.2632146
0.7560815 0.6896415 0.2646815
0.8081484 0.6911084 0.2661484
0.8602154 0.6925754 0.2676154
0.9122823 0.6940423 0.2690823
0.9643493 0.6955093 0.2705493
1.0000000 0.6969762 0.2720162
0.1882800 0.7290400 0.2534800
0.2403470 0.7305070 0.2549470
0.2924139 0.7319739 0.2564139
0.3444809 0.7334409 0.2578809
0.3965478 0.7349078 0.2593478
0.4486147 0.7363747 0.2608147
0.5006817 0.7378417 0.2622817
0.5527486 0.7393086 0.2637486
0.6048156 0.7407756 0.2652156
0.6568825 0.7422425 0.2666825
0.7089494 0.7437094 0.2681494
0.7610164 0.7451764 0.2696164
0.8130833 0.7466433 0.2710833
0.8651503 0.7481103 0.2725503
0.9172172 0.7495772 0.2740172
0.9692841 0.7510441 0.2754841
1.0000000 0.7525111 0.2769511
0.1932149 0.7845749 0.2584149
0.2452819 0.7860419 0.2598819
0.2973488 0.7875088 0.2613488
0.3494157 0.7889757 0.2628157
0.4014827 0.7904427 0.2642827
0.4535496 0.7919096 0.2657496
0.5056166 0.7933766 0.2672166
0.5576835 0.7948435 0.2686835
0.6097504 0.7963104 0.2701504
0.6618174 0.7977774 0.2716174
