android/app/src/main/assets/luts/Matte%20Film.cube
TITLE "MirrorBridge Matte Film"
# Generated by scripts/generate_luts.py with {"contrast": 0.92, "lift": 0.075, "saturation": 0.88, "temperature": 0.018}
LUT_3D_SIZE 9
DOMAIN_MIN 0.0 0.0 0.0
DOMAIN_MAX 1.0 1.0 1.0
0.1330000 0.1171600 0.0970000
0.2371339 0.1200939 0.0999339
0.3412678 0.1230278 0.1028678
0.4454016 0.1259616 0.1058016
0.5495355 0.1288955 0.1087355
0.6536694 0.1318294 0.1116694
0.7578033 0.1347633 0.1146033
0.8619372 0.1376972 0.1175372
0.9660710 0.1406310 0.1204710
0.1428698 0.2282298 0.1068698
0.2470036 0.2311636 0.1098036
0.3511375 0.2340975 0.1127375
0.4552714 0.2370314 0.1156714
0.5594053 0.2399653 0.1186053
0.6635392 0.2428992 0.1215392
0.7676730 0.2458330 0.1244730
0.8718069 0.2487669 0.1274069
0.9759408 0.2517008 0.1303408
0.1527395 0.3392995 0.1167395
0.2568734 0.3422334 0.1196734
0.3610073 0.3451673 0.1226073
0.4651412 0.3481012 0.1255412
0.5692750 0.3510350 0.1284750
0.6734089 0.3539689 0.1314089
0.7775428 0.3569028 0.1343428
0.8816767 0.3598367 0.1372767
0.9858106 0.3627706 0.1402106
0.1626093 0.4503693 0.1266093
0.2667432 0.4533032 0.1295432
0.3708770 0.4562370 0.1324770
0.4750109 0.4591709 0.1354109
0.5791448 0.4621048 0.1383448
0.6832787 0.4650387 0.1412787
0.7874126 0.4679726 0.1442126
0.8915464 0.4709064 0.1471464
0.9956803 0.4738403 0.1500803
0.1724790 0.5614390 0.1364790
0.2766129 0.5643729 0.1394129
0.3807468 0.5673068 0.1423468
0.4848807 0.5702407 0.1452807
0.5890146 0.5731746 0.1482146
0.6931484 0.5761084 0.1511484
0.7972823 0.5790423 0.1540823
0.9014162 0.5819762 0.1570162
1.0000000 0.5849101 0.1599501
0.1823488 0.6725088 0.1463488
0.2864827 0.6754427 0.1492827
0.3906166 0.6783766 0.1522166
0.4947504 0.6813104 0.1551504
0.5988843 0.6842443 0.1580843
0.7030182 0.6871782 0.1610182
0.8071521 0.6901121 0.1639521
0.9112860 0.6930460 0.1668860
1.0000000 0.6959798 0.1698198
0.1922186 0.7835786 0.1562186
0.2963524 0.7865124 0.1591524
0.4004863 0.7894463 0.1620863
0.5046202 0.7923802 0.1650202
0.6087541 0.7953141 0.1679541
0.7128880 0.7982480 0.1708880
0.8170218 0.8011818 0.1738218
0.9211557 0.8041157 0.1767557
1.0000000 0.8070496 0.1796896
0.2020883 0.8946483 0.1660883
0.3062222 0.8975822 0.1690222
0.4103561 0.9005161 0.1719561
0.5144900 0.9034500 0.1748900
0.6186238 0.9063838 0.1778238
0.7227577 0.9093177 0.1807577
0.8268916 0.9122516 0.1836916
0.9310255 0.9151855 0.1866255
1.0000000 0.9181194 0.1895594
0.2119581 1.0000000 0.1759581
0.3160920 1.0000000 0.1788920
0.4202258 1.0000000 0.1818258
0.5243597 1.0000000 0.1847597
0.6284936 1.0000000 0.1876936
0.7326275 1.0000000 0.1906275
0.8367614 1.0000000 0.1935614
0.9408952 1.0000000 0.1964952
1.0000000 1.0000000 0.1994291
0.1339964 0.1181564 0.1991964
0.2381302 0.1210902 0.2021302
0.3422641 0.1240241 0.2050641
0.4463980 0.1269580 0.2079980
0.5505319 0.1298919 0.2109319
0.6546658 0.1328258 0.2138658
0.7587996 0.1357596 0.2167996
0.8629335 0.1386935 0.2197335
0.9670674 0.1416274 0.2226674
0.1438661 0.2292261 0.2090661
0.2480000 0.2321600 0.2120000
0.3521339 0.2350939 0.2149339
0.4562678 0.2380278 0.2178678
0.5604016 0.2409616 0.2208016
0.6645355 0.2438955 0.2237355
0.7686694 0.2468294 0.2266694
0.8728033 0.2497633 0.2296033
0.9769372 0.2526972 0.2325372
0.1537359 0.3402959 0.2189359
0.2578698 0.3432298 0.2218698
0.3620036 0.3461636 0.2248036
0.4661375 0.3490975 0.2277375
0.5702714 0.3520314 0.2306714
0.6744053 0.3549653 0.2336053
0.7785392 0.3578992 0.2365392
0.8826730 0.3608330 0.2394730
0.9868069 0.3637669 0.2424069
0.1636056 0.4513656 0.2288056
0.2677395 0.4542995 0.2317395
0.3718734 0.4572334 0.2346734
0.4760073 0.4601673 0.2376073
0.5801412 0.4631012 0.2405412
0.6842750 0.4660350 0.2434750
0.7884089 0.4689689 0.2464089
0.8925428 0.4719028 0.2493428
0.9966767 0.4748367 0.2522767
0.1734754 0.5624354 0.2386754
0.2776093 0.5653693 0.2416093
0.3817432 0.5683032 0.2445432
0.4858770 0.5712370 0.2474770
0.5900109 0.5741709 0.2504109
0.6941448 0.5771048 0.2533448
0.7982787 0.5800387 0.2562787
0.9024126 0.5829726 0.2592126
1.0000000 0.5859064 0.2621464
0.1833452 0.6735052 0.2485452
0.2874790 0.6764390 0.2514790
0.3916129 0.6793729 0.2544129
0.4957468 0.6823068 0.2573468
0.5998807 0.6852407 0.2602807
0.7040146 0.6881746 0.2632146
0.8081484 0.6911084 0.2661484
0.9122823 0.6940423 0.2690823
1.0000000 0.6969762 0.2720162
0.1932149 0.7845749 0.2584149
0.2973488 0.7875088 0.2613488
0.4014827 0.7904427 0.2642827
0.5056166 0.7933766 0.2672166
0.6097504 0.7963104 0.2701504
0.7138843 0.7992443 0.2730843
0.8180182 0.8021782 0.2760182
0.9221521 0.8051121 0.2789521
1.0000000 0.8080460 0.2818860
0.2030847 0.8956447 0.2682847
0.3072186 0.8985786 0.2712186
0.4113524 0.9015124 0.2741524
0.5154863 0.9044463 0.2770863
0.6196202 0.9073802 0.2800202
0.7237541 0.9103141 0.2829541
0.8278880 0.9132480 0.2858880
0.9320218 0.9161818 0.2888218
1.0000000 0.9191157 0.2917557
0.2129544 1.0000000 0.2781544
0.3170883 1.0000000 0.2810883
0.4212222 1.0000000 0.2840222
0.5253561 1.0000000 0.2869561
0.6294900 1.0000000 0.2898900
0.7336238 1.0000000 0.2928238
0.8377577 1.0000000 0.2957577
0.9418916 1.0000000 0.2986916
1.0000000 1.0000000 0.3016255
0.1349927 0.1191527 0.3013927
0.2391266 0.1220866 0.3043266
0.3432605 0.1250205 0.3072605
0.4473944 0.1279544 0.3101944
0.5515282 0.1308882 0.3131282
0.6556621 0.1338221 0.3160621
0.7597960 0.1367560 0.3189960
0.8639299 0.1396899 0.3219299
0.9680638 0.1426238 0.3248638
0.1448625 0.2302225 0.3112625
0.2489964 0.2331564 0.3141964
0.3531302 0.2360902 0.3171302
0.4572641 0.2390241 0.3200641
0.5613980 0.2419580 0.3229980
0.6655319 0.2448919 0.3259319
0.7696658 0.2478258 0.3288658
0.8737996 0.2507596 0.3317996
0.9779335 0.2536935 0.3347335
0.1547322 0.3412922 0.3211322
0.2588661 0.3442261 0.3240661
0.3630000 0.3471600 0.3270000
0.4671339 0.3500939 0.3299339
0.5712678 0.3530278 0.3328678
0.6754016 0.3559616 0.3358016
0.7795355 0.3588955 0.3387355
0.8836694 0.3618294 0.3416694
0.9878033 0.3647633 0.3446033
0.1646020 0.4523620 0.3310020
0.2687359 0.4552959 0.3339359
0.3728698 0.4582298 0.3368698
0.4770036 0.4611636 0.3398036
0.5811375 0.4640975 0.3427375
0.6852714 0.4670314 0.3456714
0.7894053 0.4699653 0.3486053
0.8935392 0.4728992 0.3515392
0.9976730 0.4758330 0.3544730
0.1744718 0.5634318 0.3408718
0.2786056 0.5663656 0.3438056
0.3827395 0.5692995 0.3467395
0.4868734 0.5722334 0.3496734
0.5910073 0.5751673 0.3526073
0.6951412 0.5781012 0.3555412
0.7992750 0.5810350 0.3584750
0.9034089 0.5839689 0.3614089
1.0000000 0.5869028 0.3643428
0.1843415 0.6745015 0.3507415
0.2884754 0.6774354 0.3536754
0.3926093 0.6803693 0.3566093
0.4967432 0.6833032 0.3595432
0.6008770 0.6862370 0.3624770
0.7050109 0.6891709 0.3654109
0.8091448 0.6921048 0.3683448
0.9132787 0.6950387 0.3712787
1.0000000 0.6979726 0.3742126
0.1942113 0.7855713 0.3606113
0.2983452 0.7885052 0.3635452
0.4024790 0.7914390 0.3664790
0.5066129 0.7943729 0.3694129
0.6107468 0.7973068 0.3723468
0.7148807 0.8002407 0.3752807
0.8190146 0.8031746 0.3782146
0.9231484 0.8061084 0.3811484
1.0000000 0.8090423 0.3840823
0.2040810 0.8966410 0.3704810
0.3082149 0.8995749 0.3734149
0.4123488 0.9025088 0.3763488
0.5164827 0.9054427 0.3792827
0.6206166 0.9083766 0.3822166
0.7247504 0.9113104 0.3851504
0.8288843 0.9142443 0.3880843
0.9330182 0.9171782 0.3910182
1.0000000 0.9201121 0.3939521
0.2139508 1.0000000 0.3803508
0.3180847 1.0000000 0.3832847
0.4222186 1.0000000 0.3862186
0.5263524 1.0000000 0.3891524
0.6304863 1.0000000 0.3920863
0.7346202 1.0000000 0.3950202
0.8387541 1.0000000 0.3979541
0.9428880 1.0000000 0.4008880
1.0000000 1.0000000 0.4038218
0.1359891 0.1201491 0.4035891
0.2401230 0.1230830 0.4065230
0.3442568 0.1260168 0.4094568
0.4483907 0.1289507 0.4123907
0.5525246 0.1318846 0.4153246
0.6566585 0.1348185 0.4182585
0.7607924 0.1377524 0.4211924
0.8649262 0.1406862 0.4241262
0.9690601 0.1436201 0.4270601
0.1458588 0.2312188 0.4134588
0.2499927 0.2341527 0.4163927
0.3541266 0.2370866 0.4193266
0.4582605 0.2400205 0.4222605
0.5623944 0.2429544 0.4251944
0.6665282 0.2458882 0.4281282
0.7706621 0.2488221 0.4310621
0.8747960 0.2517560 0.4339960
0.9789299 0.2546899 0.4369299
0.1557286 0.3422886 0.4233286
0.2598625 0.3452225 0.4262625
0.3639964 0.3481564 0.4291964
0.4681302 0.3510902 0.4321302
0.5722641 0.3540241 0.4350641
0.6763980 0.3569580 0.4379980
0.7805319 0.3598919 0.4409319
0.8846658 0.3628258 0.4438658
0.9887996 0.3657596 0.4467996
0.1655984 0.4533584 0.4331984
0.2697322 0.4562922 0.4361322
0.3738661 0.4592261 0.4390661
0.4780000 0.4621600 0.4420000
0.5821339 0.4650939 0.4449339
0.6862678 0.4680278 0.4478678
0.7904016 0.4709616 0.4508016
0.8945355 0.4738955 0.4537355
0.9986694 0.4768294 0.4566694
0.1754681 0.5644281 0.4430681
0.2796020 0.5673620 0.4460020
0.3837359 0.5702959 0.4489359
0.4878698 0.5732298 0.4518698
0.5920036 0.5761636 0.4548036
0.6961375 0.5790975 0.4577375
0.8002714 0.5820314 0.4606714
0.9044053 0.5849653 0.4636053
1.0000000 0.5878992 0.4665392
0.1853379 0.6754979 0.4529379
0.2894718 0.6784318 0.4558718
0.3936056 0.6813656 0.4588056
0.4977395 0.6842995 0.4617395
0.6018734 0.6872334 0.4646734
0.7060073 0.6901673 0.4676073
0.8101412 0.6931012 0.4705412
0.9142750 0.6960350 0.4734750
1.0000000 0.6989689 0.4764089
0.1952076 0.7865676 0.4628076
0.2993415 0.7895015 0.4657415
0.4034754 0.7924354 0.4686754
0.5076093 0.7953693 0.4716093
0.6117432 0.7983032 0.4745432
0.7158770 0.8012370 0.4774770
0.8200109 0.8041709 0.4804109
0.9241448 0.8071048 0.4833448
1.0000000 0.8100387 0.4862787
0.2050774 0.8976374 0.4726774
0.3092113 0.9005713 0.4756113
0.4133452 0.9035052 0.4785452
0.5174790 0.9064390 0.4814790
0.6216129 0.9093729 0.4844129
0.7257468 0.9123068 0.4873468
0.8298807 0.9152407 0.4902807
0.9340146 0.9181746 0.4932146
1.0000000 0.9211084 0.4961484
0.2149472 1.0000000 0.4825472
0.3190810 1.0000000 0.4854810
0.4232149 1.0000000 0.4884149
0.5273488 1.0000000 0.4913488
0.6314827 1.0000000 0.4942827
0.7356166 1.0000000 0.4972166
0.8397504 1.0000000 0.5001504
0.9438843 1.0000000 0.5030843
1.0000000 1.0000000 0.5060182
0.1369854 0.1211454 0.5057854
0.2411193 0.1240793 0.5087193
0.3452532 0.1270132 0.5116532
0.4493871 0.1299471 0.5145871
0.5535210 0.1328810 0.5175210
0.6576548 0.1358148 0.5204548
0.7617887 0.1387487 0.5233887
0.8659226 0.1416826 0.5263226
0.9700565 0.1446165 0.5292565
0.1468552 0.2322152 0.5156552
0.2509891 0.2351491 0.5185891
0.3551230 0.2380830 0.5215230
0.4592568 0.2410168 0.5244568
0.5633907 0.2439507 0.5273907
0.6675246 0.2468846 0.5303246
0.7716585 0.2498185 0.5332585
0.8757924 0.2527524 0.5361924
0.9799262 0.2556862 0.5391262
0.1567250 0.3432850 0.5255250
0.2608588 0.3462188 0.5284588
0.3649927 0.3491527 0.5313927
0.4691266 0.3520866 0.5343266
0.5732605 0.3550205 0.5372605
0.6773944 0.3579544 0.5401944
0.7815282 0.3608882 0.5431282
0.8856621 0.3638221 0.5460621
0.9897960 0.3667560 0.5489960
0.1665947 0.4543547 0.5353947
0.2707286 0.4572886 0.5383286
0.3748625 0.4602225 0.5412625
0.4789964 0.4631564 0.5441964
0.5831302 0.4660902 0.5471302
0.6872641 0.4690241 0.5500641
0.7913980 0.4719580 0.5529980
0.8955319 0.4748919 0.5559319
0.9996658 0.4778258 0.5588658
0.1764645 0.5654245 0.5452645
0.2805984 0.5683584 0.5481984
0.3847322 0.5712922 0.5511322
0.4888661 0.5742261 0.5540661
0.5930000 0.5771600 0.5570000
0.6971339 0.5800939 0.5599339
0.8012678 0.5830278 0.5628678
0.9054016 0.5859616 0.5658016
1.0000000 0.5888955 0.5687355
0.1863342 0.6764942 0.5551342
0.2904681 0.6794281 0.5580681
0.3946020 0.6823620 0.5610020
0.4987359 0.6852959 0.5639359
0.6028698 0.6882298 0.5668698
0.7070036 0.6911636 0.5698036
0.8111375 0.6940975 0.5727375
0.9152714 0.6970314 0.5756714
1.0000000 0.6999653 0.5786053
0.1962040 0.7875640 0.5650040
0.3003379 0.7904979 0.5679379
0.4044718 0.7934318 0.5708718
0.5086056 0.7963656 0.5738056
0.6127395 0.7992995 0.5767395
0.7168734 0.8022334 0.5796734
0.8210073 0.8051673 0.5826073
0.9251412 0.8081012 0.5855412
1.0000000 0.8110350 0.5884750
0.2060738 0.8986338 0.5748738
0.3102076 0.9015676 0.5778076
0.4143415 0.9045015 0.5807415
0.5184754 0.9074354 0.5836754
0.6226093 0.9103693 0.5866093
0.7267432 0.9133032 0.5895432
0.8308770 0.9162370 0.5924770
0.9350109 0.9191709 0.5954109
1.0000000 0.9221048 0.5983448
0.2159435 1.0000000 0.5847435
0.3200774 1.0000000 0.5876774
0.4242113 1.0000000 0.5906113
0.5283452 1.0000000 0.5935452
0.6324790 1.0000000 0.5964790
0.7366129 1.0000000 0.5994129
0.8407468 1.0000000 0.6023468
0.9448807 1.0000000 0.6052807
1.0000000 1.0000000 0.6082146
0.1379818 0.1221418 0.6079818
0.2421157 0.1250757 0.6109157
0.3462496 0.1280096 0.6138496
0.4503834 0.1309434 0.6167834
0.5545173 0.1338773 0.6197173
0.6586512 0.1368112 0.6226512
0.7627851 0.1397451 0.6255851
0.8669190 0.1426790 0.6285190
0.9710528 0.1456128 0.6314528
0.1478516 0.2332116 0.6178516
0.2519854 0.2361454 0.6207854
0.3561193 0.2390793 0.6237193
0.4602532 0.2420132 0.6266532
0.5643871 0.2449471 0.6295871
0.6685210 0.2478810 0.6325210
0.7726548 0.2508148 0.6354548
0.8767887 0.2537487 0.6383887
0.9809226 0.2566826 0.6413226
0.1577213 0.3442813 0.6277213
0.2618552 0.3472152 0.6306552
0.3659891 0.3501491 0.6335891
0.4701230 0.3530830 0.6365230
0.5742568 0.3560168 0.6394568
0.6783907 0.3589507 0.6423907
0.7825246 0.3618846 0.6453246
0.8866585 0.3648185 0.6482585
0.9907924 0.3677524 0.6511924
0.1675911 0.4553511 0.6375911
0.2717250 0.4582850 0.6405250
0.3758588 0.4612188 0.6434588
0.4799927 0.4641527 0.6463927
0.5841266 0.4670866 0.6493266
0.6882605 0.4700205 0.6522605
0.7923944 0.4729544 0.6551944
0.8965282 0.4758882 0.6581282
1.0000000 0.4788221 0.6610621
0.1774608 0.5664208 0.6474608
0.2815947 0.5693547 0.6503947
0.3857286 0.5722886 0.6533286
0.4898625 0.5752225 0.6562625
0.5939964 0.5781564 0.6591964
0.6981302 0.5810902 0.6621302
0.8022641 0.5840241 0.6650641
0.9063980 0.5869580 0.6679980
1.0000000 0.5898919 0.6709319
0.1873306 0.6774906 0.6573306
0.2914645 0.6804245 0.6602645
0.3955984 0.6833584 0.6631984
0.4997322 0.6862922 0.6661322
0.6038661 0.6892261 0.6690661
0.7080000 0.6921600 0.6720000
0.8121339 0.6950939 0.6749339
0.9162678 0.6980278 0.6778678
1.0000000 0.7009616 0.6808016
0.1972004 0.7885604 0.6672004
0.3013342 0.7914942 0.6701342
0.4054681 0.7944281 0.6730681
0.5096020 0.7973620 0.6760020
0.6137359 0.8002959 0.6789359
0.7178698 0.8032298 0.6818698
0.8220036 0.8061636 0.6848036
0.9261375 0.8090975 0.6877375
1.0000000 0.8120314 0.6906714
0.2070701 0.8996301 0.6770701
0.3112040 0.9025640 0.6800040
0.4153379 0.9054979 0.6829379
0.5194718 0.9084318 0.6858718
0.6236056 0.9113656 0.6888056
0.7277395 0.9142995 0.6917395
0.8318734 0.9172334 0.6946734
0.9360073 0.9201673 0.6976073
1.0000000 0.9231012 0.7005412
0.2169399 1.0000000 0.6869399
0.3210738 1.0000000 0.6898738
0.4252076 1.0000000 0.6928076
0.5293415 1.0000000 0.6957415
0.6334754 1.0000000 0.6986754
0.7376093 1.0000000 0.7016093
0.8417432 1.0000000 0.7045432
0.9458770 1.0000000 0.7074770
1.0000000 1.0000000 0.7104109
0.1389782 0.1231382 0.7101782
0.2431120 0.1260720 0.7131120
0.3472459 0.1290059 0.7160459
0.4513798 0.1319398 0.7189798
0.5555137 0.1348737 0.7219137
0.6596476 0.1378076 0.7248476
0.7637814 0.1407414 0.7277814
0.8679153 0.1436753 0.7307153
0.9720492 0.1466092 0.7336492
0.1488479 0.2342079 0.7200479
0.2529818 0.2371418 0.7229818
0.3571157 0.2400757 0.7259157
0.4612496 0.2430096 0.7288496
0.5653834 0.2459434 0.7317834
0.6695173 0.2488773 0.7347173
0.7736512 0.2518112 0.7376512
0.8777851 0.2547451 0.7405851
0.9819190 0.2576790 0.7435190
0.1587177 0.3452777 0.7299177
0.2628516 0.3482116 0.7328516
0.3669854 0.3511454 0.7357854
0.4711193 0.3540793 0.7387193
0.5752532 0.3570132 0.7416532
0.6793871 0.3599471 0.7445871
0.7835210 0.3628810 0.7475210
0.8876548 0.3658148 0.7504548
0.9917887 0.3687487 0.7533887
0.1685874 0.4563474 0.7397874
0.2727213 0.4592813 0.7427213
0.3768552 0.4622152 0.7456552
0.4809891 0.4651491 0.7485891
0.5851230 0.4680830 0.7515230
0.6892568 0.4710168 0.7544568
0.7933907 0.4739507 0.7573907
0.8975246 0.4768846 0.7603246
1.0000000 0.4798185 0.7632585
0.1784572 0.5674172 0.7496572
0.2825911 0.5703511 0.7525911
0.3867250 0.5732850 0.7555250
0.4908588 0.5762188 0.7584588
0.5949927 0.5791527 0.7613927
0.6991266 0.5820866 0.7643266
0.8032605 0.5850205 0.7672605
0.9073944 0.5879544 0.7701944
1.0000000 0.5908882 0.7731282
0.1883270 0.6784870 0.7595270
0.2924608 0.6814208 0.7624608
0.3965947 0.6843547 0.7653947
0.5007286 0.6872886 0.7683286
0.6048625 0.6902225 0.7712625
0.7089964 0.6931564 0.7741964
0.8131302 0.6960902 0.7771302
0.9172641 0.6990241 0.7800641
1.0000000 0.7019580 0.7829980
0.1981967 0.7895567 0.7693967
0.3023306 0.7924906 0.7723306
0.4064645 0.7954245 0.7752645
0.5105984 0.7983584 0.7781984
0.6147322 0.8012922 0.7811322
0.7188661 0.8042261 0.7840661
0.8230000 0.8071600 0.7870000
0.9271339 0.8100939 0.7899339
1.0000000 0.8130278 0.7928678
0.2080665 0.9006265 0.7792665
0.3122004 0.9035604 0.7822004
0.4163342 0.9064942 0.7851342
0.5204681 0.9094281 0.7880681
0.6246020 0.9123620 0.7910020
0.7287359 0.9152959 0.7939359
0.8328698 0.9182298 0.7968698
0.9370036 0.9211636 0.7998036
1.0000000 0.9240975 0.8027375
0.2179362 1.0000000 0.7891362
0.3220701 1.0000000 0.7920701
0.4262040 1.0000000 0.7950040
0.5303379 1.0000000 0.7979379
0.6344718 1.0000000 0.8008718
0.7386056 1.0000000 0.8038056
0.8427395 1.0000000 0.8067395
0.9468734 1.0000000 0.8096734
1.0000000 1.0000000 0.8126073
0.1399745 0.1241345 0.8123745
0.2441084 0.1270684 0.8153084
0.3482423 0.1300023 0.8182423
0.4523762 0.1329362 0.8211762
0.5565100 0.1358700 0.8241100
0.6606439 0.1388039 0.8270439
0.7647778 0.1417378 0.8299778
0.8689117 0.1446717 0.8329117
0.9730456 0.1476056 0.8358456
0.1498443 0.2352043 0.8222443
0.2539782 0.2381382 0.8251782
0.3581120 0.2410720 0.8281120
0.4622459 0.2440059 0.8310459
0.5663798 0.2469398 0.8339798
0.6705137 0.2498737 0.8369137
0.7746476 0.2528076 0.8398476
0.8787814 0.2557414 0.8427814
0.9829153 0.2586753 0.8457153
0.1597140 0.3462740 0.8321140
0.2638479 0.3492079 0.8350479
0.3679818 0.3521418 0.8379818
0.4721157 0.3550757 0.8409157
0.5762496 0.3580096 0.8438496
0.6803834 0.3609434 0.8467834
0.7845173 0.3638773 0.8497173
0.8886512 0.3668112 0.8526512
0.9927851 0.3697451 0.8555851
0.1695838 0.4573438 0.8419838
0.2737177 0.4602777 0.8449177
0.3778516 0.4632116 0.8478516
0.4819854 0.4661454 0.8507854
0.5861193 0.4690793 0.8537193
0.6902532 0.4720132 0.8566532
0.7943871 0.4749471 0.8595871
0.8985210 0.4778810 0.8625210
1.0000000 0.4808148 0.8654548
0.1794536 0.5684136 0.8518536
0.2835874 0.5713474 0.8547874
0.3877213 0.5742813 0.8577213
0.4918552 0.5772152 0.8606552
0.5959891 0.5801491 0.8635891
0.7001230 0.5830830 0.8665230
0.8042568 0.5860168 0.8694568
0.9083907 0.5889507 0.8723907
1.0000000 0.5918846 0.8753246
0.1893233 0.6794833 0.8617233
0.2934572 0.6824172 0.8646572
0.3975911 0.6853511 0.8675911
0.5017250 0.6882850 0.8705250
0.6058588 0.6912188 0.8734588
0.7099927 0.6941527 0.8763927
0.8141266 0.6970866 0.8793266
0.9182605 0.7000205 0.8822605
1.0000000 0.7029544 0.8851944
0.1991931 0.7905531 0.8715931
0.3033270 0.7934870 0.8745270
0.4074608 0.7964208 0.8774608
0.5115947 0.7993547 0.8803947
0.6157286 0.8022886 0.8833286
0.7198625 0.8052225 0.8862625
0.8239964 0.8081564 0.8891964
0.9281302 0.8110902 0.8921302
1.0000000 0.8140241 0.8950641
0.2090628 0.9016228 0.8814628
0.3131967 0.9045567 0.8843967
0.4173306 0.9074906 0.8873306
0.5214645 0.9104245 0.8902645
0.6255984 0.9133584 0.8931984
0.7297322 0.9162922 0.8961322
0.8338661 0.9192261 0.8990661
0.9380000 0.9221600 0.9020000
1.0000000 0.9250939 0.9049339
0.2189326 1.0000000 0.8913326
0.3230665 1.0000000 0.8942665
0.4272004 1.0000000 0.8972004
0.5313342 1.0000000 0.9001342
0.6354681 1.0000000 0.9030681
0.7396020 1.0000000 0.9060020
0.8437359 1.0000000 0.9089359
0.9478698 1.0000000 0.9118698
1.0000000 1.0000000 0.9148036
0.1409709 0.1251309 0.9145709
0.2451048 0.1280648 0.9175048
0.3492386 0.1309986 0.9204386
0.4533725 0.1339325 0.9233725
0.5575064 0.1368664 0.9263064
0.6616403 0.1398003 0.9292403
0.7657742 0.1427342 0.9321742
0.8699080 0.1456680 0.9351080
0.9740419 0.1486019 0.9380419
0.1508406 0.2362006 0.9244406
0.2549745 0.2391345 0.9273745
0.3591084 0.2420684 0.9303084
0.4632423 0.2450023 0.9332423
0.5673762 0.2479362 0.9361762
0.6715100 0.2508700 0.9391100
0.7756439 0.2538039 0.9420439
0.8797778 0.2567378 0.9449778
0.9839117 0.2596717 0.9479117
0.1607104 0.3472704 0.9343104
0.2648443 0.3502043 0.9372443
0.3689782 0.3531382 0.9401782
0.4731120 0.3560720 0.9431120
0.5772459 0.3590059 0.9460459
0.6813798 0.3619398 0.9489798
0.7855137 0.3648737 0.9519137
0.8896476 0.3678076 0.9548476
0.9937814 0.3707414 0.9577814
0.1705802 0.4583402 0.9441802
0.2747140 0.4612740 0.9471140
0.3788479 0.4642079 0.9500479
0.4829818 0.4671418 0.9529818
0.5871157 0.4700757 0.9559157
0.6912496 0.4730096 0.9588496
0.7953834 0.4759434 0.9617834
0.8995173 0.4788773 0.9647173
1.0000000 0.4818112 0.9676512
0.1804499 0.5694099 0.9540499
0.2845838 0.5723438 0.9569838
0.3887177 0.5752777 0.9599177
0.4928516 0.5782116 0.9628516
0.5969854 0.5811454 0.9657854
0.7011193 0.5840793 0.9687193
0.8052532 0.5870132 0.9716532
0.9093871 0.5899471 0.9745871
1.0000000 0.5928810 0.9775210
0.1903197 0.6804797 0.9639197
0.2944536 0.6834136 0.9668536
0.3985874 0.6863474 0.9697874
0.5027213 0.6892813 0.9727213
0.6068552 0.6922152 0.9756552
0.7109891 0.6951491 0.9785891
0.8151230 0.6980830 0.9815230
0.9192568 0.7010168 0.9844568
1.0000000 0.7039507 0.9873907
0.2001894 0.7915494 0.9737894
0.3043233 0.7944833 0.9767233
0.4084572 0.7974172 0.9796572
0.5125911 0.8003511 0.9825911
0.6167250 0.8032850 0.9855250
0.7208588 0.8062188 0.9884588
0.8249927 0.8091527 0.9913927
0.9291266 0.8120866 0.9943266
1.0000000 0.8150205 0.9972605
0.2100592 0.9026192 0.9836592
0.3141931 0.9055531 0.9865931
0.4183270 0.9084870 0.9895270
0.5224608 0.9114208 0.9924608
0.6265947 0.9143547 0.9953947
0.7307286 0.9172886 0.9983286
0.8348625 0.9202225 1.0000000
0.9389964 0.9231564 1.0000000
1.0000000 0.9260902 1.0000000
0.2199290 1.0000000 0.9935290
0.3240628 1.0000000 0.9964628
0.4281967 1.0000000 0.9993967
0.5323306 1.0000000 1.0000000
0.6364645 1.0000000 1.0000000
0.7405984 1.0000000 1.0000000
0.8447322 1.0000000 1.0000000
0.9488661 1.0000000 1.0000000
1.0000000 1.0000000 1.0000000
