android/app/src/main/assets/luts/Monochrome.cube
TITLE "MirrorBridge Monochrome"
# Generated by scripts/generate_luts.py with {"contrast": 1.08, "lift": 0.01, "saturation": 0.0, "temperature": 0.0}
LUT_3D_SIZE 9
DOMAIN_MIN 0.0 0.0 0.0
DOMAIN_MAX 1.0 1.0 1.0
0.0000000 0.0000000 0.0000000
0.0000000 0.0000000 0.0000000
0.0274020 0.0274020 0.0274020
0.0561030 0.0561030 0.0561030
0.0848040 0.0848040 0.0848040
0.1135050 0.1135050 0.1135050
0.1422060 0.1422060 0.1422060
0.1709070 0.1709070 0.1709070
0.1996080 0.1996080 0.1996080
0.0665520 0.0665520 0.0665520
0.0952530 0.0952530 0.0952530
0.1239540 0.1239540 0.1239540
0.1526550 0.1526550 0.1526550
0.1813560 0.1813560 0.1813560
0.2100570 0.2100570 0.2100570
0.2387580 0.2387580 0.2387580
0.2674590 0.2674590 0.2674590
0.2961600 0.2961600 0.2961600
0.1631040 0.1631040 0.1631040
0.1918050 0.1918050 0.1918050
0.2205060 0.2205060 0.2205060
0.2492070 0.2492070 0.2492070
0.2779080 0.2779080 0.2779080
0.3066090 0.3066090 0.3066090
0.3353100 0.3353100 0.3353100
0.3640110 0.3640110 0.3640110
0.3927120 0.3927120 0.3927120
0.2596560 0.2596560 0.2596560
0.2883570 0.2883570 0.2883570
0.3170580 0.3170580 0.3170580
0.3457590 0.3457590 0.3457590
0.3744600 0.3744600 0.3744600
0.4031610 0.4031610 0.4031610
0.4318620 0.4318620 0.4318620
0.4605630 0.4605630 0.4605630
0.4892640 0.4892640 0.4892640
0.3562080 0.3562080 0.3562080
0.3849090 0.3849090 0.3849090
0.4136100 0.4136100 0.4136100
0.4423110 0.4423110 0.4423110
0.4710120 0.4710120 0.4710120
0.4997130 0.4997130 0.4997130
0.5284140 0.5284140 0.5284140
0.5571150 0.5571150 0.5571150
0.5858160 0.5858160 0.5858160
0.4527600 0.4527600 0.4527600
0.4814610 0.4814610 0.4814610
0.5101620 0.5101620 0.5101620
0.5388630 0.5388630 0.5388630
0.5675640 0.5675640 0.5675640
0.5962650 0.5962650 0.5962650
0.6249660 0.6249660 0.6249660
0.6536670 0.6536670 0.6536670
0.6823680 0.6823680 0.6823680
0.5493120 0.5493120 0.5493120
0.5780130 0.5780130 0.5780130
0.6067140 0.6067140 0.6067140
0.6354150 0.6354150 0.6354150
0.6641160 0.6641160 0.6641160
0.6928170 0.6928170 0.6928170
0.7215180 0.7215180 0.7215180
0.7502190 0.7502190 0.7502190
0.7789200 0.7789200 0.7789200
0.6458640 0.6458640 0.6458640
0.6745650 0.6745650 0.6745650
0.7032660 0.7032660 0.7032660
0.7319670 0.7319670 0.7319670
0.7606680 0.7606680 0.7606680
0.7893690 0.7893690 0.7893690
0.8180700 0.8180700 0.8180700
0.8467710 0.8467710 0.8467710
0.8754720 0.8754720 0.8754720
0.7424160 0.7424160 0.7424160
0.7711170 0.7711170 0.7711170
0.7998180 0.7998180 0.7998180
0.8285190 0.8285190 0.8285190
0.8572200 0.8572200 0.8572200
0.8859210 0.8859210 0.8859210
0.9146220 0.9146220 0.9146220
0.9433230 0.9433230 0.9433230
0.9720240 0.9720240 0.9720240
0.0000000 0.0000000 0.0000000
0.0084480 0.0084480 0.0084480
0.0371490 0.0371490 0.0371490
0.0658500 0.0658500 0.0658500
0.0945510 0.0945510 0.0945510
0.1232520 0.1232520 0.1232520
0.1519530 0.1519530 0.1519530
0.1806540 0.1806540 0.1806540
0.2093550 0.2093550 0.2093550
0.0762990 0.0762990 0.0762990
0.1050000 0.1050000 0.1050000
0.1337010 0.1337010 0.1337010
0.1624020 0.1624020 0.1624020
0.1911030 0.1911030 0.1911030
0.2198040 0.2198040 0.2198040
0.2485050 0.2485050 0.2485050
0.2772060 0.2772060 0.2772060
0.3059070 0.3059070 0.3059070
0.1728510 0.1728510 0.1728510
0.2015520 0.2015520 0.2015520
0.2302530 0.2302530 0.2302530
0.2589540 0.2589540 0.2589540
0.2876550 0.2876550 0.2876550
0.3163560 0.3163560 0.3163560
0.3450570 0.3450570 0.3450570
0.3737580 0.3737580 0.3737580
0.4024590 0.4024590 0.4024590
0.2694030 0.2694030 0.2694030
0.2981040 0.2981040 0.2981040
0.3268050 0.3268050 0.3268050
0.3555060 0.3555060 0.3555060
0.3842070 0.3842070 0.3842070
0.4129080 0.4129080 0.4129080
0.4416090 0.4416090 0.4416090
0.4703100 0.4703100 0.4703100
0.4990110 0.4990110 0.4990110
0.3659550 0.3659550 0.3659550
0.3946560 0.3946560 0.3946560
0.4233570 0.4233570 0.4233570
0.4520580 0.4520580 0.4520580
0.4807590 0.4807590 0.4807590
0.5094600 0.5094600 0.5094600
0.5381610 0.5381610 0.5381610
0.5668620 0.5668620 0.5668620
0.5955630 0.5955630 0.5955630
0.4625070 0.4625070 0.4625070
0.4912080 0.4912080 0.4912080
0.5199090 0.5199090 0.5199090
0.5486100 0.5486100 0.5486100
0.5773110 0.5773110 0.5773110
0.6060120 0.6060120 0.6060120
0.6347130 0.6347130 0.6347130
0.6634140 0.6634140 0.6634140
0.6921150 0.6921150 0.6921150
0.5590590 0.5590590 0.5590590
0.5877600 0.5877600 0.5877600
0.6164610 0.6164610 0.6164610
0.6451620 0.6451620 0.6451620
0.6738630 0.6738630 0.6738630
0.7025640 0.7025640 0.7025640
0.7312650 0.7312650 0.7312650
0.7599660 0.7599660 0.7599660
0.7886670 0.7886670 0.7886670
0.6556110 0.6556110 0.6556110
0.6843120 0.6843120 0.6843120
0.7130130 0.7130130 0.7130130
0.7417140 0.7417140 0.7417140
0.7704150 0.7704150 0.7704150
0.7991160 0.7991160 0.7991160
0.8278170 0.8278170 0.8278170
0.8565180 0.8565180 0.8565180
0.8852190 0.8852190 0.8852190
0.7521630 0.7521630 0.7521630
0.7808640 0.7808640 0.7808640
0.8095650 0.8095650 0.8095650
0.8382660 0.8382660 0.8382660
0.8669670 0.8669670 0.8669670
0.8956680 0.8956680 0.8956680
0.9243690 0.9243690 0.9243690
0.9530700 0.9530700 0.9530700
0.9817710 0.9817710 0.9817710
0.0000000 0.0000000 0.0000000
0.0181950 0.0181950 0.0181950
0.0468960 0.0468960 0.0468960
0.0755970 0.0755970 0.0755970
0.1042980 0.1042980 0.1042980
0.1329990 0.1329990 0.1329990
0.1617000 0.1617000 0.1617000
0.1904010 0.1904010 0.1904010
0.2191020 0.2191020 0.2191020
0.0860460 0.0860460 0.0860460
0.1147470 0.1147470 0.1147470
0.1434480 0.1434480 0.1434480
0.1721490 0.1721490 0.1721490
0.2008500 0.2008500 0.2008500
0.2295510 0.2295510 0.2295510
0.2582520 0.2582520 0.2582520
0.2869530 0.2869530 0.2869530
0.3156540 0.3156540 0.3156540
0.1825980 0.1825980 0.1825980
0.2112990 0.2112990 0.2112990
0.2400000 0.2400000 0.2400000
0.2687010 0.2687010 0.2687010
0.2974020 0.2974020 0.2974020
0.3261030 0.3261030 0.3261030
0.3548040 0.3548040 0.3548040
0.3835050 0.3835050 0.3835050
0.4122060 0.4122060 0.4122060
0.2791500 0.2791500 0.2791500
0.3078510 0.3078510 0.3078510
0.3365520 0.3365520 0.3365520
0.3652530 0.3652530 0.3652530
0.3939540 0.3939540 0.3939540
0.4226550 0.4226550 0.4226550
0.4513560 0.4513560 0.4513560
0.4800570 0.4800570 0.4800570
0.5087580 0.5087580 0.5087580
0.3757020 0.3757020 0.3757020
0.4044030 0.4044030 0.4044030
0.4331040 0.4331040 0.4331040
0.4618050 0.4618050 0.4618050
0.4905060 0.4905060 0.4905060
0.5192070 0.5192070 0.5192070
0.5479080 0.5479080 0.5479080
0.5766090 0.5766090 0.5766090
0.6053100 0.6053100 0.6053100
0.4722540 0.4722540 0.4722540
0.5009550 0.5009550 0.5009550
0.5296560 0.5296560 0.5296560
0.5583570 0.5583570 0.5583570
0.5870580 0.5870580 0.5870580
0.6157590 0.6157590 0.6157590
0.6444600 0.6444600 0.6444600
0.6731610 0.6731610 0.6731610
0.7018620 0.7018620 0.7018620
0.5688060 0.5688060 0.5688060
0.5975070 0.5975070 0.5975070
0.6262080 0.6262080 0.6262080
0.6549090 0.6549090 0.6549090
0.6836100 0.6836100 0.6836100
0.7123110 0.7123110 0.7123110
0.7410120 0.7410120 0.7410120
0.7697130 0.7697130 0.7697130
0.7984140 0.7984140 0.7984140
0.6653580 0.6653580 0.6653580
0.6940590 0.6940590 0.6940590
0.7227600 0.7227600 0.7227600
0.7514610 0.7514610 0.7514610
0.7801620 0.7801620 0.7801620
0.8088630 0.8088630 0.8088630
0.8375640 0.8375640 0.8375640
0.8662650 0.8662650 0.8662650
0.8949660 0.8949660 0.8949660
0.7619100 0.7619100 0.7619100
0.7906110 0.7906110 0.7906110
0.8193120 0.8193120 0.8193120
0.8480130 0.8480130 0.8480130
0.8767140 0.8767140 0.8767140
0.9054150 0.9054150 0.9054150
0.9341160 0.9341160 0.9341160
0.9628170 0.9628170 0.9628170
0.9915180 0.9915180 0.9915180
0.0000000 0.0000000 0.0000000
0.0279420 0.0279420 0.0279420
0.0566430 0.0566430 0.0566430
0.0853440 0.0853440 0.0853440
0.1140450 0.1140450 0.1140450
0.1427460 0.1427460 0.1427460
0.1714470 0.1714470 0.1714470
0.2001480 0.2001480 0.2001480
0.2288490 0.2288490 0.2288490
0.0957930 0.0957930 0.0957930
0.1244940 0.1244940 0.1244940
0.1531950 0.1531950 0.1531950
0.1818960 0.1818960 0.1818960
0.2105970 0.2105970 0.2105970
0.2392980 0.2392980 0.2392980
0.2679990 0.2679990 0.2679990
0.2967000 0.2967000 0.2967000
0.3254010 0.3254010 0.3254010
0.1923450 0.1923450 0.1923450
0.2210460 0.2210460 0.2210460
0.2497470 0.2497470 0.2497470
0.2784480 0.2784480 0.2784480
0.3071490 0.3071490 0.3071490
0.3358500 0.3358500 0.3358500
0.3645510 0.3645510 0.3645510
0.3932520 0.3932520 0.3932520
0.4219530 0.4219530 0.4219530
0.2888970 0.2888970 0.2888970
0.3175980 0.3175980 0.3175980
0.3462990 0.3462990 0.3462990
0.3750000 0.3750000 0.3750000
0.4037010 0.4037010 0.4037010
0.4324020 0.4324020 0.4324020
0.4611030 0.4611030 0.4611030
0.4898040 0.4898040 0.4898040
0.5185050 0.5185050 0.5185050
0.3854490 0.3854490 0.3854490
0.4141500 0.4141500 0.4141500
0.4428510 0.4428510 0.4428510
0.4715520 0.4715520 0.4715520
0.5002530 0.5002530 0.5002530
0.5289540 0.5289540 0.5289540
0.5576550 0.5576550 0.5576550
0.5863560 0.5863560 0.5863560
0.6150570 0.6150570 0.6150570
0.4820010 0.4820010 0.4820010
0.5107020 0.5107020 0.5107020
0.5394030 0.5394030 0.5394030
0.5681040 0.5681040 0.5681040
0.5968050 0.5968050 0.5968050
0.6255060 0.6255060 0.6255060
0.6542070 0.6542070 0.6542070
0.6829080 0.6829080 0.6829080
0.7116090 0.7116090 0.7116090
0.5785530 0.5785530 0.5785530
0.6072540 0.6072540 0.6072540
0.6359550 0.6359550 0.6359550
0.6646560 0.6646560 0.6646560
0.6933570 0.6933570 0.6933570
0.7220580 0.7220580 0.7220580
0.7507590 0.7507590 0.7507590
0.7794600 0.7794600 0.7794600
0.8081610 0.8081610 0.8081610
0.6751050 0.6751050 0.6751050
0.7038060 0.7038060 0.7038060
0.7325070 0.7325070 0.7325070
0.7612080 0.7612080 0.7612080
0.7899090 0.7899090 0.7899090
0.8186100 0.8186100 0.8186100
0.8473110 0.8473110 0.8473110
0.8760120 0.8760120 0.8760120
0.9047130 0.9047130 0.9047130
0.7716570 0.7716570 0.7716570
0.8003580 0.8003580 0.8003580
0.8290590 0.8290590 0.8290590
0.8577600 0.8577600 0.8577600
0.8864610 0.8864610 0.8864610
0.9151620 0.9151620 0.9151620
0.9438630 0.9438630 0.9438630
0.9725640 0.9725640 0.9725640
1.0000000 1.0000000 1.0000000
0.0089880 0.0089880 0.0089880
0.0376890 0.0376890 0.0376890
0.0663900 0.0663900 0.0663900
0.0950910 0.0950910 0.0950910
0.1237920 0.1237920 0.1237920
0.1524930 0.1524930 0.1524930
0.1811940 0.1811940 0.1811940
0.2098950 0.2098950 0.2098950
0.2385960 0.2385960 0.2385960
0.1055400 0.1055400 0.1055400
0.1342410 0.1342410 0.1342410
0.1629420 0.1629420 0.1629420
0.1916430 0.1916430 0.1916430
0.2203440 0.2203440 0.2203440
0.2490450 0.2490450 0.2490450
0.2777460 0.2777460 0.2777460
0.3064470 0.3064470 0.3064470
0.3351480 0.3351480 0.3351480
0.2020920 0.2020920 0.2020920
0.2307930 0.2307930 0.2307930
0.2594940 0.2594940 0.2594940
0.2881950 0.2881950 0.2881950
0.3168960 0.3168960 0.3168960
0.3455970 0.3455970 0.3455970
0.3742980 0.3742980 0.3742980
0.4029990 0.4029990 0.4029990
0.4317000 0.4317000 0.4317000
0.2986440 0.2986440 0.2986440
0.3273450 0.3273450 0.3273450
0.3560460 0.3560460 0.3560460
0.3847470 0.3847470 0.3847470
0.4134480 0.4134480 0.4134480
0.4421490 0.4421490 0.4421490
0.4708500 0.4708500 0.4708500
0.4995510 0.4995510 0.4995510
0.5282520 0.5282520 0.5282520
0.3951960 0.3951960 0.3951960
0.4238970 0.4238970 0.4238970
0.4525980 0.4525980 0.4525980
0.4812990 0.4812990 0.4812990
0.5100000 0.5100000 0.5100000
0.5387010 0.5387010 0.5387010
0.5674020 0.5674020 0.5674020
0.5961030 0.5961030 0.5961030
0.6248040 0.6248040 0.6248040
0.4917480 0.4917480 0.4917480
0.5204490 0.5204490 0.5204490
0.5491500 0.5491500 0.5491500
0.5778510 0.5778510 0.5778510
0.6065520 0.6065520 0.6065520
0.6352530 0.6352530 0.6352530
0.6639540 0.6639540 0.6639540
0.6926550 0.6926550 0.6926550
0.7213560 0.7213560 0.7213560
0.5883000 0.5883000 0.5883000
0.6170010 0.6170010 0.6170010
0.6457020 0.6457020 0.6457020
0.6744030 0.6744030 0.6744030
0.7031040 0.7031040 0.7031040
0.7318050 0.7318050 0.7318050
0.7605060 0.7605060 0.7605060
0.7892070 0.7892070 0.7892070
0.8179080 0.8179080 0.8179080
0.6848520 0.6848520 0.6848520
0.7135530 0.7135530 0.7135530
0.7422540 0.7422540 0.7422540
0.7709550 0.7709550 0.7709550
0.7996560 0.7996560 0.7996560
0.8283570 0.8283570 0.8283570
0.8570580 0.8570580 0.8570580
0.8857590 0.8857590 0.8857590
0.9144600 0.9144600 0.9144600
0.7814040 0.7814040 0.7814040
0.8101050 0.8101050 0.8101050
0.8388060 0.8388060 0.8388060
0.8675070 0.8675070 0.8675070
0.8962080 0.8962080 0.8962080
0.9249090 0.9249090 0.9249090
0.9536100 0.9536100 0.9536100
0.9823110 0.9823110 0.9823110
1.0000000 1.0000000 1.0000000
0.0187350 0.0187350 0.0187350
0.0474360 0.0474360 0.0474360
0.0761370 0.0761370 0.0761370
0.1048380 0.1048380 0.1048380
0.1335390 0.1335390 0.1335390
0.1622400 0.1622400 0.1622400
0.1909410 0.1909410 0.1909410
0.2196420 0.2196420 0.2196420
0.2483430 0.2483430 0.2483430
0.1152870 0.1152870 0.1152870
0.1439880 0.1439880 0.1439880
0.1726890 0.1726890 0.1726890
0.2013900 0.2013900 0.2013900
0.2300910 0.2300910 0.2300910
0.2587920 0.2587920 0.2587920
0.2874930 0.2874930 0.2874930
0.3161940 0.3161940 0.3161940
0.3448950 0.3448950 0.3448950
0.2118390 0.2118390 0.2118390
0.2405400 0.2405400 0.2405400
0.2692410 0.2692410 0.2692410
0.2979420 0.2979420 0.2979420
0.3266430 0.3266430 0.3266430
0.3553440 0.3553440 0.3553440
0.3840450 0.3840450 0.3840450
0.4127460 0.4127460 0.4127460
0.4414470 0.4414470 0.4414470
0.3083910 0.3083910 0.3083910
0.3370920 0.3370920 0.3370920
0.3657930 0.3657930 0.3657930
0.3944940 0.3944940 0.3944940
0.4231950 0.4231950 0.4231950
0.4518960 0.4518960 0.4518960
0.4805970 0.4805970 0.4805970
0.5092980 0.5092980 0.5092980
0.5379990 0.5379990 0.5379990
0.4049430 0.4049430 0.4049430
0.4336440 0.4336440 0.4336440
0.4623450 0.4623450 0.4623450
0.4910460 0.4910460 0.4910460
0.5197470 0.5197470 0.5197470
0.5484480 0.5484480 0.5484480
0.5771490 0.5771490 0.5771490
0.6058500 0.6058500 0.6058500
0.6345510 0.6345510 0.6345510
0.5014950 0.5014950 0.5014950
0.5301960 0.5301960 0.5301960
0.5588970 0.5588970 0.5588970
0.5875980 0.5875980 0.5875980
0.6162990 0.6162990 0.6162990
0.6450000 0.6450000 0.6450000
0.6737010 0.6737010 0.6737010
0.7024020 0.7024020 0.7024020
0.7311030 0.7311030 0.7311030
0.5980470 0.5980470 0.5980470
0.6267480 0.6267480 0.6267480
0.6554490 0.6554490 0.6554490
0.6841500 0.6841500 0.6841500
0.7128510 0.7128510 0.7128510
0.7415520 0.7415520 0.7415520
0.7702530 0.7702530 0.7702530
0.7989540 0.7989540 0.7989540
0.8276550 0.8276550 0.8276550
0.6945990 0.6945990 0.6945990
0.7233000 0.7233000 0.7233000
0.7520010 0.7520010 0.7520010
0.7807020 0.7807020 0.7807020
0.8094030 0.8094030 0.8094030
0.8381040 0.8381040 0.8381040
0.8668050 0.8668050 0.8668050
0.8955060 0.8955060 0.8955060
0.9242070 0.9242070 0.9242070
0.7911510 0.7911510 0.7911510
0.8198520 0.8198520 0.8198520
0.8485530 0.8485530 0.8485530
0.8772540 0.8772540 0.8772540
0.9059550 0.9059550 0.9059550
0.9346560 0.9346560 0.9346560
0.9633570 0.9633570 0.9633570
0.9920580 0.9920580 0.9920580
1.0000000 1.0000000 1.0000000
0.0284820 0.0284820 0.0284820
0.0571830 0.0571830 0.0571830
0.0858840 0.0858840 0.0858840
0.1145850 0.1145850 0.1145850
0.1432860 0.1432860 0.1432860
0.1719870 0.1719870 0.1719870
0.2006880 0.2006880 0.2006880
0.2293890 0.2293890 0.2293890
0.2580900 0.2580900 0.2580900
0.1250340 0.1250340 0.1250340
0.1537350 0.1537350 0.1537350
0.1824360 0.1824360 0.1824360
0.2111370 0.2111370 0.2111370
0.2398380 0.2398380 0.2398380
0.2685390 0.2685390 0.2685390
0.2972400 0.2972400 0.2972400
0.3259410 0.3259410 0.3259410
0.3546420 0.3546420 0.3546420
0.2215860 0.2215860 0.2215860
0.2502870 0.2502870 0.2502870
0.2789880 0.2789880 0.2789880
0.3076890 0.3076890 0.3076890
0.3363900 0.3363900 0.3363900
0.3650910 0.3650910 0.3650910
0.3937920 0.3937920 0.3937920
0.4224930 0.4224930 0.4224930
0.4511940 0.4511940 0.4511940
0.3181380 0.3181380 0.3181380
0.3468390 0.3468390 0.3468390
0.3755400 0.3755400 0.3755400
0.4042410 0.4042410 0.4042410
0.4329420 0.4329420 0.4329420
0.4616430 0.4616430 0.4616430
0.4903440 0.4903440 0.4903440
0.5190450 0.5190450 0.5190450
0.5477460 0.5477460 0.5477460
0.4146900 0.4146900 0.4146900
0.4433910 0.4433910 0.4433910
0.4720920 0.4720920 0.4720920
0.5007930 0.5007930 0.5007930
0.5294940 0.5294940 0.5294940
0.5581950 0.5581950 0.5581950
0.5868960 0.5868960 0.5868960
0.6155970 0.6155970 0.6155970
0.6442980 0.6442980 0.6442980
0.5112420 0.5112420 0.5112420
0.5399430 0.5399430 0.5399430
0.5686440 0.5686440 0.5686440
0.5973450 0.5973450 0.5973450
0.6260460 0.6260460 0.6260460
0.6547470 0.6547470 0.6547470
0.6834480 0.6834480 0.6834480
0.7121490 0.7121490 0.7121490
0.7408500 0.7408500 0.7408500
0.6077940 0.6077940 0.6077940
0.6364950 0.6364950 0.6364950
0.6651960 0.6651960 0.6651960
0.6938970 0.6938970 0.6938970
0.7225980 0.7225980 0.7225980
0.7512990 0.7512990 0.7512990
0.7800000 0.7800000 0.7800000
0.8087010 0.8087010 0.8087010
0.8374020 0.8374020 0.8374020
0.7043460 0.7043460 0.7043460
0.7330470 0.7330470 0.7330470
0.7617480 0.7617480 0.7617480
0.7904490 0.7904490 0.7904490
0.8191500 0.8191500 0.8191500
0.8478510 0.8478510 0.8478510
0.8765520 0.8765520 0.8765520
0.9052530 0.9052530 0.9052530
0.9339540 0.9339540 0.9339540
0.8008980 0.8008980 0.8008980
0.8295990 0.8295990 0.8295990
0.8583000 0.8583000 0.8583000
0.8870010 0.8870010 0.8870010
0.9157020 0.9157020 0.9157020
0.9444030 0.9444030 0.9444030
0.9731040 0.9731040 0.9731040
1.0000000 1.0000000 1.0000000
1.0000000 1.0000000 1.0000000
0.0382290 0.0382290 0.0382290
0.0669300 0.0669300 0.0669300
0.0956310 0.0956310 0.0956310
0.1243320 0.1243320 0.1243320
0.1530330 0.1530330 0.1530330
0.1817340 0.1817340 0.1817340
0.2104350 0.2104350 0.2104350
0.2391360 0.2391360 0.2391360
0.2678370 0.2678370 0.2678370
0.1347810 0.1347810 0.1347810
0.1634820 0.1634820 0.1634820
0.1921830 0.1921830 0.1921830
0.2208840 0.2208840 0.2208840
0.2495850 0.2495850 0.2495850
0.2782860 0.2782860 0.2782860
0.3069870 0.3069870 0.3069870
0.3356880 0.3356880 0.3356880
0.3643890 0.3643890 0.3643890
0.2313330 0.2313330 0.2313330
0.2600340 0.2600340 0.2600340
0.2887350 0.2887350 0.2887350
0.3174360 0.3174360 0.3174360
0.3461370 0.3461370 0.3461370
0.3748380 0.3748380 0.3748380
0.4035390 0.4035390 0.4035390
0.4322400 0.4322400 0.4322400
0.4609410 0.4609410 0.4609410
0.3278850 0.3278850 0.3278850
0.3565860 0.3565860 0.3565860
0.3852870 0.3852870 0.3852870
0.4139880 0.4139880 0.4139880
0.4426890 0.4426890 0.4426890
0.4713900 0.4713900 0.4713900
0.5000910 0.5000910 0.5000910
0.5287920 0.5287920 0.5287920
0.5574930 0.5574930 0.5574930
0.4244370 0.4244370 0.4244370
0.4531380 0.4531380 0.4531380
0.4818390 0.4818390 0.4818390
0.5105400 0.5105400 0.5105400
0.5392410 0.5392410 0.5392410
0.5679420 0.5679420 0.5679420
0.5966430 0.5966430 0.5966430
0.6253440 0.6253440 0.6253440
0.6540450 0.6540450 0.6540450
0.5209890 0.5209890 0.5209890
0.5496900 0.5496900 0.5496900
0.5783910 0.5783910 0.5783910
0.6070920 0.6070920 0.6070920
0.6357930 0.6357930 0.6357930
0.6644940 0.6644940 0.6644940
0.6931950 0.6931950 0.6931950
0.7218960 0.7218960 0.7218960
0.7505970 0.7505970 0.7505970
0.6175410 0.6175410 0.6175410
0.6462420 0.6462420 0.6462420
0.6749430 0.6749430 0.6749430
0.7036440 0.7036440 0.7036440
0.7323450 0.7323450 0.7323450
0.7610460 0.7610460 0.7610460
0.7897470 0.7897470 0.7897470
0.8184480 0.8184480 0.8184480
0.8471490 0.8471490 0.8471490
0.7140930 0.7140930 0.7140930
0.7427940 0.7427940 0.7427940
0.7714950 0.7714950 0.7714950
0.8001960 0.8001960 0.8001960
0.8288970 0.8288970 0.8288970
0.8575980 0.8575980 0.8575980
0.8862990 0.8862990 0.8862990
0.9150000 0.9150000 0.9150000
0.9437010 0.9437010 0.9437010
0.8106450 0.8106450 0.8106450
0.8393460 0.8393460 0.8393460
0.8680470 0.8680470 0.8680470
0.8967480 0.8967480 0.8967480
0.9254490 0.9254490 0.9254490
0.9541500 0.9541500 0.9541500
0.9828510 0.9828510 0.9828510
1.0000000 1.0000000 1.0000000
1.0000000 1.0000000 1.0000000
0.0479760 0.0479760 0.0479760
0.0766770 0.0766770 0.0766770
0.1053780 0.1053780 0.1053780
0.1340790 0.1340790 0.1340790
0.1627800 0.1627800 0.1627800
0.1914810 0.1914810 0.1914810
0.2201820 0.2201820 0.2201820
0.2488830 0.2488830 0.2488830
0.2775840 0.2775840 0.2775840
0.1445280 0.1445280 0.1445280
0.1732290 0.1732290 0.1732290
0.2019300 0.2019300 0.2019300
0.2306310 0.2306310 0.2306310
0.2593320 0.2593320 0.2593320
0.2880330 0.2880330 0.2880330
0.3167340 0.3167340 0.3167340
0.3454350 0.3454350 0.3454350
0.3741360 0.3741360 0.3741360
0.2410800 0.2410800 0.2410800
0.2697810 0.2697810 0.2697810
0.2984820 0.2984820 0.2984820
0.3271830 0.3271830 0.3271830
0.3558840 0.3558840 0.3558840
0.3845850 0.3845850 0.3845850
0.4132860 0.4132860 0.4132860
0.4419870 0.4419870 0.4419870
0.4706880 0.4706880 0.4706880
0.3376320 0.3376320 0.3376320
0.3663330 0.3663330 0.3663330
0.3950340 0.3950340 0.3950340
0.4237350 0.4237350 0.4237350
0.4524360 0.4524360 0.4524360
0.4811370 0.4811370 0.4811370
0.5098380 0.5098380 0.5098380
0.5385390 0.5385390 0.5385390
0.5672400 0.5672400 0.5672400
0.4341840 0.4341840 0.4341840
0.4628850 0.4628850 0.4628850
0.4915860 0.4915860 0.4915860
0.5202870 0.5202870 0.5202870
0.5489880 0.5489880 0.5489880
0.5776890 0.5776890 0.5776890
0.6063900 0.6063900 0.6063900
0.6350910 0.6350910 0.6350910
0.6637920 0.6637920 0.6637920
0.5307360 0.5307360 0.5307360
0.5594370 0.5594370 0.5594370
0.5881380 0.5881380 0.5881380
0.6168390 0.6168390 0.6168390
0.6455400 0.6455400 0.6455400
0.6742410 0.6742410 0.6742410
0.7029420 0.7029420 0.7029420
0.7316430 0.7316430 0.7316430
0.7603440 0.7603440 0.7603440
0.6272880 0.6272880 0.6272880
0.6559890 0.6559890 0.6559890
0.6846900 0.6846900 0.6846900
0.7133910 0.7133910 0.7133910
0.7420920 0.7420920 0.7420920
0.7707930 0.7707930 0.7707930
0.7994940 0.7994940 0.7994940
0.8281950 0.8281950 0.8281950
0.8568960 0.8568960 0.8568960
0.7238400 0.7238400 0.7238400
0.7525410 0.7525410 0.7525410
0.7812420 0.7812420 0.7812420
0.8099430 0.8099430 0.8099430
0.8386440 0.8386440 0.8386440
0.8673450 0.8673450 0.8673450
0.8960460 0.8960460 0.8960460
0.9247470 0.9247470 0.9247470
0.9534480 0.9534480 0.9534480
0.8203920 0.8203920 0.8203920
0.8490930 0.8490930 0.8490930
0.8777940 0.8777940 0.8777940
0.9064950 0.9064950 0.9064950
0.9351960 0.9351960 0.9351960
0.9638970 0.9638970 0.9638970
0.9925980 0.9925980 0.9925980
1.0000000 1.0000000 1.0000000
1.0000000 1.0000000 1.0000000
