android/app/src/main/assets/luts/Monochrome.cube
TITLE "MirrorBridge Monochrome"
# Generated by scripts/generate_luts.py with {"contrast": 1.08, "lift": 0.01, "saturation": 0.0, "temperature": 0.0}
LUT_3D_SIZE 5
DOMAIN_MIN 0.0 0.0 0.0
DOMAIN_MAX 1.0 1.0 1.0
0.0000000 0.0000000 0.0000000
0.0274020 0.0274020 0.0274020
0.0848040 0.0848040 0.0848040
0.1422060 0.1422060 0.1422060
0.1996080 0.1996080 0.1996080
0.1631040 0.1631040 0.1631040
0.2205060 0.2205060 0.2205060
0.2779080 0.2779080 0.2779080
0.3353100 0.3353100 0.3353100
0.3927120 0.3927120 0.3927120
0.3562080 0.3562080 0.3562080
0.4136100 0.4136100 0.4136100
0.4710120 0.4710120 0.4710120
0.5284140 0.5284140 0.5284140
0.5858160 0.5858160 0.5858160
0.5493120 0.5493120 0.5493120
0.6067140 0.6067140 0.6067140
0.6641160 0.6641160 0.6641160
0.7215180 0.7215180 0.7215180
0.7789200 0.7789200 0.7789200
0.7424160 0.7424160 0.7424160
0.7998180 0.7998180 0.7998180
0.8572200 0.8572200 0.8572200
0.9146220 0.9146220 0.9146220
0.9720240 0.9720240 0.9720240
0.0000000 0.0000000 0.0000000
0.0468960 0.0468960 0.0468960
0.1042980 0.1042980 0.1042980
0.1617000 0.1617000 0.1617000
0.2191020 0.2191020 0.2191020
0.1825980 0.1825980 0.1825980
0.2400000 0.2400000 0.2400000
0.2974020 0.2974020 0.2974020
0.3548040 0.3548040 0.3548040
0.4122060 0.4122060 0.4122060
0.3757020 0.3757020 0.3757020
0.4331040 0.4331040 0.4331040
0.4905060 0.4905060 0.4905060
0.5479080 0.5479080 0.5479080
0.6053100 0.6053100 0.6053100
0.5688060 0.5688060 0.5688060
0.6262080 0.6262080 0.6262080
0.6836100 0.6836100 0.6836100
0.7410120 0.7410120 0.7410120
0.7984140 0.7984140 0.7984140
0.7619100 0.7619100 0.7619100
0.8193120 0.8193120 0.8193120
0.8767140 0.8767140 0.8767140
0.9341160 0.9341160 0.9341160
0.9915180 0.9915180 0.9915180
0.0089880 0.0089880 0.0089880
0.0663900 0.0663900 0.0663900
0.1237920 0.1237920 0.1237920
0.1811940 0.1811940 0.1811940
0.2385960 0.2385960 0.2385960
0.2020920 0.2020920 0.2020920
0.2594940 0.2594940 0.2594940
0.3168960 0.3168960 0.3168960
0.3742980 0.3742980 0.3742980
0.4317000 0.4317000 0.4317000
0.3951960 0.3951960 0.3951960
0.4525980 0.4525980 0.4525980
0.5100000 0.5100000 0.5100000
0.5674020 0.5674020 0.5674020
0.6248040 0.6248040 0.6248040
0.5883000 0.5883000 0.5883000
0.6457020 0.6457020 0.6457020
0.7031040 0.7031040 0.7031040
0.7605060 0.7605060 0.7605060
0.8179080 0.8179080 0.8179080
0.7814040 0.7814040 0.7814040
0.8388060 0.8388060 0.8388060
0.8962080 0.8962080 0.8962080
0.9536100 0.9536100 0.9536100
1.0000000 1.0000000 1.0000000
0.0284820 0.0284820 0.0284820
0.0858840 0.0858840 0.0858840
0.1432860 0.1432860 0.1432860
0.2006880 0.2006880 0.2006880
0.2580900 0.2580900 0.2580900
0.2215860 0.2215860 0.2215860
0.2789880 0.2789880 0.2789880
0.3363900 0.3363900 0.3363900
0.3937920 0.3937920 0.3937920
0.4511940 0.4511940 0.4511940
0.4146900 0.4146900 0.4146900
0.4720920 0.4720920 0.4720920
0.5294940 0.5294940 0.5294940
0.5868960 0.5868960 0.5868960
0.6442980 0.6442980 0.6442980
0.6077940 0.6077940 0.6077940
0.6651960 0.6651960 0.6651960
0.7225980 0.7225980 0.7225980
0.7800000 0.7800000 0.7800000
0.8374020 0.8374020 0.8374020
0.8008980 0.8008980 0.8008980
0.8583000 0.8583000 0.8583000
0.9157020 0.9157020 0.9157020
0.9731040 0.9731040 0.9731040
1.0000000 1.0000000 1.0000000
0.0479760 0.0479760 0.0479760
0.1053780 0.1053780 0.1053780
0.1627800 0.1627800 0.1627800
0.2201820 0.2201820 0.2201820
0.2775840 0.2775840 0.2775840
0.2410800 0.2410800 0.2410800
0.2984820 0.2984820 0.2984820
0.3558840 0.3558840 0.3558840
0.4132860 0.4132860 0.4132860
0.4706880 0.4706880 0.4706880
0.4341840 0.4341840 0.4341840
0.4915860 0.4915860 0.4915860
0.5489880 0.5489880 0.5489880
0.6063900 0.6063900 0.6063900
0.6637920 0.6637920 0.6637920
0.6272880 0.6272880 0.6272880
0.6846900 0.6846900 0.6846900
0.7420920 0.7420920 0.7420920
0.7994940 0.7994940 0.7994940
0.8568960 0.8568960 0.8568960
0.8203920 0.8203920 0.8203920
0.8777940 0.8777940 0.8777940
0.9351960 0.9351960 0.9351960
0.9925980 0.9925980 0.9925980
1.0000000 1.0000000 1.0000000
