android/app/src/main/assets/luts/Monochrome.cube
TITLE "MirrorBridge Monochrome"
# Generated by scripts/generate_luts.py with {"contrast": 1.08, "lift": 0.01, "saturation": 0.0, "temperature": 0.0}
LUT_3D_SIZE 17
DOMAIN_MIN 0.0 0.0 0.0
DOMAIN_MAX 1.0 1.0 1.0
0.0000000 0.0000000 0.0000000
0.0000000 0.0000000 0.0000000
0.0000000 0.0000000 0.0000000
0.0130515 0.0130515 0.0130515
0.0274020 0.0274020 0.0274020
0.0417525 0.0417525 0.0417525
0.0561030 0.0561030 0.0561030
0.0704535 0.0704535 0.0704535
0.0848040 0.0848040 0.0848040
0.0991545 0.0991545 0.0991545
0.1135050 0.1135050 0.1135050
0.1278555 0.1278555 0.1278555
0.1422060 0.1422060 0.1422060
0.1565565 0.1565565 0.1565565
0.1709070 0.1709070 0.1709070
0.1852575 0.1852575 0.1852575
0.1996080 0.1996080 0.1996080
0.0182760 0.0182760 0.0182760
0.0326265 0.0326265 0.0326265
0.0469770 0.0469770 0.0469770
0.0613275 0.0613275 0.0613275
0.0756780 0.0756780 0.0756780
0.0900285 0.0900285 0.0900285
0.1043790 0.1043790 0.1043790
0.1187295 0.1187295 0.1187295
0.1330800 0.1330800 0.1330800
0.1474305 0.1474305 0.1474305
0.1617810 0.1617810 0.1617810
0.1761315 0.1761315 0.1761315
0.1904820 0.1904820 0.1904820
0.2048325 0.2048325 0.2048325
0.2191830 0.2191830 0.2191830
0.2335335 0.2335335 0.2335335
0.2478840 0.2478840 0.2478840
0.0665520 0.0665520 0.0665520
0.0809025 0.0809025 0.0809025
0.0952530 0.0952530 0.0952530
0.1096035 0.1096035 0.1096035
0.1239540 0.1239540 0.1239540
0.1383045 0.1383045 0.1383045
0.1526550 0.1526550 0.1526550
0.1670055 0.1670055 0.1670055
0.1813560 0.1813560 0.1813560
0.1957065 0.1957065 0.1957065
0.2100570 0.2100570 0.2100570
0.2244075 0.2244075 0.2244075
0.2387580 0.2387580 0.2387580
0.2531085 0.2531085 0.2531085
0.2674590 0.2674590 0.2674590
0.2818095 0.2818095 0.2818095
0.2961600 0.2961600 0.2961600
0.1148280 0.1148280 0.1148280
0.1291785 0.1291785 0.1291785
0.1435290 0.1435290 0.1435290
0.1578795 0.1578795 0.1578795
0.1722300 0.1722300 0.1722300
0.1865805 0.1865805 0.1865805
0.2009310 0.2009310 0.2009310
0.2152815 0.2152815 0.2152815
0.2296320 0.2296320 0.2296320
0.2439825 0.2439825 0.2439825
0.2583330 0.2583330 0.2583330
0.2726835 0.2726835 0.2726835
0.2870340 0.2870340 0.2870340
0.3013845 0.3013845 0.3013845
0.3157350 0.3157350 0.3157350
0.3300855 0.3300855 0.3300855
0.3444360 0.3444360 0.3444360
0.1631040 0.1631040 0.1631040
0.1774545 0.1774545 0.1774545
0.1918050 0.1918050 0.1918050
0.2061555 0.2061555 0.2061555
0.2205060 0.2205060 0.2205060
0.2348565 0.2348565 0.2348565
0.2492070 0.2492070 0.2492070
0.2635575 0.2635575 0.2635575
0.2779080 0.2779080 0.2779080
0.2922585 0.2922585 0.2922585
0.3066090 0.3066090 0.3066090
0.3209595 0.3209595 0.3209595
0.3353100 0.3353100 0.3353100
0.3496605 0.3496605 0.3496605
0.3640110 0.3640110 0.3640110
0.3783615 0.3783615 0.3783615
0.3927120 0.3927120 0.3927120
0.2113800 0.2113800 0.2113800
0.2257305 0.2257305 0.2257305
0.2400810 0.2400810 0.2400810
0.2544315 0.2544315 0.2544315
0.2687820 0.2687820 0.2687820
0.2831325 0.2831325 0.2831325
0.2974830 0.2974830 0.2974830
0.3118335 0.3118335 0.3118335
0.3261840 0.3261840 0.3261840
0.3405345 0.3405345 0.3405345
0.3548850 0.3548850 0.3548850
0.3692355 0.3692355 0.3692355
0.3835860 0.3835860 0.3835860
0.3979365 0.3979365 0.3979365
0.4122870 0.4122870 0.4122870
0.4266375 0.4266375 0.4266375
0.4409880 0.4409880 0.4409880
0.2596560 0.2596560 0.2596560
0.2740065 0.2740065 0.2740065
0.2883570 0.2883570 0.2883570
0.3027075 0.3027075 0.3027075
0.3170580 0.3170580 0.3170580
0.3314085 0.3314085 0.3314085
0.3457590 0.3457590 0.3457590
0.3601095 0.3601095 0.3601095
0.3744600 0.3744600 0.3744600
0.3888105 0.3888105 0.3888105
0.4031610 0.4031610 0.4031610
0.4175115 0.4175115 0.4175115
0.4318620 0.4318620 0.4318620
0.4462125 0.4462125 0.4462125
0.4605630 0.4605630 0.4605630
0.4749135 0.4749135 0.4749135
0.4892640 0.4892640 0.4892640
0.3079320 0.3079320 0.3079320
0.3222825 0.3222825 0.3222825
0.3366330 0.3366330 0.3366330
0.3509835 0.3509835 0.3509835
0.3653340 0.3653340 0.3653340
0.3796845 0.3796845 0.3796845
0.3940350 0.3940350 0.3940350
0.4083855 0.4083855 0.4083855
0.4227360 0.4227360 0.4227360
0.4370865 0.4370865 0.4370865
0.4514370 0.4514370 0.4514370
0.4657875 0.4657875 0.4657875
0.4801380 0.4801380 0.4801380
0.4944885 0.4944885 0.4944885
0.5088390 0.5088390 0.5088390
0.5231895 0.5231895 0.5231895
0.5375400 0.5375400 0.5375400
0.3562080 0.3562080 0.3562080
0.3705585 0.3705585 0.3705585
0.3849090 0.3849090 0.3849090
0.3992595 0.3992595 0.3992595
0.4136100 0.4136100 0.4136100
0.4279605 0.4279605 0.4279605
0.4423110 0.4423110 0.4423110
0.4566615 0.4566615 0.4566615
0.4710120 0.4710120 0.4710120
0.4853625 0.4853625 0.4853625
0.4997130 0.4997130 0.4997130
0.5140635 0.5140635 0.5140635
0.5284140 0.5284140 0.5284140
0.5427645 0.5427645 0.5427645
0.5571150 0.5571150 0.5571150
0.5714655 0.5714655 0.5714655
0.5858160 0.5858160 0.5858160
0.4044840 0.4044840 0.4044840
0.4188345 0.4188345 0.4188345
0.4331850 0.4331850 0.4331850
0.4475355 0.4475355 0.4475355
0.4618860 0.4618860 0.4618860
0.4762365 0.4762365 0.4762365
0.4905870 0.4905870 0.4905870
0.5049375 0.5049375 0.5049375
0.5192880 0.5192880 0.5192880
0.5336385 0.5336385 0.5336385
0.5479890 0.5479890 0.5479890
0.5623395 0.5623395 0.5623395
0.5766900 0.5766900 0.5766900
0.5910405 0.5910405 0.5910405
0.6053910 0.6053910 0.6053910
0.6197415 0.6197415 0.6197415
0.6340920 0.6340920 0.6340920
0.4527600 0.4527600 0.4527600
0.4671105 0.4671105 0.4671105
0.4814610 0.4814610 0.4814610
0.4958115 0.4958115 0.4958115
0.5101620 0.5101620 0.5101620
0.5245125 0.5245125 0.5245125
0.5388630 0.5388630 0.5388630
0.5532135 0.5532135 0.5532135
0.5675640 0.5675640 0.5675640
0.5819145 0.5819145 0.5819145
0.5962650 0.5962650 0.5962650
0.6106155 0.6106155 0.6106155
0.6249660 0.6249660 0.6249660
0.6393165 0.6393165 0.6393165
0.6536670 0.6536670 0.6536670
0.6680175 0.6680175 0.6680175
0.6823680 0.6823680 0.6823680
0.5010360 0.5010360 0.5010360
0.5153865 0.5153865 0.5153865
0.5297370 0.5297370 0.5297370
0.5440875 0.5440875 0.5440875
0.5584380 0.5584380 0.5584380
0.5727885 0.5727885 0.5727885
0.5871390 0.5871390 0.5871390
0.6014895 0.6014895 0.6014895
0.6158400 0.6158400 0.6158400
0.6301905 0.6301905 0.6301905
0.6445410 0.6445410 0.6445410
0.6588915 0.6588915 0.6588915
0.6732420 0.6732420 0.6732420
0.6875925 0.6875925 0.6875925
0.7019430 0.7019430 0.7019430
0.7162935 0.7162935 0.7162935
0.7306440 0.7306440 0.7306440
0.5493120 0.5493120 0.5493120
0.5636625 0.5636625 0.5636625
0.5780130 0.5780130 0.5780130
0.5923635 0.5923635 0.5923635
0.6067140 0.6067140 0.6067140
0.6210645 0.6210645 0.6210645
0.6354150 0.6354150 0.6354150
0.6497655 0.6497655 0.6497655
0.6641160 0.6641160 0.6641160
0.6784665 0.6784665 0.6784665
0.6928170 0.6928170 0.6928170
0.7071675 0.7071675 0.7071675
0.7215180 0.7215180 0.7215180
0.7358685 0.7358685 0.7358685
0.7502190 0.7502190 0.7502190
0.7645695 0.7645695 0.7645695
0.7789200 0.7789200 0.7789200
0.5975880 0.5975880 0.5975880
0.6119385 0.6119385 0.6119385
0.6262890 0.6262890 0.6262890
0.6406395 0.6406395 0.6406395
0.6549900 0.6549900 0.6549900
0.6693405 0.6693405 0.6693405
0.6836910 0.6836910 0.6836910
0.6980415 0.6980415 0.6980415
0.7123920 0.7123920 0.7123920
0.7267425 0.7267425 0.7267425
0.7410930 0.7410930 0.7410930
0.7554435 0.7554435 0.7554435
0.7697940 0.7697940 0.7697940
0.7841445 0.7841445 0.7841445
0.7984950 0.7984950 0.7984950
0.8128455 0.8128455 0.8128455
0.8271960 0.8271960 0.8271960
0.6458640 0.6458640 0.6458640
0.6602145 0.6602145 0.6602145
0.6745650 0.6745650 0.6745650
0.6889155 0.6889155 0.6889155
0.7032660 0.7032660 0.7032660
0.7176165 0.7176165 0.7176165
0.7319670 0.7319670 0.7319670
0.7463175 0.7463175 0.7463175
0.7606680 0.7606680 0.7606680
0.7750185 0.7750185 0.7750185
0.7893690 0.7893690 0.7893690
0.8037195 0.8037195 0.8037195
0.8180700 0.8180700 0.8180700
0.8324205 0.8324205 0.8324205
0.8467710 0.8467710 0.8467710
0.8611215 0.8611215 0.8611215
0.8754720 0.8754720 0.8754720
0.6941400 0.6941400 0.6941400
0.7084905 0.7084905 0.7084905
0.7228410 0.7228410 0.7228410
0.7371915 0.7371915 0.7371915
0.7515420 0.7515420 0.7515420
0.7658925 0.7658925 0.7658925
0.7802430 0.7802430 0.7802430
0.7945935 0.7945935 0.7945935
0.8089440 0.8089440 0.8089440
0.8232945 0.8232945 0.8232945
0.8376450 0.8376450 0.8376450
0.8519955 0.8519955 0.8519955
0.8663460 0.8663460 0.8663460
0.8806965 0.8806965 0.8806965
0.8950470 0.8950470 0.8950470
0.9093975 0.9093975 0.9093975
0.9237480 0.9237480 0.9237480
0.7424160 0.7424160 0.7424160
0.7567665 0.7567665 0.7567665
0.7711170 0.7711170 0.7711170
0.7854675 0.7854675 0.7854675
0.7998180 0.7998180 0.7998180
0.8141685 0.8141685 0.8141685
0.8285190 0.8285190 0.8285190
0.8428695 0.8428695 0.8428695
0.8572200 0.8572200 0.8572200
0.8715705 0.8715705 0.8715705
0.8859210 0.8859210 0.8859210
0.9002715 0.9002715 0.9002715
0.9146220 0.9146220 0.9146220
0.9289725 0.9289725 0.9289725
0.9433230 0.9433230 0.9433230
0.9576735 0.9576735 0.9576735
0.9720240 0.9720240 0.9720240
0.0000000 0.0000000 0.0000000
0.0000000 0.0000000 0.0000000
0.0035745 0.0035745 0.0035745
0.0179250 0.0179250 0.0179250
0.0322755 0.0322755 0.0322755
0.0466260 0.0466260 0.0466260
0.0609765 0.0609765 0.0609765
0.0753270 0.0753270 0.0753270
0.0896775 0.0896775 0.0896775
0.1040280 0.1040280 0.1040280
0.1183785 0.1183785 0.1183785
0.1327290 0.1327290 0.1327290
0.1470795 0.1470795 0.1470795
0.1614300 0.1614300 0.1614300
0.1757805 0.1757805 0.1757805
0.1901310 0.1901310 0.1901310
0.2044815 0.2044815 0.2044815
0.0231495 0.0231495 0.0231495
0.0375000 0.0375000 0.0375000
0.0518505 0.0518505 0.0518505
0.0662010 0.0662010 0.0662010
0.0805515 0.0805515 0.0805515
0.0949020 0.0949020 0.0949020
0.1092525 0.1092525 0.1092525
0.1236030 0.1236030 0.1236030
0.1379535 0.1379535 0.1379535
0.1523040 0.1523040 0.1523040
0.1666545 0.1666545 0.1666545
0.1810050 0.1810050 0.1810050
0.1953555 0.1953555 0.1953555
0.2097060 0.2097060 0.2097060
0.2240565 0.2240565 0.2240565
0.2384070 0.2384070 0.2384070
0.2527575 0.2527575 0.2527575
0.0714255 0.0714255 0.0714255
0.0857760 0.0857760 0.0857760
0.1001265 0.1001265 0.1001265
0.1144770 0.1144770 0.1144770
0.1288275 0.1288275 0.1288275
0.1431780 0.1431780 0.1431780
0.1575285 0.1575285 0.1575285
0.1718790 0.1718790 0.1718790
0.1862295 0.1862295 0.1862295
0.2005800 0.2005800 0.2005800
0.2149305 0.2149305 0.2149305
0.2292810 0.2292810 0.2292810
0.2436315 0.2436315 0.2436315
0.2579820 0.2579820 0.2579820
0.2723325 0.2723325 0.2723325
0.2866830 0.2866830 0.2866830
0.3010335 0.3010335 0.3010335
0.1197015 0.1197015 0.1197015
0.1340520 0.1340520 0.1340520
0.1484025 0.1484025 0.1484025
0.1627530 0.1627530 0.1627530
0.1771035 0.1771035 0.1771035
0.1914540 0.1914540 0.1914540
0.2058045 0.2058045 0.2058045
0.2201550 0.2201550 0.2201550
0.2345055 0.2345055 0.2345055
0.2488560 0.2488560 0.2488560
0.2632065 0.2632065 0.2632065
0.2775570 0.2775570 0.2775570
0.2919075 0.2919075 0.2919075
0.3062580 0.3062580 0.3062580
0.3206085 0.3206085 0.3206085
0.3349590 0.3349590 0.3349590
0.3493095 0.3493095 0.3493095
0.1679775 0.1679775 0.1679775
0.1823280 0.1823280 0.1823280
0.1966785 0.1966785 0.1966785
0.2110290 0.2110290 0.2110290
0.2253795 0.2253795 0.2253795
0.2397300 0.2397300 0.2397300
0.2540805 0.2540805 0.2540805
0.2684310 0.2684310 0.2684310
0.2827815 0.2827815 0.2827815
0.2971320 0.2971320 0.2971320
0.3114825 0.3114825 0.3114825
0.3258330 0.3258330 0.3258330
0.3401835 0.3401835 0.3401835
0.3545340 0.3545340 0.3545340
0.3688845 0.3688845 0.3688845
0.3832350 0.3832350 0.3832350
0.3975855 0.3975855 0.3975855
0.2162535 0.2162535 0.2162535
0.2306040 0.2306040 0.2306040
0.2449545 0.2449545 0.2449545
0.2593050 0.2593050 0.2593050
0.2736555 0.2736555 0.2736555
0.2880060 0.2880060 0.2880060
0.3023565 0.3023565 0.3023565
0.3167070 0.3167070 0.3167070
0.3310575 0.3310575 0.3310575
0.3454080 0.3454080 0.3454080
0.3597585 0.3597585 0.3597585
0.3741090 0.3741090 0.3741090
0.3884595 0.3884595 0.3884595
0.4028100 0.4028100 0.4028100
0.4171605 0.4171605 0.4171605
0.4315110 0.4315110 0.4315110
0.4458615 0.4458615 0.4458615
0.2645295 0.2645295 0.2645295
0.2788800 0.2788800 0.2788800
0.2932305 0.2932305 0.2932305
0.3075810 0.3075810 0.3075810
0.3219315 0.3219315 0.3219315
0.3362820 0.3362820 0.3362820
0.3506325 0.3506325 0.3506325
0.3649830 0.3649830 0.3649830
0.3793335 0.3793335 0.3793335
0.3936840 0.3936840 0.3936840
0.4080345 0.4080345 0.4080345
0.4223850 0.4223850 0.4223850
0.4367355 0.4367355 0.4367355
0.4510860 0.4510860 0.4510860
0.4654365 0.4654365 0.4654365
0.4797870 0.4797870 0.4797870
0.4941375 0.4941375 0.4941375
0.3128055 0.3128055 0.3128055
0.3271560 0.3271560 0.3271560
0.3415065 0.3415065 0.3415065
0.3558570 0.3558570 0.3558570
0.3702075 0.3702075 0.3702075
0.3845580 0.3845580 0.3845580
0.3989085 0.3989085 0.3989085
0.4132590 0.4132590 0.4132590
0.4276095 0.4276095 0.4276095
0.4419600 0.4419600 0.4419600
0.4563105 0.4563105 0.4563105
0.4706610 0.4706610 0.4706610
0.4850115 0.4850115 0.4850115
0.4993620 0.4993620 0.4993620
0.5137125 0.5137125 0.5137125
0.5280630 0.5280630 0.5280630
0.5424135 0.5424135 0.5424135
0.3610815 0.3610815 0.3610815
0.3754320 0.3754320 0.3754320
0.3897825 0.3897825 0.3897825
0.4041330 0.4041330 0.4041330
0.4184835 0.4184835 0.4184835
0.4328340 0.4328340 0.4328340
0.4471845 0.4471845 0.4471845
0.4615350 0.4615350 0.4615350
0.4758855 0.4758855 0.4758855
0.4902360 0.4902360 0.4902360
0.5045865 0.5045865 0.5045865
0.5189370 0.5189370 0.5189370
0.5332875 0.5332875 0.5332875
0.5476380 0.5476380 0.5476380
0.5619885 0.5619885 0.5619885
0.5763390 0.5763390 0.5763390
0.5906895 0.5906895 0.5906895
0.4093575 0.4093575 0.4093575
0.4237080 0.4237080 0.4237080
0.4380585 0.4380585 0.4380585
0.4524090 0.4524090 0.4524090
0.4667595 0.4667595 0.4667595
0.4811100 0.4811100 0.4811100
0.4954605 0.4954605 0.4954605
0.5098110 0.5098110 0.5098110
0.5241615 0.5241615 0.5241615
0.5385120 0.5385120 0.5385120
0.5528625 0.5528625 0.5528625
0.5672130 0.5672130 0.5672130
0.5815635 0.5815635 0.5815635
0.5959140 0.5959140 0.5959140
0.6102645 0.6102645 0.6102645
0.6246150 0.6246150 0.6246150
0.6389655 0.6389655 0.6389655
0.4576335 0.4576335 0.4576335
0.4719840 0.4719840 0.4719840
0.4863345 0.4863345 0.4863345
0.5006850 0.5006850 0.5006850
0.5150355 0.5150355 0.5150355
0.5293860 0.5293860 0.5293860
0.5437365 0.5437365 0.5437365
0.5580870 0.5580870 0.5580870
0.5724375 0.5724375 0.5724375
0.5867880 0.5867880 0.5867880
0.6011385 0.6011385 0.6011385
0.6154890 0.6154890 0.6154890
0.6298395 0.6298395 0.6298395
0.6441900 0.6441900 0.6441900
0.6585405 0.6585405 0.6585405
0.6728910 0.6728910 0.6728910
0.6872415 0.6872415 0.6872415
0.5059095 0.5059095 0.5059095
0.5202600 0.5202600 0.5202600
0.5346105 0.5346105 0.5346105
0.5489610 0.5489610 0.5489610
0.5633115 0.5633115 0.5633115
0.5776620 0.5776620 0.5776620
0.5920125 0.5920125 0.5920125
0.6063630 0.6063630 0.6063630
0.6207135 0.6207135 0.6207135
0.6350640 0.6350640 0.6350640
0.6494145 0.6494145 0.6494145
0.6637650 0.6637650 0.6637650
0.6781155 0.6781155 0.6781155
0.6924660 0.6924660 0.6924660
0.7068165 0.7068165 0.7068165
0.7211670 0.7211670 0.7211670
0.7355175 0.7355175 0.7355175
0.5541855 0.5541855 0.5541855
0.5685360 0.5685360 0.5685360
0.5828865 0.5828865 0.5828865
0.5972370 0.5972370 0.5972370
0.6115875 0.6115875 0.6115875
0.6259380 0.6259380 0.6259380
0.6402885 0.6402885 0.6402885
0.6546390 0.6546390 0.6546390
0.6689895 0.6689895 0.6689895
0.6833400 0.6833400 0.6833400
0.6976905 0.6976905 0.6976905
0.7120410 0.7120410 0.7120410
0.7263915 0.7263915 0.7263915
0.7407420 0.7407420 0.7407420
0.7550925 0.7550925 0.7550925
0.7694430 0.7694430 0.7694430
0.7837935 0.7837935 0.7837935
0.6024615 0.6024615 0.6024615
0.6168120 0.6168120 0.6168120
0.6311625 0.6311625 0.6311625
0.6455130 0.6455130 0.6455130
0.6598635 0.6598635 0.6598635
0.6742140 0.6742140 0.6742140
0.6885645 0.6885645 0.6885645
0.7029150 0.7029150 0.7029150
0.7172655 0.7172655 0.7172655
0.7316160 0.7316160 0.7316160
0.7459665 0.7459665 0.7459665
0.7603170 0.7603170 0.7603170
0.7746675 0.7746675 0.7746675
0.7890180 0.7890180 0.7890180
0.8033685 0.8033685 0.8033685
0.8177190 0.8177190 0.8177190
0.8320695 0.8320695 0.8320695
0.6507375 0.6507375 0.6507375
0.6650880 0.6650880 0.6650880
0.6794385 0.6794385 0.6794385
0.6937890 0.6937890 0.6937890
0.7081395 0.7081395 0.7081395
0.7224900 0.7224900 0.7224900
0.7368405 0.7368405 0.7368405
0.7511910 0.7511910 0.7511910
0.7655415 0.7655415 0.7655415
0.7798920 0.7798920 0.7798920
0.7942425 0.7942425 0.7942425
0.8085930 0.8085930 0.8085930
0.8229435 0.8229435 0.8229435
0.8372940 0.8372940 0.8372940
0.8516445 0.8516445 0.8516445
0.8659950 0.8659950 0.8659950
0.8803455 0.8803455 0.8803455
0.6990135 0.6990135 0.6990135
0.7133640 0.7133640 0.7133640
0.7277145 0.7277145 0.7277145
0.7420650 0.7420650 0.7420650
0.7564155 0.7564155 0.7564155
0.7707660 0.7707660 0.7707660
0.7851165 0.7851165 0.7851165
0.7994670 0.7994670 0.7994670
0.8138175 0.8138175 0.8138175
0.8281680 0.8281680 0.8281680
0.8425185 0.8425185 0.8425185
0.8568690 0.8568690 0.8568690
0.8712195 0.8712195 0.8712195
0.8855700 0.8855700 0.8855700
0.8999205 0.8999205 0.8999205
0.9142710 0.9142710 0.9142710
0.9286215 0.9286215 0.9286215
0.7472895 0.7472895 0.7472895
0.7616400 0.7616400 0.7616400
0.7759905 0.7759905 0.7759905
0.7903410 0.7903410 0.7903410
0.8046915 0.8046915 0.8046915
0.8190420 0.8190420 0.8190420
0.8333925 0.8333925 0.8333925
0.8477430 0.8477430 0.8477430
0.8620935 0.8620935 0.8620935
0.8764440 0.8764440 0.8764440
0.8907945 0.8907945 0.8907945
0.9051450 0.9051450 0.9051450
0.9194955 0.9194955 0.9194955
0.9338460 0.9338460 0.9338460
0.9481965 0.9481965 0.9481965
0.9625470 0.9625470 0.9625470
0.9768975 0.9768975 0.9768975
0.0000000 0.0000000 0.0000000
0.0000000 0.0000000 0.0000000
0.0084480 0.0084480 0.0084480
0.0227985 0.0227985 0.0227985
0.0371490 0.0371490 0.0371490
0.0514995 0.0514995 0.0514995
0.0658500 0.0658500 0.0658500
0.0802005 0.0802005 0.0802005
0.0945510 0.0945510 0.0945510
0.1089015 0.1089015 0.1089015
0.1232520 0.1232520 0.1232520
0.1376025 0.1376025 0.1376025
0.1519530 0.1519530 0.1519530
0.1663035 0.1663035 0.1663035
0.1806540 0.1806540 0.1806540
0.1950045 0.1950045 0.1950045
0.2093550 0.2093550 0.2093550
0.0280230 0.0280230 0.0280230
0.0423735 0.0423735 0.0423735
0.0567240 0.0567240 0.0567240
0.0710745 0.0710745 0.0710745
0.0854250 0.0854250 0.0854250
0.0997755 0.0997755 0.0997755
0.1141260 0.1141260 0.1141260
0.1284765 0.1284765 0.1284765
0.1428270 0.1428270 0.1428270
0.1571775 0.1571775 0.1571775
0.1715280 0.1715280 0.1715280
0.1858785 0.1858785 0.1858785
0.2002290 0.2002290 0.2002290
0.2145795 0.2145795 0.2145795
0.2289300 0.2289300 0.2289300
0.2432805 0.2432805 0.2432805
0.2576310 0.2576310 0.2576310
0.0762990 0.0762990 0.0762990
0.0906495 0.0906495 0.0906495
0.1050000 0.1050000 0.1050000
0.1193505 0.1193505 0.1193505
0.1337010 0.1337010 0.1337010
0.1480515 0.1480515 0.1480515
0.1624020 0.1624020 0.1624020
0.1767525 0.1767525 0.1767525
0.1911030 0.1911030 0.1911030
0.2054535 0.2054535 0.2054535
0.2198040 0.2198040 0.2198040
0.2341545 0.2341545 0.2341545
0.2485050 0.2485050 0.2485050
0.2628555 0.2628555 0.2628555
0.2772060 0.2772060 0.2772060
0.2915565 0.2915565 0.2915565
0.3059070 0.3059070 0.3059070
0.1245750 0.1245750 0.1245750
0.1389255 0.1389255 0.1389255
0.1532760 0.1532760 0.1532760
0.1676265 0.1676265 0.1676265
0.1819770 0.1819770 0.1819770
0.1963275 0.1963275 0.1963275
0.2106780 0.2106780 0.2106780
0.2250285 0.2250285 0.2250285
0.2393790 0.2393790 0.2393790
0.2537295 0.2537295 0.2537295
0.2680800 0.2680800 0.2680800
0.2824305 0.2824305 0.2824305
0.2967810 0.2967810 0.2967810
0.3111315 0.3111315 0.3111315
0.3254820 0.3254820 0.3254820
0.3398325 0.3398325 0.3398325
0.3541830 0.3541830 0.3541830
0.1728510 0.1728510 0.1728510
0.1872015 0.1872015 0.1872015
0.2015520 0.2015520 0.2015520
0.2159025 0.2159025 0.2159025
0.2302530 0.2302530 0.2302530
0.2446035 0.2446035 0.2446035
0.2589540 0.2589540 0.2589540
0.2733045 0.2733045 0.2733045
0.2876550 0.2876550 0.2876550
0.3020055 0.3020055 0.3020055
0.3163560 0.3163560 0.3163560
0.3307065 0.3307065 0.3307065
0.3450570 0.3450570 0.3450570
0.3594075 0.3594075 0.3594075
0.3737580 0.3737580 0.3737580
0.3881085 0.3881085 0.3881085
0.4024590 0.4024590 0.4024590
0.2211270 0.2211270 0.2211270
0.2354775 0.2354775 0.2354775
0.2498280 0.2498280 0.2498280
0.2641785 0.2641785 0.2641785
0.2785290 0.2785290 0.2785290
0.2928795 0.2928795 0.2928795
0.3072300 0.3072300 0.3072300
0.3215805 0.3215805 0.3215805
0.3359310 0.3359310 0.3359310
0.3502815 0.3502815 0.3502815
0.3646320 0.3646320 0.3646320
0.3789825 0.3789825 0.3789825
0.3933330 0.3933330 0.3933330
0.4076835 0.4076835 0.4076835
0.4220340 0.4220340 0.4220340
0.4363845 0.4363845 0.4363845
0.4507350 0.4507350 0.4507350
0.2694030 0.2694030 0.2694030
0.2837535 0.2837535 0.2837535
0.2981040 0.2981040 0.2981040
0.3124545 0.3124545 0.3124545
0.3268050 0.3268050 0.3268050
0.3411555 0.3411555 0.3411555
0.3555060 0.3555060 0.3555060
0.3698565 0.3698565 0.3698565
0.3842070 0.3842070 0.3842070
0.3985575 0.3985575 0.3985575
0.4129080 0.4129080 0.4129080
0.4272585 0.4272585 0.4272585
0.4416090 0.4416090 0.4416090
0.4559595 0.4559595 0.4559595
0.4703100 0.4703100 0.4703100
0.4846605 0.4846605 0.4846605
0.4990110 0.4990110 0.4990110
0.3176790 0.3176790 0.3176790
0.3320295 0.3320295 0.3320295
0.3463800 0.3463800 0.3463800
0.3607305 0.3607305 0.3607305
0.3750810 0.3750810 0.3750810
0.3894315 0.3894315 0.3894315
0.4037820 0.4037820 0.4037820
0.4181325 0.4181325 0.4181325
0.4324830 0.4324830 0.4324830
0.4468335 0.4468335 0.4468335
0.4611840 0.4611840 0.4611840
0.4755345 0.4755345 0.4755345
0.4898850 0.4898850 0.4898850
0.5042355 0.5042355 0.5042355
0.5185860 0.5185860 0.5185860
0.5329365 0.5329365 0.5329365
0.5472870 0.5472870 0.5472870
0.3659550 0.3659550 0.3659550
0.3803055 0.3803055 0.3803055
0.3946560 0.3946560 0.3946560
0.4090065 0.4090065 0.4090065
0.4233570 0.4233570 0.4233570
0.4377075 0.4377075 0.4377075
0.4520580 0.4520580 0.4520580
0.4664085 0.4664085 0.4664085
0.4807590 0.4807590 0.4807590
0.4951095 0.4951095 0.4951095
0.5094600 0.5094600 0.5094600
0.5238105 0.5238105 0.5238105
0.5381610 0.5381610 0.5381610
0.5525115 0.5525115 0.5525115
0.5668620 0.5668620 0.5668620
0.5812125 0.5812125 0.5812125
0.5955630 0.5955630 0.5955630
0.4142310 0.4142310 0.4142310
0.4285815 0.4285815 0.4285815
0.4429320 0.4429320 0.4429320
0.4572825 0.4572825 0.4572825
0.4716330 0.4716330 0.4716330
0.4859835 0.4859835 0.4859835
0.5003340 0.5003340 0.5003340
0.5146845 0.5146845 0.5146845
0.5290350 0.5290350 0.5290350
0.5433855 0.5433855 0.5433855
0.5577360 0.5577360 0.5577360
0.5720865 0.5720865 0.5720865
0.5864370 0.5864370 0.5864370
0.6007875 0.6007875 0.6007875
0.6151380 0.6151380 0.6151380
0.6294885 0.6294885 0.6294885
0.6438390 0.6438390 0.6438390
0.4625070 0.4625070 0.4625070
0.4768575 0.4768575 0.4768575
0.4912080 0.4912080 0.4912080
0.5055585 0.5055585 0.5055585
0.5199090 0.5199090 0.5199090
0.5342595 0.5342595 0.5342595
0.5486100 0.5486100 0.5486100
0.5629605 0.5629605 0.5629605
0.5773110 0.5773110 0.5773110
0.5916615 0.5916615 0.5916615
0.6060120 0.6060120 0.6060120
0.6203625 0.6203625 0.6203625
0.6347130 0.6347130 0.6347130
0.6490635 0.6490635 0.6490635
0.6634140 0.6634140 0.6634140
0.6777645 0.6777645 0.6777645
0.6921150 0.6921150 0.6921150
0.5107830 0.5107830 0.5107830
0.5251335 0.5251335 0.5251335
0.5394840 0.5394840 0.5394840
0.5538345 0.5538345 0.5538345
0.5681850 0.5681850 0.5681850
0.5825355 0.5825355 0.5825355
0.5968860 0.5968860 0.5968860
0.6112365 0.6112365 0.6112365
0.6255870 0.6255870 0.6255870
0.6399375 0.6399375 0.6399375
0.6542880 0.6542880 0.6542880
0.6686385 0.6686385 0.6686385
0.6829890 0.6829890 0.6829890
0.6973395 0.6973395 0.6973395
0.7116900 0.7116900 0.7116900
0.7260405 0.7260405 0.7260405
0.7403910 0.7403910 0.7403910
0.5590590 0.5590590 0.5590590
0.5734095 0.5734095 0.5734095
0.5877600 0.5877600 0.5877600
0.6021105 0.6021105 0.6021105
0.6164610 0.6164610 0.6164610
0.6308115 0.6308115 0.6308115
0.6451620 0.6451620 0.6451620
0.6595125 0.6595125 0.6595125
0.6738630 0.6738630 0.6738630
0.6882135 0.6882135 0.6882135
0.7025640 0.7025640 0.7025640
