android/app/src/main/assets/luts/Sepia%20Print.cube
TITLE "MirrorBridge Sepia Print"
# Generated by scripts/generate_luts.py with {"contrast": 1.06, "lift": 0.02, "saturation": 0.18, "sepia": 0.72, "temperature": 0.025}
LUT_3D_SIZE 5
DOMAIN_MIN 0.0 0.0 0.0
DOMAIN_MAX 1.0 1.0 1.0
0.0000000 0.0000000 0.0000000
0.0717804 0.0469121 0.0306614
0.1463592 0.1018755 0.0757885
0.2209381 0.1568388 0.1209155
0.2955169 0.2118022 0.1660425
0.1739302 0.1647650 0.1178587
0.2485090 0.2197284 0.1629857
0.3230878 0.2746917 0.2081127
0.3976667 0.3296551 0.2532397
0.4722455 0.3846184 0.2983668
0.3506588 0.3375813 0.2501829
0.4252376 0.3925446 0.2953100
0.4998164 0.4475080 0.3404370
0.5743952 0.5024713 0.3855640
0.6489741 0.5574347 0.4306910
0.5273874 0.5103975 0.3825072
0.6019662 0.5653609 0.4276342
0.6765450 0.6203242 0.4727613
0.7511238 0.6752876 0.5178883
0.8257027 0.7302509 0.5630153
0.7041159 0.6832138 0.5148315
0.7786948 0.7381771 0.5599585
0.8532736 0.7931405 0.6050855
0.9278524 0.8481038 0.6502126
1.0000000 0.9030671 0.6953396
0.0261582 0.0177212 0.0196591
0.1007370 0.0726846 0.0647861
0.1753158 0.1276479 0.1099132
0.2498947 0.1826113 0.1550402
0.3244735 0.2375746 0.2001672
0.2028868 0.1905375 0.1519834
0.2774656 0.2455008 0.1971104
0.3520444 0.3004641 0.2422374
0.4266232 0.3554275 0.2873645
0.5012021 0.4103908 0.3324915
0.3796154 0.3633537 0.2843076
0.4541942 0.4183170 0.3294347
0.5287730 0.4732804 0.3745617
0.6033518 0.5282437 0.4196887
0.6779307 0.5832071 0.4648157
0.5563439 0.5361699 0.4166319
0.6309228 0.5911333 0.4617589
0.7055016 0.6460966 0.5068860
0.7800804 0.7010600 0.5520130
0.8546592 0.7560233 0.5971400
0.7330725 0.7089862 0.5489562
0.8076514 0.7639495 0.5940832
0.8822302 0.8189129 0.6392102
0.9568090 0.8738762 0.6843373
1.0000000 0.9288396 0.7294643
0.0551148 0.0434936 0.0537838
0.1296936 0.0984570 0.0989108
0.2042724 0.1534203 0.1440379
0.2788513 0.2083837 0.1891649
0.3534301 0.2633470 0.2342919
0.2318434 0.2163099 0.1861081
0.3064222 0.2712732 0.2312351
0.3810010 0.3262366 0.2763621
0.4555798 0.3811999 0.3214892
0.5301587 0.4361633 0.3666162
0.4085720 0.3891261 0.3184323
0.4831508 0.4440895 0.3635594
0.5577296 0.4990528 0.4086864
0.6323084 0.5540161 0.4538134
0.7068872 0.6089795 0.4989405
0.5853005 0.5619423 0.4507566
0.6598794 0.6169057 0.4958836
0.7344582 0.6718690 0.5410107
0.8090370 0.7268324 0.5861377
0.8836158 0.7817957 0.6312647
0.7620291 0.7347586 0.5830809
0.8366079 0.7897219 0.6282079
0.9111868 0.8446853 0.6733349
0.9857656 0.8996486 0.7184620
1.0000000 0.9546120 0.7635890
0.0840714 0.0692660 0.0879085
0.1586502 0.1242294 0.1330355
0.2332290 0.1791927 0.1781626
0.3078078 0.2341561 0.2232896
0.3823867 0.2891194 0.2684166
0.2608000 0.2420823 0.2202328
0.3353788 0.2970456 0.2653598
0.4099576 0.3520090 0.3104868
0.4845364 0.4069723 0.3556139
0.5591153 0.4619357 0.4007409
0.4375285 0.4148985 0.3525571
0.5121074 0.4698619 0.3976841
0.5866862 0.5248252 0.4428111
0.6612650 0.5797886 0.4879381
0.7358438 0.6347519 0.5330652
0.6142571 0.5877148 0.4848813
0.6888360 0.6426781 0.5300083
0.7634148 0.6976415 0.5751354
0.8379936 0.7526048 0.6202624
0.9125724 0.8075681 0.6653894
0.7909857 0.7605310 0.6172056
0.8655645 0.8154943 0.6623326
0.9401434 0.8704577 0.7074596
1.0000000 0.9254210 0.7525867
1.0000000 0.9803844 0.7977137
0.1130280 0.0950385 0.1220332
0.1876068 0.1500018 0.1671602
0.2621856 0.2049651 0.2122873
0.3367644 0.2599285 0.2574143
0.4113433 0.3148918 0.3025413
0.2897565 0.2678547 0.2543575
0.3643354 0.3228180 0.2994845
0.4389142 0.3777814 0.3446115
0.5134930 0.4327447 0.3897386
0.5880718 0.4877081 0.4348656
0.4664851 0.4406709 0.3866818
0.5410640 0.4956343 0.4318088
0.6156428 0.5505976 0.4769358
0.6902216 0.6055610 0.5220628
0.7648004 0.6605243 0.5671899
0.6432137 0.6134872 0.5190060
0.7177925 0.6684505 0.5641331
0.7923714 0.7234139 0.6092601
0.8669502 0.7783772 0.6543871
0.9415290 0.8333406 0.6995141
0.8199423 0.7863034 0.6513303
0.8945211 0.8412668 0.6964573
0.9691000 0.8962301 0.7415843
1.0000000 0.9511935 0.7867114
1.0000000 1.0000000 0.8318384
