android/app/src/main/assets/luts/Sepia%20Print.cube
TITLE "MirrorBridge Sepia Print"
# Generated by scripts/generate_luts.py with {"contrast": 1.06, "lift": 0.02, "saturation": 0.18, "sepia": 0.72, "temperature": 0.025}
LUT_3D_SIZE 9
DOMAIN_MIN 0.0 0.0 0.0
DOMAIN_MAX 1.0 1.0 1.0
0.0000000 0.0000000 0.0000000
0.0344910 0.0194305 0.0080979
0.0717804 0.0469121 0.0306614
0.1090698 0.0743938 0.0532249
0.1463592 0.1018755 0.0757885
0.1836487 0.1293572 0.0983520
0.2209381 0.1568388 0.1209155
0.2582275 0.1843205 0.1434790
0.2955169 0.2118022 0.1660425
0.0855659 0.0783569 0.0516965
0.1228553 0.1058386 0.0742600
0.1601447 0.1333203 0.0968236
0.1974341 0.1608019 0.1193871
0.2347235 0.1882836 0.1419506
0.2720130 0.2157653 0.1645141
0.3093024 0.2432470 0.1870776
0.3465918 0.2707286 0.2096411
0.3838812 0.2982103 0.2322046
0.1739302 0.1647650 0.1178587
0.2112196 0.1922467 0.1404222
0.2485090 0.2197284 0.1629857
0.2857984 0.2472101 0.1855492
0.3230878 0.2746917 0.2081127
0.3603772 0.3021734 0.2306762
0.3976667 0.3296551 0.2532397
0.4349561 0.3571368 0.2758033
0.4722455 0.3846184 0.2983668
0.2622945 0.2511732 0.1840208
0.2995839 0.2786548 0.2065843
0.3368733 0.3061365 0.2291478
0.3741627 0.3336182 0.2517113
0.4114521 0.3610999 0.2742749
0.4487415 0.3885815 0.2968384
0.4860310 0.4160632 0.3194019
0.5233204 0.4435449 0.3419654
0.5606098 0.4710265 0.3645289
0.3506588 0.3375813 0.2501829
0.3879482 0.3650630 0.2727464
0.4252376 0.3925446 0.2953100
0.4625270 0.4200263 0.3178735
0.4998164 0.4475080 0.3404370
0.5371058 0.4749896 0.3630005
0.5743952 0.5024713 0.3855640
0.6116847 0.5299530 0.4081275
0.6489741 0.5574347 0.4306910
0.4390231 0.4239894 0.3163451
0.4763125 0.4514711 0.3389086
0.5136019 0.4789527 0.3614721
0.5508913 0.5064344 0.3840356
0.5881807 0.5339161 0.4065991
0.6254701 0.5613978 0.4291626
0.6627595 0.5888794 0.4517261
0.7000489 0.6163611 0.4742897
0.7373384 0.6438428 0.4968532
0.5273874 0.5103975 0.3825072
0.5646768 0.5378792 0.4050707
0.6019662 0.5653609 0.4276342
0.6392556 0.5928425 0.4501977
0.6765450 0.6203242 0.4727613
0.7138344 0.6478059 0.4953248
0.7511238 0.6752876 0.5178883
0.7884132 0.7027692 0.5404518
0.8257027 0.7302509 0.5630153
0.6157517 0.5968056 0.4486693
0.6530411 0.6242873 0.4712328
0.6903305 0.6517690 0.4937964
0.7276199 0.6792507 0.5163599
0.7649093 0.7067323 0.5389234
0.8021987 0.7342140 0.5614869
0.8394881 0.7616957 0.5840504
0.8767775 0.7891774 0.6066139
0.9140669 0.8166590 0.6291774
0.7041159 0.6832138 0.5148315
0.7414054 0.7106954 0.5373950
0.7786948 0.7381771 0.5599585
0.8159842 0.7656588 0.5825220
0.8532736 0.7931405 0.6050855
0.8905630 0.8206221 0.6276490
0.9278524 0.8481038 0.6502126
0.9651418 0.8755855 0.6727761
1.0000000 0.9030671 0.6953396
0.0116799 0.0048350 0.0025968
0.0489693 0.0323167 0.0251603
0.0862587 0.0597984 0.0477238
0.1235481 0.0872800 0.0702873
0.1608375 0.1147617 0.0928508
0.1981270 0.1422434 0.1154143
0.2354164 0.1697250 0.1379778
0.2727058 0.1972067 0.1605413
0.3099952 0.2246884 0.1831049
0.1000442 0.0912431 0.0687589
0.1373336 0.1187248 0.0913224
0.1746230 0.1462065 0.1138859
0.2119124 0.1736881 0.1364494
0.2492018 0.2011698 0.1590129
0.2864912 0.2286515 0.1815765
0.3237807 0.2561332 0.2041400
0.3610701 0.2836148 0.2267035
0.3983595 0.3110965 0.2492670
0.1884085 0.1776512 0.1349210
0.2256979 0.2051329 0.1574845
0.2629873 0.2326146 0.1800480
0.3002767 0.2600963 0.2026116
0.3375661 0.2875779 0.2251751
0.3748555 0.3150596 0.2477386
0.4121450 0.3425413 0.2703021
0.4494344 0.3700230 0.2928656
0.4867238 0.3975046 0.3154291
0.2767728 0.2640594 0.2010832
0.3140622 0.2915410 0.2236467
0.3513516 0.3190227 0.2462102
0.3886410 0.3465044 0.2687737
0.4259304 0.3739861 0.2913372
0.4632198 0.4014677 0.3139007
0.5005092 0.4289494 0.3364642
0.5377987 0.4564311 0.3590277
0.5750881 0.4839128 0.3815913
0.3651371 0.3504675 0.2672453
0.4024265 0.3779492 0.2898088
0.4397159 0.4054308 0.3123723
0.4770053 0.4329125 0.3349358
0.5142947 0.4603942 0.3574993
0.5515841 0.4878759 0.3800629
0.5888735 0.5153575 0.4026264
0.6261630 0.5428392 0.4251899
0.6634524 0.5703209 0.4477534
0.4535014 0.4368756 0.3334074
0.4907908 0.4643573 0.3559709
0.5280802 0.4918390 0.3785344
0.5653696 0.5193206 0.4010980
0.6026590 0.5468023 0.4236615
0.6399484 0.5742840 0.4462250
0.6772378 0.6017656 0.4687885
0.7145272 0.6292473 0.4913520
0.7518167 0.6567290 0.5139155
0.5418657 0.5232837 0.3995696
0.5791551 0.5507654 0.4221331
0.6164445 0.5782471 0.4446966
0.6537339 0.6057287 0.4672601
0.6910233 0.6332104 0.4898236
0.7283127 0.6606921 0.5123871
0.7656021 0.6881738 0.5349506
0.8028915 0.7156554 0.5575141
0.8401809 0.7431371 0.5800777
0.6302299 0.6096918 0.4657317
0.6675194 0.6371735 0.4882952
0.7048088 0.6646552 0.5108587
0.7420982 0.6921369 0.5334222
0.7793876 0.7196185 0.5559857
0.8166770 0.7471002 0.5785493
0.8539664 0.7745819 0.6011128
0.8912558 0.8020636 0.6236763
0.9285452 0.8295452 0.6462398
0.7185942 0.6961000 0.5318938
0.7558837 0.7235816 0.5544573
0.7931731 0.7510633 0.5770208
0.8304625 0.7785450 0.5995844
0.8677519 0.8060267 0.6221479
0.9050413 0.8335083 0.6447114
0.9423307 0.8609900 0.6672749
0.9796201 0.8884717 0.6898384
1.0000000 0.9159534 0.7124019
0.0261582 0.0177212 0.0196591
0.0634476 0.0452029 0.0422226
0.1007370 0.0726846 0.0647861
0.1380264 0.1001662 0.0873496
0.1753158 0.1276479 0.1099132
0.2126052 0.1551296 0.1324767
0.2498947 0.1826113 0.1550402
0.2871841 0.2100929 0.1776037
0.3244735 0.2375746 0.2001672
0.1145225 0.1041293 0.0858212
0.1518119 0.1316110 0.1083848
0.1891013 0.1590927 0.1309483
0.2263907 0.1865744 0.1535118
0.2636801 0.2140560 0.1760753
0.3009695 0.2415377 0.1986388
0.3382590 0.2690194 0.2212023
0.3755484 0.2965010 0.2437658
0.4128378 0.3239827 0.2663293
0.2028868 0.1905375 0.1519834
0.2401762 0.2180191 0.1745469
0.2774656 0.2455008 0.1971104
0.3147550 0.2729825 0.2196739
0.3520444 0.3004641 0.2422374
0.3893338 0.3279458 0.2648009
0.4266232 0.3554275 0.2873645
0.4639127 0.3829092 0.3099280
0.5012021 0.4103908 0.3324915
0.2912511 0.2769456 0.2181455
0.3285405 0.3044272 0.2407090
0.3658299 0.3319089 0.2632725
0.4031193 0.3593906 0.2858360
0.4404087 0.3868723 0.3083996
0.4776981 0.4143539 0.3309631
0.5149875 0.4418356 0.3535266
0.5522770 0.4693173 0.3760901
0.5895664 0.4967990 0.3986536
0.3796154 0.3633537 0.2843076
0.4169048 0.3908354 0.3068712
0.4541942 0.4183170 0.3294347
0.4914836 0.4457987 0.3519982
0.5287730 0.4732804 0.3745617
0.5660624 0.5007621 0.3971252
0.6033518 0.5282437 0.4196887
0.6406412 0.5557254 0.4422522
0.6779307 0.5832071 0.4648157
0.4679797 0.4497618 0.3504698
0.5052691 0.4772435 0.3730333
0.5425585 0.5047252 0.3955968
0.5798479 0.5322068 0.4181603
0.6171373 0.5596885 0.4407238
0.6544267 0.5871702 0.4632873
0.6917161 0.6146519 0.4858509
0.7290055 0.6421335 0.5084144
0.7662950 0.6696152 0.5309779
0.5563439 0.5361699 0.4166319
0.5936334 0.5636516 0.4391954
0.6309228 0.5911333 0.4617589
0.6682122 0.6186150 0.4843224
0.7055016 0.6460966 0.5068860
0.7427910 0.6735783 0.5294495
0.7800804 0.7010600 0.5520130
0.8173698 0.7285416 0.5745765
0.8546592 0.7560233 0.5971400
0.6447082 0.6225781 0.4827940
0.6819977 0.6500597 0.5053576
0.7192871 0.6775414 0.5279211
0.7565765 0.7050231 0.5504846
0.7938659 0.7325047 0.5730481
0.8311553 0.7599864 0.5956116
0.8684447 0.7874681 0.6181751
0.9057341 0.8149498 0.6407386
0.9430235 0.8424314 0.6633021
0.7330725 0.7089862 0.5489562
0.7703619 0.7364678 0.5715197
0.8076514 0.7639495 0.5940832
0.8449408 0.7914312 0.6166467
0.8822302 0.8189129 0.6392102
0.9195196 0.8463945 0.6617737
0.9568090 0.8738762 0.6843373
0.9940984 0.9013579 0.7069008
1.0000000 0.9288396 0.7294643
0.0406365 0.0306074 0.0367215
0.0779259 0.0580891 0.0592850
0.1152153 0.0855708 0.0818485
0.1525047 0.1130524 0.1044120
0.1897941 0.1405341 0.1269755
0.2270835 0.1680158 0.1495390
0.2643730 0.1954975 0.1721025
0.3016624 0.2229791 0.1946661
0.3389518 0.2504608 0.2172296
0.1290008 0.1170155 0.1028836
0.1662902 0.1444972 0.1254471
0.2035796 0.1719789 0.1480106
0.2408690 0.1994606 0.1705741
0.2781584 0.2269422 0.1931376
0.3154478 0.2544239 0.2157012
0.3527372 0.2819056 0.2382647
0.3900267 0.3093873 0.2608282
0.4273161 0.3368689 0.2833917
0.2173651 0.2034237 0.1690457
0.2546545 0.2309053 0.1916092
0.2919439 0.2583870 0.2141728
0.3292333 0.2858687 0.2367363
0.3665227 0.3133504 0.2592998
0.4038121 0.3408320 0.2818633
0.4411015 0.3683137 0.3044268
0.4783910 0.3957954 0.3269903
0.5156804 0.4232770 0.3495538
0.3057294 0.2898318 0.2352079
0.3430188 0.3173135 0.2577714
0.3803082 0.3447951 0.2803349
0.4175976 0.3722768 0.3028984
0.4548870 0.3997585 0.3254619
0.4921764 0.4272401 0.3480254
0.5294658 0.4547218 0.3705889
0.5667552 0.4822035 0.3931525
0.6040447 0.5096852 0.4157160
0.3940937 0.3762399 0.3013700
0.4313831 0.4037216 0.3239335
0.4686725 0.4312032 0.3464970
0.5059619 0.4586849 0.3690605
0.5432513 0.4861666 0.3916240
0.5805407 0.5136483 0.4141876
0.6178301 0.5411299 0.4367511
0.6551195 0.5686116 0.4593146
0.6924090 0.5960933 0.4818781
0.4824580 0.4626480 0.3675321
0.5197474 0.4901297 0.3900956
0.5570368 0.5176114 0.4126592
0.5943262 0.5450930 0.4352227
0.6316156 0.5725747 0.4577862
0.6689050 0.6000564 0.4803497
0.7061944 0.6275381 0.5029132
0.7434838 0.6550197 0.5254767
0.7807732 0.6825014 0.5480402
0.5708222 0.5490561 0.4336943
0.6081117 0.5765378 0.4562578
0.6454011 0.6040195 0.4788213
0.6826905 0.6315012 0.5013848
0.7199799 0.6589828 0.5239483
0.7572693 0.6864645 0.5465118
0.7945587 0.7139462 0.5690753
0.8318481 0.7414279 0.5916389
0.8691375 0.7689095 0.6142024
0.6591865 0.6354643 0.4998564
0.6964759 0.6629459 0.5224199
0.7337654 0.6904276 0.5449834
0.7710548 0.7179093 0.5675469
0.8083442 0.7453910 0.5901104
0.8456336 0.7728726 0.6126740
0.8829230 0.8003543 0.6352375
0.9202124 0.8278360 0.6578010
0.9575018 0.8553176 0.6803645
0.7475508 0.7218724 0.5660185
0.7848402 0.7493541 0.5885820
0.8221297 0.7768357 0.6111456
0.8594191 0.8043174 0.6337091
0.8967085 0.8317991 0.6562726
0.9339979 0.8592807 0.6788361
0.9712873 0.8867624 0.7013996
1.0000000 0.9142441 0.7239631
1.0000000 0.9417258 0.7465266
0.0551148 0.0434936 0.0537838
0.0924042 0.0709753 0.0763473
0.1296936 0.0984570 0.0989108
0.1669830 0.1259386 0.1214744
0.2042724 0.1534203 0.1440379
0.2415618 0.1809020 0.1666014
0.2788513 0.2083837 0.1891649
0.3161407 0.2358653 0.2117284
0.3534301 0.2633470 0.2342919
0.1434791 0.1299017 0.1199459
0.1807685 0.1573834 0.1425095
0.2180579 0.1848651 0.1650730
0.2553473 0.2123468 0.1876365
0.2926367 0.2398284 0.2102000
0.3299261 0.2673101 0.2327635
0.3672155 0.2947918 0.2553270
0.4045050 0.3222735 0.2778905
0.4417944 0.3497551 0.3004541
0.2318434 0.2163099 0.1861081
0.2691328 0.2437915 0.2086716
0.3064222 0.2712732 0.2312351
0.3437116 0.2987549 0.2537986
0.3810010 0.3262366 0.2763621
0.4182904 0.3537182 0.2989256
0.4555798 0.3811999 0.3214892
0.4928692 0.4086816 0.3440527
0.5301587 0.4361633 0.3666162
0.3202077 0.3027180 0.2522702
0.3574971 0.3301997 0.2748337
0.3947865 0.3576813 0.2973972
0.4320759 0.3851630 0.3199608
0.4693653 0.4126447 0.3425243
0.5066547 0.4401264 0.3650878
0.5439441 0.4676080 0.3876513
0.5812335 0.4950897 0.4102148
0.6185230 0.5225714 0.4327783
0.4085720 0.3891261 0.3184323
0.4458614 0.4166078 0.3409959
0.4831508 0.4440895 0.3635594
0.5204402 0.4715711 0.3861229
0.5577296 0.4990528 0.4086864
0.5950190 0.5265345 0.4312499
0.6323084 0.5540161 0.4538134
0.6695978 0.5814978 0.4763769
0.7068872 0.6089795 0.4989405
0.4969362 0.4755342 0.3845945
0.5342257 0.5030159 0.4071580
0.5715151 0.5304976 0.4297215
0.6088045 0.5579792 0.4522850
0.6460939 0.5854609 0.4748485
0.6833833 0.6129426 0.4974120
0.7206727 0.6404243 0.5199756
0.7579621 0.6679059 0.5425391
0.7952515 0.6953876 0.5651026
0.5853005 0.5619423 0.4507566
0.6225900 0.5894240 0.4733201
0.6598794 0.6169057 0.4958836
0.6971688 0.6443874 0.5184472
0.7344582 0.6718690 0.5410107
0.7717476 0.6993507 0.5635742
0.8090370 0.7268324 0.5861377
0.8463264 0.7543141 0.6087012
0.8836158 0.7817957 0.6312647
0.6736648 0.6483505 0.5169187
0.7109542 0.6758321 0.5394823
0.7482437 0.7033138 0.5620458
0.7855331 0.7307955 0.5846093
0.8228225 0.7582772 0.6071728
0.8601119 0.7857588 0.6297363
0.8974013 0.8132405 0.6522998
0.9346907 0.8407222 0.6748633
0.9719801 0.8682039 0.6974269
0.7620291 0.7347586 0.5830809
0.7993185 0.7622403 0.6056444
0.8366079 0.7897219 0.6282079
0.8738974 0.8172036 0.6507714
0.9111868 0.8446853 0.6733349
0.9484762 0.8721670 0.6958984
0.9857656 0.8996486 0.7184620
1.0000000 0.9271303 0.7410255
1.0000000 0.9546120 0.7635890
0.0695931 0.0563798 0.0708462
0.1068825 0.0838615 0.0934097
0.1441719 0.1113432 0.1159732
0.1814613 0.1388249 0.1385367
0.2187507 0.1663065 0.1611002
0.2560401 0.1937882 0.1836637
0.2933295 0.2212699 0.2062272
0.3306190 0.2487515 0.2287908
0.3679084 0.2762332 0.2513543
0.1579574 0.1427880 0.1370083
0.1952468 0.1702696 0.1595718
0.2325362 0.1977513 0.1821353
0.2698256 0.2252330 0.2046988
0.3071150 0.2527146 0.2272624
0.3444044 0.2801963 0.2498259
0.3816938 0.3076780 0.2723894
0.4189833 0.3351597 0.2949529
0.4562727 0.3626413 0.3175164
0.2463217 0.2291961 0.2031704
0.2836111 0.2566777 0.2257339
0.3209005 0.2841594 0.2482975
0.3581899 0.3116411 0.2708610
0.3954793 0.3391228 0.2934245
0.4327687 0.3666044 0.3159880
0.4700581 0.3940861 0.3385515
0.5073475 0.4215678 0.3611150
0.5446370 0.4490495 0.3836785
0.3346860 0.3156042 0.2693326
0.3719754 0.3430859 0.2918961
0.4092648 0.3705675 0.3144596
0.4465542 0.3980492 0.3370231
0.4838436 0.4255309 0.3595866
0.5211330 0.4530126 0.3821501
0.5584224 0.4804942 0.4047136
0.5957118 0.5079759 0.4272772
0.6330012 0.5354576 0.4498407
0.4230502 0.4020123 0.3354947
0.4603397 0.4294940 0.3580582
0.4976291 0.4569757 0.3806217
0.5349185 0.4844573 0.4031852
0.5722079 0.5119390 0.4257488
0.6094973 0.5394207 0.4483123
0.6467867 0.5669024 0.4708758
0.6840761 0.5943840 0.4934393
0.7213655 0.6218657 0.5160028
0.5114145 0.4884204 0.4016568
0.5487040 0.5159021 0.4242203
0.5859934 0.5433838 0.4467839
0.6232828 0.5708655 0.4693474
0.6605722 0.5983471 0.4919109
0.6978616 0.6258288 0.5144744
0.7351510 0.6533105 0.5370379
0.7724404 0.6807921 0.5596014
0.8097298 0.7082738 0.5821649
0.5997788 0.5748286 0.4678190
0.6370682 0.6023102 0.4903825
0.6743577 0.6297919 0.5129460
0.7116471 0.6572736 0.5355095
0.7489365 0.6847552 0.5580730
0.7862259 0.7122369 0.5806365
0.8235153 0.7397186 0.6032000
0.8608047 0.7672003 0.6257636
0.8980941 0.7946819 0.6483271
0.6881431 0.6612367 0.5339811
0.7254325 0.6887183 0.5565446
0.7627220 0.7162000 0.5791081
0.8000114 0.7436817 0.6016716
0.8373008 0.7711634 0.6242352
0.8745902 0.7986450 0.6467987
0.9118796 0.8261267 0.6693622
0.9491690 0.8536084 0.6919257
0.9864584 0.8810901 0.7144892
0.7765074 0.7476448 0.6001432
0.8137968 0.7751265 0.6227067
0.8510862 0.8026081 0.6452703
0.8883757 0.8300898 0.6678338
0.9256651 0.8575715 0.6903973
0.9629545 0.8850532 0.7129608
1.0000000 0.9125348 0.7355243
1.0000000 0.9400165 0.7580878
1.0000000 0.9674982 0.7806513
0.0840714 0.0692660 0.0879085
0.1213608 0.0967477 0.1104720
0.1586502 0.1242294 0.1330355
0.1959396 0.1517111 0.1555991
0.2332290 0.1791927 0.1781626
0.2705184 0.2066744 0.2007261
0.3078078 0.2341561 0.2232896
0.3450973 0.2616378 0.2458531
0.3823867 0.2891194 0.2684166
0.1724357 0.1556742 0.1540707
0.2097251 0.1831558 0.1766342
0.2470145 0.2106375 0.1991977
0.2843039 0.2381192 0.2217612
0.3215933 0.2656009 0.2443247
0.3588827 0.2930825 0.2668882
0.3961721 0.3205642 0.2894517
0.4334615 0.3480459 0.3120152
0.4707510 0.3755275 0.3345788
0.2608000 0.2420823 0.2202328
0.2980894 0.2695640 0.2427963
0.3353788 0.2970456 0.2653598
0.3726682 0.3245273 0.2879233
0.4099576 0.3520090 0.3104868
0.4472470 0.3794906 0.3330504
0.4845364 0.4069723 0.3556139
0.5218258 0.4344540 0.3781774
0.5591153 0.4619357 0.4007409
0.3491642 0.3284904 0.2863949
0.3864537 0.3559721 0.3089584
0.4237431 0.3834537 0.3315219
0.4610325 0.4109354 0.3540855
0.4983219 0.4384171 0.3766490
0.5356113 0.4658988 0.3992125
0.5729007 0.4933804 0.4217760
0.6101901 0.5208621 0.4443395
0.6474795 0.5483438 0.4669030
0.4375285 0.4148985 0.3525571
0.4748180 0.4423802 0.3751206
0.5121074 0.4698619 0.3976841
0.5493968 0.4973435 0.4202476
0.5866862 0.5248252 0.4428111
0.6239756 0.5523069 0.4653746
0.6612650 0.5797886 0.4879381
0.6985544 0.6072702 0.5105016
0.7358438 0.6347519 0.5330652
0.5258928 0.5013066 0.4187192
0.5631822 0.5287883 0.4412827
0.6004717 0.5562700 0.4638462
0.6377611 0.5837517 0.4864097
0.6750505 0.6112333 0.5089732
0.7123399 0.6387150 0.5315368
0.7496293 0.6661967 0.5541003
0.7869187 0.6936784 0.5766638
0.8242081 0.7211600 0.5992273
0.6142571 0.5877148 0.4848813
0.6515465 0.6151964 0.5074448
0.6888360 0.6426781 0.5300083
0.7261254 0.6701598 0.5525719
0.7634148 0.6976415 0.5751354
0.8007042 0.7251231 0.5976989
0.8379936 0.7526048 0.6202624
0.8752830 0.7800865 0.6428259
0.9125724 0.8075681 0.6653894
0.7026214 0.6741229 0.5510435
0.7399108 0.7016046 0.5736070
0.7772002 0.7290862 0.5961705
0.8144897 0.7565679 0.6187340
0.8517791 0.7840496 0.6412975
0.8890685 0.8115312 0.6638610
0.9263579 0.8390129 0.6864245
0.9636473 0.8664946 0.7089880
1.0000000 0.8939763 0.7315516
0.7909857 0.7605310 0.6172056
0.8282751 0.7880127 0.6397691
0.8655645 0.8154943 0.6623326
0.9028540 0.8429760 0.6848961
0.9401434 0.8704577 0.7074596
0.9774328 0.8979394 0.7300232
1.0000000 0.9254210 0.7525867
1.0000000 0.9529027 0.7751502
1.0000000 0.9803844 0.7977137
0.0985497 0.0821522 0.1049709
0.1358391 0.1096339 0.1275344
0.1731285 0.1371156 0.1500979
0.2104179 0.1645973 0.1726614
0.2477073 0.1920789 0.1952249
0.2849967 0.2195606 0.2177884
0.3222861 0.2470423 0.2403520
0.3595755 0.2745240 0.2629155
0.3968650 0.3020056 0.2854790
0.1869140 0.1685604 0.1711330
0.2242034 0.1960420 0.1936965
0.2614928 0.2235237 0.2162600
0.2987822 0.2510054 0.2388235
0.3360716 0.2784871 0.2613871
0.3733610 0.3059687 0.2839506
0.4106504 0.3334504 0.3065141
0.4479398 0.3609321 0.3290776
0.4852293 0.3884138 0.3516411
0.2752783 0.2549685 0.2372951
0.3125677 0.2824502 0.2598587
0.3498571 0.3099318 0.2824222
0.3871465 0.3374135 0.3049857
0.4244359 0.3648952 0.3275492
0.4617253 0.3923769 0.3501127
0.4990147 0.4198585 0.3726762
0.5363041 0.4473402 0.3952397
0.5735935 0.4748219 0.4178032
0.3636425 0.3413766 0.3034573
0.4009320 0.3688583 0.3260208
0.4382214 0.3963400 0.3485843
0.4755108 0.4238216 0.3711478
0.5128002 0.4513033 0.3937113
0.5500896 0.4787850 0.4162748
0.5873790 0.5062666 0.4388384
0.6246684 0.5337483 0.4614019
0.6619578 0.5612300 0.4839654
0.4520068 0.4277847 0.3696194
0.4892962 0.4552664 0.3921829
0.5265857 0.4827481 0.4147464
0.5638751 0.5102297 0.4373099
0.6011645 0.5377114 0.4598735
0.6384539 0.5651931 0.4824370
0.6757433 0.5926748 0.5050005
0.7130327 0.6201564 0.5275640
0.7503221 0.6476381 0.5501275
0.5403711 0.5141928 0.4357815
0.5776605 0.5416745 0.4583451
0.6149500 0.5691562 0.4809086
0.6522394 0.5966379 0.5034721
0.6895288 0.6241195 0.5260356
0.7268182 0.6516012 0.5485991
0.7641076 0.6790829 0.5711626
0.8013970 0.7065646 0.5937261
0.8386864 0.7340462 0.6162896
0.6287354 0.6006010 0.5019437
0.6660248 0.6280826 0.5245072
0.7033142 0.6555643 0.5470707
0.7406037 0.6830460 0.5696342
0.7778931 0.7105277 0.5921977
0.8151825 0.7380093 0.6147612
0.8524719 0.7654910 0.6373248
0.8897613 0.7929727 0.6598883
0.9270507 0.8204544 0.6824518
0.7170997 0.6870091 0.5681058
0.7543891 0.7144908 0.5906693
0.7916785 0.7419724 0.6132328
0.8289680 0.7694541 0.6357963
0.8662574 0.7969358 0.6583599
0.9035468 0.8244175 0.6809234
0.9408362 0.8518991 0.7034869
0.9781256 0.8793808 0.7260504
1.0000000 0.9068625 0.7486139
0.8054640 0.7734172 0.6342679
0.8427534 0.8008989 0.6568315
0.8800428 0.8283806 0.6793950
0.9173322 0.8558622 0.7019585
0.9546217 0.8833439 0.7245220
0.9919111 0.9108256 0.7470855
1.0000000 0.9383072 0.7696490
1.0000000 0.9657889 0.7922125
1.0000000 0.9932706 0.8147760
0.1130280 0.0950385 0.1220332
0.1503174 0.1225201 0.1445967
0.1876068 0.1500018 0.1671602
0.2248962 0.1774835 0.1897238
0.2621856 0.2049651 0.2122873
0.2994750 0.2324468 0.2348508
0.3367644 0.2599285 0.2574143
0.3740538 0.2874102 0.2799778
0.4113433 0.3148918 0.3025413
0.2013923 0.1814466 0.1881954
0.2386817 0.2089282 0.2107589
0.2759711 0.2364099 0.2333224
0.3132605 0.2638916 0.2558859
0.3505499 0.2913733 0.2784494
0.3878393 0.3188549 0.3010129
0.4251287 0.3463366 0.3235764
0.4624181 0.3738183 0.3461400
0.4997075 0.4013000 0.3687035
0.2897565 0.2678547 0.2543575
0.3270460 0.2953364 0.2769210
0.3643354 0.3228180 0.2994845
0.4016248 0.3502997 0.3220480
0.4389142 0.3777814 0.3446115
0.4762036 0.4052631 0.3671751
0.5134930 0.4327447 0.3897386
0.5507824 0.4602264 0.4123021
0.5880718 0.4877081 0.4348656
0.3781208 0.3542628 0.3205196
0.4154103 0.3817445 0.3430831
0.4526997 0.4092262 0.3656467
0.4899891 0.4367078 0.3882102
0.5272785 0.4641895 0.4107737
0.5645679 0.4916712 0.4333372
0.6018573 0.5191529 0.4559007
0.6391467 0.5466345 0.4784642
0.6764361 0.5741162 0.5010277
0.4664851 0.4406709 0.3866818
0.5037745 0.4681526 0.4092453
0.5410640 0.4956343 0.4318088
0.5783534 0.5231160 0.4543723
0.6156428 0.5505976 0.4769358
0.6529322 0.5780793 0.4994993
0.6902216 0.6055610 0.5220628
0.7275110 0.6330426 0.5446264
0.7648004 0.6605243 0.5671899
0.5548494 0.5270791 0.4528439
0.5921388 0.5545607 0.4754074
0.6294282 0.5820424 0.4979709
0.6667177 0.6095241 0.5205344
0.7040071 0.6370057 0.5430979
0.7412965 0.6644874 0.5656615
0.7785859 0.6919691 0.5882250
0.8158753 0.7194508 0.6107885
0.8531647 0.7469324 0.6333520
0.6432137 0.6134872 0.5190060
0.6805031 0.6409688 0.5415695
0.7177925 0.6684505 0.5641331
0.7550820 0.6959322 0.5866966
0.7923714 0.7234139 0.6092601
0.8296608 0.7508955 0.6318236
0.8669502 0.7783772 0.6543871
0.9042396 0.8058589 0.6769506
0.9415290 0.8333406 0.6995141
0.7315780 0.6998953 0.5851682
0.7688674 0.7273770 0.6077317
0.8061568 0.7548586 0.6302952
0.8434462 0.7823403 0.6528587
0.8807357 0.8098220 0.6754222
0.9180251 0.8373037 0.6979857
0.9553145 0.8647853 0.7205492
0.9926039 0.8922670 0.7431128
1.0000000 0.9197487 0.7656763
0.8199423 0.7863034 0.6513303
0.8572317 0.8137851 0.6738938
0.8945211 0.8412668 0.6964573
0.9318105 0.8687484 0.7190208
0.9691000 0.8962301 0.7415843
1.0000000 0.9237118 0.7641479
1.0000000 0.9511935 0.7867114
1.0000000 0.9786751 0.8092749
1.0000000 1.0000000 0.8318384
