android/app/src/main/assets/luts/Sepia%20Print.cube
TITLE "MirrorBridge Sepia Print"
# Generated by scripts/generate_luts.py with {"contrast": 1.06, "lift": 0.02, "saturation": 0.18, "sepia": 0.72, "temperature": 0.025}
LUT_3D_SIZE 17
DOMAIN_MIN 0.0 0.0 0.0
DOMAIN_MAX 1.0 1.0 1.0
0.0000000 0.0000000 0.0000000
0.0158463 0.0056896 0.0000000
0.0344910 0.0194305 0.0080979
0.0531357 0.0331713 0.0193797
0.0717804 0.0469121 0.0306614
0.0904251 0.0606530 0.0419432
0.1090698 0.0743938 0.0532249
0.1277145 0.0881347 0.0645067
0.1463592 0.1018755 0.0757885
0.1650040 0.1156163 0.0870702
0.1836487 0.1293572 0.0983520
0.2022934 0.1430980 0.1096337
0.2209381 0.1568388 0.1209155
0.2395828 0.1705797 0.1321972
0.2582275 0.1843205 0.1434790
0.2768722 0.1980614 0.1547608
0.2955169 0.2118022 0.1660425
0.0413837 0.0351529 0.0186155
0.0600285 0.0488937 0.0298972
0.0786732 0.0626345 0.0411790
0.0973179 0.0763754 0.0524607
0.1159626 0.0901162 0.0637425
0.1346073 0.1038570 0.0750243
0.1532520 0.1175979 0.0863060
0.1718967 0.1313387 0.0975878
0.1905414 0.1450796 0.1088695
0.2091861 0.1588204 0.1201513
0.2278308 0.1725612 0.1314330
0.2464755 0.1863021 0.1427148
0.2651202 0.2000429 0.1539965
0.2837649 0.2137837 0.1652783
0.3024096 0.2275246 0.1765601
0.3210543 0.2412654 0.1878418
0.3396990 0.2550062 0.1991236
0.0855659 0.0783569 0.0516965
0.1042106 0.0920978 0.0629783
0.1228553 0.1058386 0.0742600
0.1415000 0.1195794 0.0855418
0.1601447 0.1333203 0.0968236
0.1787894 0.1470611 0.1081053
0.1974341 0.1608019 0.1193871
0.2160788 0.1745428 0.1306688
0.2347235 0.1882836 0.1419506
0.2533682 0.2020245 0.1532323
0.2720130 0.2157653 0.1645141
0.2906577 0.2295061 0.1757959
0.3093024 0.2432470 0.1870776
0.3279471 0.2569878 0.1983594
0.3465918 0.2707286 0.2096411
0.3652365 0.2844695 0.2209229
0.3838812 0.2982103 0.2322046
0.1297480 0.1215610 0.0847776
0.1483927 0.1353018 0.0960594
0.1670375 0.1490427 0.1073411
0.1856822 0.1627835 0.1186229
0.2043269 0.1765243 0.1299046
0.2229716 0.1902652 0.1411864
0.2416163 0.2040060 0.1524681
0.2602610 0.2177468 0.1637499
0.2789057 0.2314877 0.1750317
0.2975504 0.2452285 0.1863134
0.3161951 0.2589693 0.1975952
0.3348398 0.2727102 0.2088769
0.3534845 0.2864510 0.2201587
0.3721292 0.3001919 0.2314404
0.3907739 0.3139327 0.2427222
0.4094186 0.3276735 0.2540040
0.4280633 0.3414144 0.2652857
0.1739302 0.1647650 0.1178587
0.1925749 0.1785059 0.1291404
0.2112196 0.1922467 0.1404222
0.2298643 0.2059876 0.1517039
0.2485090 0.2197284 0.1629857
0.2671537 0.2334692 0.1742675
0.2857984 0.2472101 0.1855492
0.3044431 0.2609509 0.1968310
0.3230878 0.2746917 0.2081127
0.3417325 0.2884326 0.2193945
0.3603772 0.3021734 0.2306762
0.3790220 0.3159142 0.2419580
0.3976667 0.3296551 0.2532397
0.4163114 0.3433959 0.2645215
0.4349561 0.3571368 0.2758033
0.4536008 0.3708776 0.2870850
0.4722455 0.3846184 0.2983668
0.2181123 0.2079691 0.1509397
0.2367570 0.2217099 0.1622215
0.2554017 0.2354508 0.1735032
0.2740465 0.2491916 0.1847850
0.2926912 0.2629324 0.1960668
0.3113359 0.2766733 0.2073485
0.3299806 0.2904141 0.2186303
0.3486253 0.3041550 0.2299120
0.3672700 0.3178958 0.2411938
0.3859147 0.3316366 0.2524755
0.4045594 0.3453775 0.2637573
0.4232041 0.3591183 0.2750391
0.4418488 0.3728591 0.2863208
0.4604935 0.3866000 0.2976026
0.4791382 0.4003408 0.3088843
0.4977829 0.4140817 0.3201661
0.5164276 0.4278225 0.3314478
0.2622945 0.2511732 0.1840208
0.2809392 0.2649140 0.1953026
0.2995839 0.2786548 0.2065843
0.3182286 0.2923957 0.2178661
0.3368733 0.3061365 0.2291478
0.3555180 0.3198773 0.2404296
0.3741627 0.3336182 0.2517113
0.3928074 0.3473590 0.2629931
0.4114521 0.3610999 0.2742749
0.4300968 0.3748407 0.2855566
0.4487415 0.3885815 0.2968384
0.4673862 0.4023224 0.3081201
0.4860310 0.4160632 0.3194019
0.5046757 0.4298040 0.3306836
0.5233204 0.4435449 0.3419654
0.5419651 0.4572857 0.3532472
0.5606098 0.4710265 0.3645289
0.3064766 0.2943772 0.2171019
0.3251213 0.3081181 0.2283836
0.3437660 0.3218589 0.2396654
0.3624107 0.3355997 0.2509471
0.3810555 0.3493406 0.2622289
0.3997002 0.3630814 0.2735107
0.4183449 0.3768222 0.2847924
0.4369896 0.3905631 0.2960742
0.4556343 0.4043039 0.3073559
0.4742790 0.4180448 0.3186377
0.4929237 0.4317856 0.3299194
0.5115684 0.4455264 0.3412012
0.5302131 0.4592673 0.3524829
0.5488578 0.4730081 0.3637647
0.5675025 0.4867489 0.3750465
0.5861472 0.5004898 0.3863282
0.6047919 0.5142306 0.3976100
0.3506588 0.3375813 0.2501829
0.3693035 0.3513221 0.2614647
0.3879482 0.3650630 0.2727464
0.4065929 0.3788038 0.2840282
0.4252376 0.3925446 0.2953100
0.4438823 0.4062855 0.3065917
0.4625270 0.4200263 0.3178735
0.4811717 0.4337671 0.3291552
0.4998164 0.4475080 0.3404370
0.5184611 0.4612488 0.3517187
0.5371058 0.4749896 0.3630005
0.5557505 0.4887305 0.3742823
0.5743952 0.5024713 0.3855640
0.5930399 0.5162122 0.3968458
0.6116847 0.5299530 0.4081275
0.6303294 0.5436938 0.4194093
0.6489741 0.5574347 0.4306910
0.3948409 0.3807853 0.2832640
0.4134856 0.3945262 0.2945458
0.4321303 0.4082670 0.3058275
0.4507750 0.4220079 0.3171093
0.4694197 0.4357487 0.3283910
0.4880644 0.4494895 0.3396728
0.5067092 0.4632304 0.3509545
0.5253539 0.4769712 0.3622363
0.5439986 0.4907120 0.3735181
0.5626433 0.5044529 0.3847998
0.5812880 0.5181937 0.3960816
0.5999327 0.5319345 0.4073633
0.6185774 0.5456754 0.4186451
0.6372221 0.5594162 0.4299268
0.6558668 0.5731571 0.4412086
0.6745115 0.5868979 0.4524904
0.6931562 0.6006387 0.4637721
0.4390231 0.4239894 0.3163451
0.4576678 0.4377302 0.3276268
0.4763125 0.4514711 0.3389086
0.4949572 0.4652119 0.3501903
0.5136019 0.4789527 0.3614721
0.5322466 0.4926936 0.3727539
0.5508913 0.5064344 0.3840356
0.5695360 0.5201753 0.3953174
0.5881807 0.5339161 0.4065991
0.6068254 0.5476569 0.4178809
0.6254701 0.5613978 0.4291626
0.6441148 0.5751386 0.4404444
0.6627595 0.5888794 0.4517261
0.6814042 0.6026203 0.4630079
0.7000489 0.6163611 0.4742897
0.7186937 0.6301020 0.4855714
0.7373384 0.6438428 0.4968532
0.4832052 0.4671935 0.3494261
0.5018499 0.4809343 0.3607079
0.5204946 0.4946751 0.3719896
0.5391393 0.5084160 0.3832714
0.5577840 0.5221568 0.3945532
0.5764287 0.5358976 0.4058349
0.5950734 0.5496385 0.4171167
0.6137182 0.5633793 0.4283984
0.6323629 0.5771202 0.4396802
0.6510076 0.5908610 0.4509619
0.6696523 0.6046018 0.4622437
0.6882970 0.6183427 0.4735255
0.7069417 0.6320835 0.4848072
0.7255864 0.6458243 0.4960890
0.7442311 0.6595652 0.5073707
0.7628758 0.6733060 0.5186525
0.7815205 0.6870468 0.5299342
0.5273874 0.5103975 0.3825072
0.5460321 0.5241384 0.3937890
0.5646768 0.5378792 0.4050707
0.5833215 0.5516200 0.4163525
0.6019662 0.5653609 0.4276342
0.6206109 0.5791017 0.4389160
0.6392556 0.5928425 0.4501977
0.6579003 0.6065834 0.4614795
0.6765450 0.6203242 0.4727613
0.6951897 0.6340651 0.4840430
0.7138344 0.6478059 0.4953248
0.7324791 0.6615467 0.5066065
0.7511238 0.6752876 0.5178883
0.7697685 0.6890284 0.5291700
0.7884132 0.7027692 0.5404518
0.8070579 0.7165101 0.5517336
0.8257027 0.7302509 0.5630153
0.5715695 0.5536016 0.4155883
0.5902142 0.5673424 0.4268700
0.6088589 0.5810833 0.4381518
0.6275036 0.5948241 0.4494335
0.6461483 0.6085649 0.4607153
0.6647930 0.6223058 0.4719971
0.6834377 0.6360466 0.4832788
0.7020824 0.6497874 0.4945606
0.7207272 0.6635283 0.5058423
0.7393719 0.6772691 0.5171241
0.7580166 0.6910099 0.5284058
0.7766613 0.7047508 0.5396876
0.7953060 0.7184916 0.5509694
0.8139507 0.7322325 0.5622511
0.8325954 0.7459733 0.5735329
0.8512401 0.7597141 0.5848146
0.8698848 0.7734550 0.5960964
0.6157517 0.5968056 0.4486693
0.6343964 0.6105465 0.4599511
0.6530411 0.6242873 0.4712328
0.6716858 0.6380282 0.4825146
0.6903305 0.6517690 0.4937964
0.7089752 0.6655098 0.5050781
0.7276199 0.6792507 0.5163599
0.7462646 0.6929915 0.5276416
0.7649093 0.7067323 0.5389234
0.7835540 0.7204732 0.5502051
0.8021987 0.7342140 0.5614869
0.8208434 0.7479548 0.5727687
0.8394881 0.7616957 0.5840504
0.8581328 0.7754365 0.5953322
0.8767775 0.7891774 0.6066139
0.8954222 0.8029182 0.6178957
0.9140669 0.8166590 0.6291774
0.6599338 0.6400097 0.4817504
0.6785785 0.6537505 0.4930322
0.6972232 0.6674914 0.5043139
0.7158679 0.6812322 0.5155957
0.7345126 0.6949730 0.5268774
0.7531573 0.7087139 0.5381592
0.7718020 0.7224547 0.5494409
0.7904467 0.7361956 0.5607227
0.8090914 0.7499364 0.5720045
0.8277362 0.7636772 0.5832862
0.8463809 0.7774181 0.5945680
0.8650256 0.7911589 0.6058497
0.8836703 0.8048997 0.6171315
0.9023150 0.8186406 0.6284132
0.9209597 0.8323814 0.6396950
0.9396044 0.8461223 0.6509768
0.9582491 0.8598631 0.6622585
0.7041159 0.6832138 0.5148315
0.7227607 0.6969546 0.5261132
0.7414054 0.7106954 0.5373950
0.7600501 0.7244363 0.5486767
0.7786948 0.7381771 0.5599585
0.7973395 0.7519179 0.5712403
0.8159842 0.7656588 0.5825220
0.8346289 0.7793996 0.5938038
0.8532736 0.7931405 0.6050855
0.8719183 0.8068813 0.6163673
0.8905630 0.8206221 0.6276490
0.9092077 0.8343630 0.6389308
0.9278524 0.8481038 0.6502126
0.9464971 0.8618446 0.6614943
0.9651418 0.8755855 0.6727761
0.9837865 0.8893263 0.6840578
1.0000000 0.9030671 0.6953396
0.0044407 0.0000000 0.0000000
0.0230855 0.0121327 0.0053473
0.0417302 0.0258736 0.0166291
0.0603749 0.0396144 0.0279108
0.0790196 0.0533553 0.0391926
0.0976643 0.0670961 0.0504744
0.1163090 0.0808369 0.0617561
0.1349537 0.0945778 0.0730379
0.1535984 0.1083186 0.0843196
0.1722431 0.1220594 0.0956014
0.1908878 0.1358003 0.1068831
0.2095325 0.1495411 0.1181649
0.2281772 0.1632819 0.1294467
0.2468219 0.1770228 0.1407284
0.2654666 0.1907636 0.1520102
0.2841113 0.2045045 0.1632919
0.3027560 0.2182453 0.1745737
0.0486229 0.0415960 0.0271466
0.0672676 0.0553368 0.0384284
0.0859123 0.0690776 0.0497102
0.1045570 0.0828185 0.0609919
0.1232017 0.0965593 0.0722737
0.1418464 0.1103001 0.0835554
0.1604911 0.1240410 0.0948372
0.1791358 0.1377818 0.1061189
0.1977805 0.1515227 0.1174007
0.2164252 0.1652635 0.1286825
0.2350700 0.1790043 0.1399642
0.2537147 0.1927452 0.1512460
0.2723594 0.2064860 0.1625277
0.2910041 0.2202268 0.1738095
0.3096488 0.2339677 0.1850912
0.3282935 0.2477085 0.1963730
0.3469382 0.2614494 0.2076548
0.0928050 0.0848000 0.0602277
0.1114497 0.0985409 0.0715095
0.1300945 0.1122817 0.0827912
0.1487392 0.1260225 0.0940730
0.1673839 0.1397634 0.1053547
0.1860286 0.1535042 0.1166365
0.2046733 0.1672450 0.1279183
0.2233180 0.1809859 0.1392000
0.2419627 0.1947267 0.1504818
0.2606074 0.2084676 0.1617635
0.2792521 0.2222084 0.1730453
0.2978968 0.2359492 0.1843270
0.3165415 0.2496901 0.1956088
0.3351862 0.2634309 0.2068905
0.3538309 0.2771717 0.2181723
0.3724756 0.2909126 0.2294541
0.3911203 0.3046534 0.2407358
0.1369872 0.1280041 0.0933088
0.1556319 0.1417449 0.1045905
0.1742766 0.1554858 0.1158723
0.1929213 0.1692266 0.1271540
0.2115660 0.1829674 0.1384358
0.2302107 0.1967083 0.1497176
0.2488554 0.2104491 0.1609993
0.2675001 0.2241899 0.1722811
0.2861448 0.2379308 0.1835628
0.3047895 0.2516716 0.1948446
0.3234342 0.2654125 0.2061263
0.3420790 0.2791533 0.2174081
0.3607237 0.2928941 0.2286899
0.3793684 0.3066350 0.2399716
0.3980131 0.3203758 0.2512534
0.4166578 0.3341166 0.2625351
0.4353025 0.3478575 0.2738169
0.1811693 0.1712081 0.1263898
0.1998140 0.1849490 0.1376716
0.2184587 0.1986898 0.1489534
0.2371035 0.2124307 0.1602351
0.2557482 0.2261715 0.1715169
0.2743929 0.2399123 0.1827986
0.2930376 0.2536532 0.1940804
0.3116823 0.2673940 0.2053621
0.3303270 0.2811348 0.2166439
0.3489717 0.2948757 0.2279257
0.3676164 0.3086165 0.2392074
0.3862611 0.3223573 0.2504892
0.4049058 0.3360982 0.2617709
0.4235505 0.3498390 0.2730527
0.4421952 0.3635799 0.2843344
0.4608399 0.3773207 0.2956162
0.4794846 0.3910615 0.3068980
0.2253515 0.2144122 0.1594709
0.2439962 0.2281530 0.1707527
0.2626409 0.2418939 0.1820344
0.2812856 0.2556347 0.1933162
0.2999303 0.2693756 0.2045979
0.3185750 0.2831164 0.2158797
0.3372197 0.2968572 0.2271615
0.3558644 0.3105981 0.2384432
0.3745091 0.3243389 0.2497250
0.3931538 0.3380797 0.2610067
0.4117985 0.3518206 0.2722885
0.4304432 0.3655614 0.2835702
0.4490880 0.3793022 0.2948520
0.4677327 0.3930431 0.3061337
0.4863774 0.4067839 0.3174155
0.5050221 0.4205248 0.3286973
0.5236668 0.4342656 0.3399790
0.2695336 0.2576163 0.1925520
0.2881783 0.2713571 0.2038337
0.3068230 0.2850979 0.2151155
0.3254677 0.2988388 0.2263972
0.3441125 0.3125796 0.2376790
0.3627572 0.3263204 0.2489608
0.3814019 0.3400613 0.2602425
0.4000466 0.3538021 0.2715243
0.4186913 0.3675430 0.2828060
0.4373360 0.3812838 0.2940878
0.4559807 0.3950246 0.3053695
0.4746254 0.4087655 0.3166513
0.4932701 0.4225063 0.3279331
0.5119148 0.4362471 0.3392148
0.5305595 0.4499880 0.3504966
0.5492042 0.4637288 0.3617783
0.5678489 0.4774697 0.3730601
0.3137158 0.3008203 0.2256330
0.3323605 0.3145612 0.2369148
0.3510052 0.3283020 0.2481966
0.3696499 0.3420428 0.2594783
0.3882946 0.3557837 0.2707601
0.4069393 0.3695245 0.2820418
0.4255840 0.3832653 0.2933236
0.4442287 0.3970062 0.3046053
0.4628734 0.4107470 0.3158871
0.4815181 0.4244879 0.3271689
0.5001628 0.4382287 0.3384506
0.5188075 0.4519695 0.3497324
0.5374522 0.4657104 0.3610141
0.5560970 0.4794512 0.3722959
0.5747417 0.4931920 0.3835776
0.5933864 0.5069329 0.3948594
0.6120311 0.5206737 0.4061412
0.3578979 0.3440244 0.2587141
0.3765426 0.3577652 0.2699959
0.3951873 0.3715061 0.2812776
0.4138320 0.3852469 0.2925594
0.4324767 0.3989877 0.3038411
0.4511215 0.4127286 0.3151229
0.4697662 0.4264694 0.3264047
0.4884109 0.4402102 0.3376864
0.5070556 0.4539511 0.3489682
0.5257003 0.4676919 0.3602499
0.5443450 0.4814328 0.3715317
0.5629897 0.4951736 0.3828134
0.5816344 0.5089144 0.3940952
0.6002791 0.5226553 0.4053769
0.6189238 0.5363961 0.4166587
0.6375685 0.5501369 0.4279405
0.6562132 0.5638778 0.4392222
0.4020801 0.3872284 0.2917952
0.4207248 0.4009693 0.3030769
0.4393695 0.4147101 0.3143587
0.4580142 0.4284510 0.3256404
0.4766589 0.4421918 0.3369222
0.4953036 0.4559326 0.3482040
0.5139483 0.4696735 0.3594857
0.5325930 0.4834143 0.3707675
0.5512377 0.4971551 0.3820492
0.5698824 0.5108960 0.3933310
0.5885271 0.5246368 0.4046127
0.6071718 0.5383776 0.4158945
0.6258165 0.5521185 0.4271763
0.6444612 0.5658593 0.4384580
0.6631059 0.5796002 0.4497398
0.6817507 0.5933410 0.4610215
0.7003954 0.6070818 0.4723033
0.4462622 0.4304325 0.3248762
0.4649069 0.4441733 0.3361580
0.4835516 0.4579142 0.3474398
0.5021963 0.4716550 0.3587215
0.5208410 0.4853959 0.3700033
0.5394857 0.4991367 0.3812850
0.5581304 0.5128775 0.3925668
0.5767752 0.5266184 0.4038485
0.5954199 0.5403592 0.4151303
0.6140646 0.5541000 0.4264121
0.6327093 0.5678409 0.4376938
0.6513540 0.5815817 0.4489756
0.6699987 0.5953225 0.4602573
0.6886434 0.6090634 0.4715391
0.7072881 0.6228042 0.4828208
0.7259328 0.6365451 0.4941026
0.7445775 0.6502859 0.5053844
0.4904444 0.4736366 0.3579573
0.5090891 0.4873774 0.3692391
0.5277338 0.5011182 0.3805208
0.5463785 0.5148591 0.3918026
0.5650232 0.5285999 0.4030843
0.5836679 0.5423407 0.4143661
0.6023126 0.5560816 0.4256479
0.6209573 0.5698224 0.4369296
0.6396020 0.5835633 0.4482114
0.6582467 0.5973041 0.4594931
0.6768914 0.6110449 0.4707749
0.6955361 0.6247858 0.4820566
0.7141808 0.6385266 0.4933384
0.7328255 0.6522674 0.5046201
0.7514702 0.6660083 0.5159019
0.7701149 0.6797491 0.5271837
0.7887597 0.6934900 0.5384654
0.5346265 0.5168406 0.3910384
0.5532712 0.5305815 0.4023201
0.5719159 0.5443223 0.4136019
0.5905606 0.5580631 0.4248836
0.6092053 0.5718040 0.4361654
0.6278500 0.5855448 0.4474472
0.6464947 0.5992856 0.4587289
0.6651394 0.6130265 0.4700107
0.6837842 0.6267673 0.4812924
0.7024289 0.6405082 0.4925742
0.7210736 0.6542490 0.5038559
0.7397183 0.6679898 0.5151377
0.7583630 0.6817307 0.5264195
0.7770077 0.6954715 0.5377012
0.7956524 0.7092123 0.5489830
0.8142971 0.7229532 0.5602647
0.8329418 0.7366940 0.5715465
0.5788087 0.5600447 0.4241194
0.5974534 0.5737855 0.4354012
0.6160981 0.5875264 0.4466830
0.6347428 0.6012672 0.4579647
0.6533875 0.6150080 0.4692465
0.6720322 0.6287489 0.4805282
0.6906769 0.6424897 0.4918100
0.7093216 0.6562305 0.5030917
0.7279663 0.6699714 0.5143735
0.7466110 0.6837122 0.5256553
0.7652557 0.6974531 0.5369370
0.7839004 0.7111939 0.5482188
0.8025451 0.7249347 0.5595005
0.8211898 0.7386756 0.5707823
0.8398345 0.7524164 0.5820640
0.8584792 0.7661572 0.5933458
0.8771239 0.7798981 0.6046276
0.6229908 0.6032487 0.4572005
0.6416355 0.6169896 0.4684823
0.6602802 0.6307304 0.4797640
0.6789249 0.6444713 0.4910458
0.6975696 0.6582121 0.5023275
0.7162143 0.6719529 0.5136093
0.7348590 0.6856938 0.5248911
0.7535037 0.6994346 0.5361728
0.7721484 0.7131754 0.5474546
0.7907932 0.7269163 0.5587363
0.8094379 0.7406571 0.5700181
0.8280826 0.7543979 0.5812998
0.8467273 0.7681388 0.5925816
0.8653720 0.7818796 0.6038634
0.8840167 0.7956205 0.6151451
0.9026614 0.8093613 0.6264269
0.9213061 0.8231021 0.6377086
0.6671729 0.6464528 0.4902816
0.6858177 0.6601936 0.5015633
0.7044624 0.6739345 0.5128451
0.7231071 0.6876753 0.5241268
0.7417518 0.7014162 0.5354086
0.7603965 0.7151570 0.5466904
0.7790412 0.7288978 0.5579721
0.7976859 0.7426387 0.5692539
0.8163306 0.7563795 0.5805356
0.8349753 0.7701203 0.5918174
0.8536200 0.7838612 0.6030991
0.8722647 0.7976020 0.6143809
0.8909094 0.8113428 0.6256627
0.9095541 0.8250837 0.6369444
0.9281988 0.8388245 0.6482262
0.9468435 0.8525654 0.6595079
0.9654882 0.8663062 0.6707897
0.7113551 0.6896569 0.5233626
0.7299998 0.7033977 0.5346444
0.7486445 0.7171385 0.5459262
0.7672892 0.7308794 0.5572079
0.7859339 0.7446202 0.5684897
0.8045786 0.7583610 0.5797714
0.8232233 0.7721019 0.5910532
0.8418680 0.7858427 0.6023349
0.8605127 0.7995836 0.6136167
0.8791574 0.8133244 0.6248985
0.8978022 0.8270652 0.6361802
0.9164469 0.8408061 0.6474620
0.9350916 0.8545469 0.6587437
0.9537363 0.8682877 0.6700255
0.9723810 0.8820286 0.6813072
0.9910257 0.8957694 0.6925890
1.0000000 0.9095103 0.7038708
0.0116799 0.0048350 0.0025968
0.0303246 0.0185758 0.0138785
0.0489693 0.0323167 0.0251603
0.0676140 0.0460575 0.0364420
0.0862587 0.0597984 0.0477238
0.1049034 0.0735392 0.0590055
0.1235481 0.0872800 0.0702873
0.1421928 0.1010209 0.0815691
0.1608375 0.1147617 0.0928508
0.1794822 0.1285025 0.1041326
0.1981270 0.1422434 0.1154143
0.2167717 0.1559842 0.1266961
0.2354164 0.1697250 0.1379778
0.2540611 0.1834659 0.1492596
0.2727058 0.1972067 0.1605413
0.2913505 0.2109476 0.1718231
0.3099952 0.2246884 0.1831049
0.0558620 0.0480391 0.0356778
0.0745067 0.0617799 0.0469596
0.0931515 0.0755207 0.0582413
0.1117962 0.0892616 0.0695231
0.1304409 0.1030024 0.0808048
0.1490856 0.1167433 0.0920866
0.1677303 0.1304841 0.1033684
0.1863750 0.1442249 0.1146501
0.2050197 0.1579658 0.1259319
0.2236644 0.1717066 0.1372136
0.2423091 0.1854474 0.1484954
0.2609538 0.1991883 0.1597771
0.2795985 0.2129291 0.1710589
0.2982432 0.2266699 0.1823407
0.3168879 0.2404108 0.1936224
0.3355326 0.2541516 0.2049042
0.3541773 0.2678925 0.2161859
0.1000442 0.0912431 0.0687589
0.1186889 0.1049840 0.0800406
0.1373336 0.1187248 0.0913224
0.1559783 0.1324656 0.1026042
0.1746230 0.1462065 0.1138859
0.1932677 0.1599473 0.1251677
0.2119124 0.1736881 0.1364494
0.2305571 0.1874290 0.1477312
0.2492018 0.2011698 0.1590129
0.2678465 0.2149107 0.1702947
0.2864912 0.2286515 0.1815765
0.3051360 0.2423923 0.1928582
0.3237807 0.2561332 0.2041400
0.3424254 0.2698740 0.2154217
0.3610701 0.2836148 0.2267035
0.3797148 0.2973557 0.2379852
0.3983595 0.3110965 0.2492670
0.1442263 0.1344472 0.1018400
0.1628710 0.1481880 0.1131217
0.1815157 0.1619289 0.1244035
0.2001605 0.1756697 0.1356852
0.2188052 0.1894105 0.1469670
0.2374499 0.2031514 0.1582487
0.2560946 0.2168922 0.1695305
0.2747393 0.2306330 0.1808123
0.2933840 0.2443739 0.1920940
0.3120287 0.2581147 0.2033758
0.3306734 0.2718556 0.2146575
0.3493181 0.2855964 0.2259393
0.3679628 0.2993372 0.2372210
0.3866075 0.3130781 0.2485028
0.4052522 0.3268189 0.2597845
0.4238969 0.3405597 0.2710663
0.4425416 0.3543006 0.2823481
0.1884085 0.1776512 0.1349210
0.2070532 0.1913921 0.1462028
0.2256979 0.2051329 0.1574845
0.2443426 0.2188738 0.1687663
0.2629873 0.2326146 0.1800480
0.2816320 0.2463554 0.1913298
0.3002767 0.2600963 0.2026116
0.3189214 0.2738371 0.2138933
0.3375661 0.2875779 0.2251751
0.3562108 0.3013188 0.2364568
0.3748555 0.3150596 0.2477386
0.3935002 0.3288005 0.2590203
0.4121450 0.3425413 0.2703021
0.4307897 0.3562821 0.2815839
0.4494344 0.3700230 0.2928656
0.4680791 0.3837638 0.3041474
0.4867238 0.3975046 0.3154291
0.2325906 0.2208553 0.1680021
0.2512353 0.2345961 0.1792838
0.2698800 0.2483370 0.1905656
0.2885247 0.2620778 0.2018474
0.3071695 0.2758187 0.2131291
0.3258142 0.2895595 0.2244109
0.3444589 0.3033003 0.2356926
0.3631036 0.3170412 0.2469744
0.3817483 0.3307820 0.2582561
0.4003930 0.3445228 0.2695379
0.4190377 0.3582637 0.2808197
0.4376824 0.3720045 0.2921014
0.4563271 0.3857453 0.3033832
0.4749718 0.3994862 0.3146649
0.4936165 0.4132270 0.3259467
0.5122612 0.4269679 0.3372284
0.5309059 0.4407087 0.3485102
0.2767728 0.2640594 0.2010832
0.2954175 0.2778002 0.2123649
0.3140622 0.2915410 0.2236467
0.3327069 0.3052819 0.2349284
0.3513516 0.3190227 0.2462102
0.3699963 0.3327636 0.2574919
0.3886410 0.3465044 0.2687737
0.4072857 0.3602452 0.2800555
0.4259304 0.3739861 0.2913372
0.4445751 0.3877269 0.3026190
0.4632198 0.4014677 0.3139007
0.4818645 0.4152086 0.3251825
0.5005092 0.4289494 0.3364642
0.5191540 0.4426902 0.3477460
0.5377987 0.4564311 0.3590277
0.5564434 0.4701719 0.3703095
0.5750881 0.4839128 0.3815913
0.3209549 0.3072634 0.2341642
0.3395996 0.3210043 0.2454460
0.3582443 0.3347451 0.2567277
0.3768890 0.3484859 0.2680095
0.3955337 0.3622268 0.2792912
0.4141785 0.3759676 0.2905730
0.4328232 0.3897084 0.3018548
0.4514679 0.4034493 0.3131365
0.4701126 0.4171901 0.3244183
0.4887573 0.4309310 0.3357000
0.5074020 0.4446718 0.3469818
0.5260467 0.4584126 0.3582635
0.5446914 0.4721535 0.3695453
0.5633361 0.4858943 0.3808271
0.5819808 0.4996351 0.3921088
0.6006255 0.5133760 0.4033906
0.6192702 0.5271168 0.4146723
0.3651371 0.3504675 0.2672453
0.3837818 0.3642083 0.2785270
0.4024265 0.3779492 0.2898088
0.4210712 0.3916900 0.3010906
0.4397159 0.4054308 0.3123723
0.4583606 0.4191717 0.3236541
0.4770053 0.4329125 0.3349358
0.4956500 0.4466533 0.3462176
0.5142947 0.4603942 0.3574993
0.5329394 0.4741350 0.3687811
0.5515841 0.4878759 0.3800629
0.5702288 0.5016167 0.3913446
0.5888735 0.5153575 0.4026264
0.6075182 0.5290984 0.4139081
0.6261630 0.5428392 0.4251899
0.6448077 0.5565800 0.4364716
0.6634524 0.5703209 0.4477534
0.4093192 0.3936715 0.3003264
0.4279639 0.4074124 0.3116081
0.4466086 0.4211532 0.3228899
0.4652533 0.4348941 0.3341716
0.4838980 0.4486349 0.3454534
0.5025427 0.4623757 0.3567351
0.5211875 0.4761166 0.3680169
0.5398322 0.4898574 0.3792987
0.5584769 0.5035982 0.3905804
0.5771216 0.5173391 0.4018622
0.5957663 0.5310799 0.4131439
0.6144110 0.5448208 0.4244257
0.6330557 0.5585616 0.4357074
0.6517004 0.5723024 0.4469892
0.6703451 0.5860433 0.4582709
0.6889898 0.5997841 0.4695527
0.7076345 0.6135249 0.4808345
0.4535014 0.4368756 0.3334074
0.4721461 0.4506164 0.3446892
0.4907908 0.4643573 0.3559709
0.5094355 0.4780981 0.3672527
0.5280802 0.4918390 0.3785344
0.5467249 0.5055798 0.3898162
0.5653696 0.5193206 0.4010980
0.5840143 0.5330615 0.4123797
0.6026590 0.5468023 0.4236615
0.6213037 0.5605431 0.4349432
0.6399484 0.5742840 0.4462250
0.6585931 0.5880248 0.4575067
0.6772378 0.6017656 0.4687885
0.6958825 0.6155065 0.4800703
0.7145272 0.6292473 0.4913520
0.7331719 0.6429882 0.5026338
0.7518167 0.6567290 0.5139155
0.4976835 0.4800797 0.3664885
0.5163282 0.4938205 0.3777702
0.5349729 0.5075613 0.3890520
0.5536176 0.5213022 0.4003338
0.5722623 0.5350430 0.4116155
0.5909070 0.5487839 0.4228973
0.6095517 0.5625247 0.4341790
0.6281964 0.5762655 0.4454608
0.6468412 0.5900064 0.4567425
0.6654859 0.6037472 0.4680243
0.6841306 0.6174880 0.4793061
0.7027753 0.6312289 0.4905878
0.7214200 0.6449697 0.5018696
0.7400647 0.6587105 0.5131513
0.7587094 0.6724514 0.5244331
0.7773541 0.6861922 0.5357148
0.7959988 0.6999331 0.5469966
0.5418657 0.5232837 0.3995696
0.5605104 0.5370246 0.4108513
0.5791551 0.5507654 0.4221331
0.5977998 0.5645062 0.4334148
0.6164445 0.5782471 0.4446966
0.6350892 0.5919879 0.4559783
0.6537339 0.6057287 0.4672601
0.6723786 0.6194696 0.4785419
0.6910233 0.6332104 0.4898236
0.7096680 0.6469513 0.5011054
