android/app/src/main/assets/luts/Soft%20Light.cube
TITLE "MirrorBridge Soft Light"
# Generated by scripts/generate_luts.py with {"contrast": 0.88, "lift": 0.045, "saturation": 0.92, "temperature": 0.012}
LUT_3D_SIZE 9
DOMAIN_MIN 0.0 0.0 0.0
DOMAIN_MAX 1.0 1.0 1.0
0.1170000 0.1064400 0.0930000
0.2200709 0.1083109 0.0948709
0.3231418 0.1101818 0.0967418
0.4262126 0.1120526 0.0986126
0.5292835 0.1139235 0.1004835
0.6323544 0.1157944 0.1023544
0.7354253 0.1176653 0.1042253
0.8384962 0.1195362 0.1060962
0.9415670 0.1214070 0.1079670
0.1232938 0.2139338 0.0992938
0.2263646 0.2158046 0.1011646
0.3294355 0.2176755 0.1030355
0.4325064 0.2195464 0.1049064
0.5355773 0.2214173 0.1067773
0.6386482 0.2232882 0.1086482
0.7417190 0.2251590 0.1105190
0.8447899 0.2270299 0.1123899
0.9478608 0.2289008 0.1142608
0.1295875 0.3214275 0.1055875
0.2326584 0.3232984 0.1074584
0.3357293 0.3251693 0.1093293
0.4388002 0.3270402 0.1112002
0.5418710 0.3289110 0.1130710
0.6449419 0.3307819 0.1149419
0.7480128 0.3326528 0.1168128
0.8510837 0.3345237 0.1186837
0.9541546 0.3363946 0.1205546
0.1358813 0.4289213 0.1118813
0.2389522 0.4307922 0.1137522
0.3420230 0.4326630 0.1156230
0.4450939 0.4345339 0.1174939
0.5481648 0.4364048 0.1193648
0.6512357 0.4382757 0.1212357
0.7543066 0.4401466 0.1231066
0.8573774 0.4420174 0.1249774
0.9604483 0.4438883 0.1268483
0.1421750 0.5364150 0.1181750
0.2452459 0.5382859 0.1200459
0.3483168 0.5401568 0.1219168
0.4513877 0.5420277 0.1237877
0.5544586 0.5438986 0.1256586
0.6575294 0.5457694 0.1275294
0.7606003 0.5476403 0.1294003
0.8636712 0.5495112 0.1312712
0.9667421 0.5513821 0.1331421
0.1484688 0.6439088 0.1244688
0.2515397 0.6457797 0.1263397
0.3546106 0.6476506 0.1282106
0.4576814 0.6495214 0.1300814
0.5607523 0.6513923 0.1319523
0.6638232 0.6532632 0.1338232
0.7668941 0.6551341 0.1356941
0.8699650 0.6570050 0.1375650
0.9730358 0.6588758 0.1394358
0.1547626 0.7514026 0.1307626
0.2578334 0.7532734 0.1326334
0.3609043 0.7551443 0.1345043
0.4639752 0.7570152 0.1363752
0.5670461 0.7588861 0.1382461
0.6701170 0.7607570 0.1401170
0.7731878 0.7626278 0.1419878
0.8762587 0.7644987 0.1438587
0.9793296 0.7663696 0.1457296
0.1610563 0.8588963 0.1370563
0.2641272 0.8607672 0.1389272
0.3671981 0.8626381 0.1407981
0.4702690 0.8645090 0.1426690
0.5733398 0.8663798 0.1445398
0.6764107 0.8682507 0.1464107
0.7794816 0.8701216 0.1482816
0.8825525 0.8719925 0.1501525
0.9856234 0.8738634 0.1520234
0.1673501 0.9663901 0.1433501
0.2704210 0.9682610 0.1452210
0.3734918 0.9701318 0.1470918
0.4765627 0.9720027 0.1489627
0.5796336 0.9738736 0.1508336
0.6827045 0.9757445 0.1527045
0.7857754 0.9776154 0.1545754
0.8888462 0.9794862 0.1564462
0.9919171 0.9813571 0.1583171
0.1176354 0.1070754 0.1948354
0.2207062 0.1089462 0.1967062
0.3237771 0.1108171 0.1985771
0.4268480 0.1126880 0.2004480
0.5299189 0.1145589 0.2023189
0.6329898 0.1164298 0.2041898
0.7360606 0.1183006 0.2060606
0.8391315 0.1201715 0.2079315
0.9422024 0.1220424 0.2098024
0.1239291 0.2145691 0.2011291
0.2270000 0.2164400 0.2030000
0.3300709 0.2183109 0.2048709
0.4331418 0.2201818 0.2067418
0.5362126 0.2220526 0.2086126
0.6392835 0.2239235 0.2104835
0.7423544 0.2257944 0.2123544
0.8454253 0.2276653 0.2142253
0.9484962 0.2295362 0.2160962
0.1302229 0.3220629 0.2074229
0.2332938 0.3239338 0.2092938
0.3363646 0.3258046 0.2111646
0.4394355 0.3276755 0.2130355
0.5425064 0.3295464 0.2149064
0.6455773 0.3314173 0.2167773
0.7486482 0.3332882 0.2186482
0.8517190 0.3351590 0.2205190
0.9547899 0.3370299 0.2223899
0.1365166 0.4295566 0.2137166
0.2395875 0.4314275 0.2155875
0.3426584 0.4332984 0.2174584
0.4457293 0.4351693 0.2193293
0.5488002 0.4370402 0.2212002
0.6518710 0.4389110 0.2230710
0.7549419 0.4407819 0.2249419
0.8580128 0.4426528 0.2268128
0.9610837 0.4445237 0.2286837
0.1428104 0.5370504 0.2200104
0.2458813 0.5389213 0.2218813
0.3489522 0.5407922 0.2237522
0.4520230 0.5426630 0.2256230
0.5550939 0.5445339 0.2274939
0.6581648 0.5464048 0.2293648
0.7612357 0.5482757 0.2312357
0.8643066 0.5501466 0.2331066
0.9673774 0.5520174 0.2349774
0.1491042 0.6445442 0.2263042
0.2521750 0.6464150 0.2281750
0.3552459 0.6482859 0.2300459
0.4583168 0.6501568 0.2319168
0.5613877 0.6520277 0.2337877
0.6644586 0.6538986 0.2356586
0.7675294 0.6557694 0.2375294
0.8706003 0.6576403 0.2394003
0.9736712 0.6595112 0.2412712
0.1553979 0.7520379 0.2325979
0.2584688 0.7539088 0.2344688
0.3615397 0.7557797 0.2363397
0.4646106 0.7576506 0.2382106
0.5676814 0.7595214 0.2400814
0.6707523 0.7613923 0.2419523
0.7738232 0.7632632 0.2438232
0.8768941 0.7651341 0.2456941
0.9799650 0.7670050 0.2475650
0.1616917 0.8595317 0.2388917
0.2647626 0.8614026 0.2407626
0.3678334 0.8632734 0.2426334
0.4709043 0.8651443 0.2445043
0.5739752 0.8670152 0.2463752
0.6770461 0.8688861 0.2482461
0.7801170 0.8707570 0.2501170
0.8831878 0.8726278 0.2519878
0.9862587 0.8744987 0.2538587
0.1679854 0.9670254 0.2451854
0.2710563 0.9688963 0.2470563
0.3741272 0.9707672 0.2489272
0.4771981 0.9726381 0.2507981
0.5802690 0.9745090 0.2526690
0.6833398 0.9763798 0.2545398
0.7864107 0.9782507 0.2564107
0.8894816 0.9801216 0.2582816
0.9925525 0.9819925 0.2601525
0.1182707 0.1077107 0.2966707
0.2213416 0.1095816 0.2985416
0.3244125 0.1114525 0.3004125
0.4274834 0.1133234 0.3022834
0.5305542 0.1151942 0.3041542
0.6336251 0.1170651 0.3060251
0.7366960 0.1189360 0.3078960
0.8397669 0.1208069 0.3097669
0.9428378 0.1226778 0.3116378
0.1245645 0.2152045 0.3029645
0.2276354 0.2170754 0.3048354
0.3307062 0.2189462 0.3067062
0.4337771 0.2208171 0.3085771
0.5368480 0.2226880 0.3104480
0.6399189 0.2245589 0.3123189
0.7429898 0.2264298 0.3141898
0.8460606 0.2283006 0.3160606
0.9491315 0.2301715 0.3179315
0.1308582 0.3226982 0.3092582
0.2339291 0.3245691 0.3111291
0.3370000 0.3264400 0.3130000
0.4400709 0.3283109 0.3148709
0.5431418 0.3301818 0.3167418
0.6462126 0.3320526 0.3186126
0.7492835 0.3339235 0.3204835
0.8523544 0.3357944 0.3223544
0.9554253 0.3376653 0.3242253
0.1371520 0.4301920 0.3155520
0.2402229 0.4320629 0.3174229
0.3432938 0.4339338 0.3192938
0.4463646 0.4358046 0.3211646
0.5494355 0.4376755 0.3230355
0.6525064 0.4395464 0.3249064
0.7555773 0.4414173 0.3267773
0.8586482 0.4432882 0.3286482
0.9617190 0.4451590 0.3305190
0.1434458 0.5376858 0.3218458
0.2465166 0.5395566 0.3237166
0.3495875 0.5414275 0.3255875
0.4526584 0.5432984 0.3274584
0.5557293 0.5451693 0.3293293
0.6588002 0.5470402 0.3312002
0.7618710 0.5489110 0.3330710
0.8649419 0.5507819 0.3349419
0.9680128 0.5526528 0.3368128
0.1497395 0.6451795 0.3281395
0.2528104 0.6470504 0.3300104
0.3558813 0.6489213 0.3318813
0.4589522 0.6507922 0.3337522
0.5620230 0.6526630 0.3356230
0.6650939 0.6545339 0.3374939
0.7681648 0.6564048 0.3393648
0.8712357 0.6582757 0.3412357
0.9743066 0.6601466 0.3431066
0.1560333 0.7526733 0.3344333
0.2591042 0.7545442 0.3363042
0.3621750 0.7564150 0.3381750
0.4652459 0.7582859 0.3400459
0.5683168 0.7601568 0.3419168
0.6713877 0.7620277 0.3437877
0.7744586 0.7638986 0.3456586
0.8775294 0.7657694 0.3475294
0.9806003 0.7676403 0.3494003
0.1623270 0.8601670 0.3407270
0.2653979 0.8620379 0.3425979
0.3684688 0.8639088 0.3444688
0.4715397 0.8657797 0.3463397
0.5746106 0.8676506 0.3482106
0.6776814 0.8695214 0.3500814
0.7807523 0.8713923 0.3519523
0.8838232 0.8732632 0.3538232
0.9868941 0.8751341 0.3556941
0.1686208 0.9676608 0.3470208
0.2716917 0.9695317 0.3488917
0.3747626 0.9714026 0.3507626
0.4778334 0.9732734 0.3526334
0.5809043 0.9751443 0.3545043
0.6839752 0.9770152 0.3563752
0.7870461 0.9788861 0.3582461
0.8901170 0.9807570 0.3601170
0.9931878 0.9826278 0.3619878
0.1189061 0.1083461 0.3985061
0.2219770 0.1102170 0.4003770
0.3250478 0.1120878 0.4022478
0.4281187 0.1139587 0.4041187
0.5311896 0.1158296 0.4059896
0.6342605 0.1177005 0.4078605
0.7373314 0.1195714 0.4097314
0.8404022 0.1214422 0.4116022
0.9434731 0.1233131 0.4134731
0.1251998 0.2158398 0.4047998
0.2282707 0.2177107 0.4066707
0.3313416 0.2195816 0.4085416
0.4344125 0.2214525 0.4104125
0.5374834 0.2233234 0.4122834
0.6405542 0.2251942 0.4141542
0.7436251 0.2270651 0.4160251
0.8466960 0.2289360 0.4178960
0.9497669 0.2308069 0.4197669
0.1314936 0.3233336 0.4110936
0.2345645 0.3252045 0.4129645
0.3376354 0.3270754 0.4148354
0.4407062 0.3289462 0.4167062
0.5437771 0.3308171 0.4185771
0.6468480 0.3326880 0.4204480
0.7499189 0.3345589 0.4223189
0.8529898 0.3364298 0.4241898
0.9560606 0.3383006 0.4260606
0.1377874 0.4308274 0.4173874
0.2408582 0.4326982 0.4192582
0.3439291 0.4345691 0.4211291
0.4470000 0.4364400 0.4230000
0.5500709 0.4383109 0.4248709
0.6531418 0.4401818 0.4267418
0.7562126 0.4420526 0.4286126
0.8592835 0.4439235 0.4304835
0.9623544 0.4457944 0.4323544
0.1440811 0.5383211 0.4236811
0.2471520 0.5401920 0.4255520
0.3502229 0.5420629 0.4274229
0.4532938 0.5439338 0.4292938
0.5563646 0.5458046 0.4311646
0.6594355 0.5476755 0.4330355
0.7625064 0.5495464 0.4349064
0.8655773 0.5514173 0.4367773
0.9686482 0.5532882 0.4386482
0.1503749 0.6458149 0.4299749
0.2534458 0.6476858 0.4318458
0.3565166 0.6495566 0.4337166
0.4595875 0.6514275 0.4355875
0.5626584 0.6532984 0.4374584
0.6657293 0.6551693 0.4393293
0.7688002 0.6570402 0.4412002
0.8718710 0.6589110 0.4430710
0.9749419 0.6607819 0.4449419
0.1566686 0.7533086 0.4362686
0.2597395 0.7551795 0.4381395
0.3628104 0.7570504 0.4400104
0.4658813 0.7589213 0.4418813
0.5689522 0.7607922 0.4437522
0.6720230 0.7626630 0.4456230
0.7750939 0.7645339 0.4474939
0.8781648 0.7664048 0.4493648
0.9812357 0.7682757 0.4512357
0.1629624 0.8608024 0.4425624
0.2660333 0.8626733 0.4444333
0.3691042 0.8645442 0.4463042
0.4721750 0.8664150 0.4481750
0.5752459 0.8682859 0.4500459
0.6783168 0.8701568 0.4519168
0.7813877 0.8720277 0.4537877
0.8844586 0.8738986 0.4556586
0.9875294 0.8757694 0.4575294
0.1692562 0.9682962 0.4488562
0.2723270 0.9701670 0.4507270
0.3753979 0.9720379 0.4525979
0.4784688 0.9739088 0.4544688
0.5815397 0.9757797 0.4563397
0.6846106 0.9776506 0.4582106
0.7876814 0.9795214 0.4600814
0.8907523 0.9813923 0.4619523
0.9938232 0.9832632 0.4638232
0.1195414 0.1089814 0.5003414
0.2226123 0.1108523 0.5022123
0.3256832 0.1127232 0.5040832
0.4287541 0.1145941 0.5059541
0.5318250 0.1164650 0.5078250
0.6348958 0.1183358 0.5096958
0.7379667 0.1202067 0.5115667
0.8410376 0.1220776 0.5134376
0.9441085 0.1239485 0.5153085
0.1258352 0.2164752 0.5066352
0.2289061 0.2183461 0.5085061
0.3319770 0.2202170 0.5103770
0.4350478 0.2220878 0.5122478
0.5381187 0.2239587 0.5141187
0.6411896 0.2258296 0.5159896
0.7442605 0.2277005 0.5178605
0.8473314 0.2295714 0.5197314
0.9504022 0.2314422 0.5216022
0.1321290 0.3239690 0.5129290
0.2351998 0.3258398 0.5147998
0.3382707 0.3277107 0.5166707
0.4413416 0.3295816 0.5185416
0.5444125 0.3314525 0.5204125
0.6474834 0.3333234 0.5222834
0.7505542 0.3351942 0.5241542
0.8536251 0.3370651 0.5260251
0.9566960 0.3389360 0.5278960
0.1384227 0.4314627 0.5192227
0.2414936 0.4333336 0.5210936
0.3445645 0.4352045 0.5229645
0.4476354 0.4370754 0.5248354
0.5507062 0.4389462 0.5267062
0.6537771 0.4408171 0.5285771
0.7568480 0.4426880 0.5304480
0.8599189 0.4445589 0.5323189
0.9629898 0.4464298 0.5341898
0.1447165 0.5389565 0.5255165
0.2477874 0.5408274 0.5273874
0.3508582 0.5426982 0.5292582
0.4539291 0.5445691 0.5311291
0.5570000 0.5464400 0.5330000
0.6600709 0.5483109 0.5348709
0.7631418 0.5501818 0.5367418
0.8662126 0.5520526 0.5386126
0.9692835 0.5539235 0.5404835
0.1510102 0.6464502 0.5318102
0.2540811 0.6483211 0.5336811
0.3571520 0.6501920 0.5355520
0.4602229 0.6520629 0.5374229
0.5632938 0.6539338 0.5392938
0.6663646 0.6558046 0.5411646
0.7694355 0.6576755 0.5430355
0.8725064 0.6595464 0.5449064
0.9755773 0.6614173 0.5467773
0.1573040 0.7539440 0.5381040
0.2603749 0.7558149 0.5399749
0.3634458 0.7576858 0.5418458
0.4665166 0.7595566 0.5437166
0.5695875 0.7614275 0.5455875
0.6726584 0.7632984 0.5474584
0.7757293 0.7651693 0.5493293
0.8788002 0.7670402 0.5512002
0.9818710 0.7689110 0.5530710
0.1635978 0.8614378 0.5443978
0.2666686 0.8633086 0.5462686
0.3697395 0.8651795 0.5481395
0.4728104 0.8670504 0.5500104
0.5758813 0.8689213 0.5518813
0.6789522 0.8707922 0.5537522
0.7820230 0.8726630 0.5556230
0.8850939 0.8745339 0.5574939
0.9881648 0.8764048 0.5593648
0.1698915 0.9689315 0.5506915
0.2729624 0.9708024 0.5525624
0.3760333 0.9726733 0.5544333
0.4791042 0.9745442 0.5563042
0.5821750 0.9764150 0.5581750
0.6852459 0.9782859 0.5600459
0.7883168 0.9801568 0.5619168
0.8913877 0.9820277 0.5637877
0.9944586 0.9838986 0.5656586
0.1201768 0.1096168 0.6021768
0.2232477 0.1114877 0.6040477
0.3263186 0.1133586 0.6059186
0.4293894 0.1152294 0.6077894
0.5324603 0.1171003 0.6096603
0.6355312 0.1189712 0.6115312
0.7386021 0.1208421 0.6134021
0.8416730 0.1227130 0.6152730
0.9447438 0.1245838 0.6171438
0.1264706 0.2171106 0.6084706
0.2295414 0.2189814 0.6103414
0.3326123 0.2208523 0.6122123
0.4356832 0.2227232 0.6140832
0.5387541 0.2245941 0.6159541
0.6418250 0.2264650 0.6178250
0.7448958 0.2283358 0.6196958
0.8479667 0.2302067 0.6215667
0.9510376 0.2320776 0.6234376
0.1327643 0.3246043 0.6147643
0.2358352 0.3264752 0.6166352
0.3389061 0.3283461 0.6185061
0.4419770 0.3302170 0.6203770
0.5450478 0.3320878 0.6222478
0.6481187 0.3339587 0.6241187
0.7511896 0.3358296 0.6259896
0.8542605 0.3377005 0.6278605
0.9573314 0.3395714 0.6297314
0.1390581 0.4320981 0.6210581
0.2421290 0.4339690 0.6229290
0.3451998 0.4358398 0.6247998
0.4482707 0.4377107 0.6266707
0.5513416 0.4395816 0.6285416
0.6544125 0.4414525 0.6304125
0.7574834 0.4433234 0.6322834
0.8605542 0.4451942 0.6341542
0.9636251 0.4470651 0.6360251
0.1453518 0.5395918 0.6273518
0.2484227 0.5414627 0.6292227
0.3514936 0.5433336 0.6310936
0.4545645 0.5452045 0.6329645
0.5576354 0.5470754 0.6348354
0.6607062 0.5489462 0.6367062
0.7637771 0.5508171 0.6385771
0.8668480 0.5526880 0.6404480
0.9699189 0.5545589 0.6423189
0.1516456 0.6470856 0.6336456
0.2547165 0.6489565 0.6355165
0.3577874 0.6508274 0.6373874
0.4608582 0.6526982 0.6392582
0.5639291 0.6545691 0.6411291
0.6670000 0.6564400 0.6430000
0.7700709 0.6583109 0.6448709
0.8731418 0.6601818 0.6467418
0.9762126 0.6620526 0.6486126
0.1579394 0.7545794 0.6399394
0.2610102 0.7564502 0.6418102
0.3640811 0.7583211 0.6436811
0.4671520 0.7601920 0.6455520
0.5702229 0.7620629 0.6474229
0.6732938 0.7639338 0.6492938
0.7763646 0.7658046 0.6511646
0.8794355 0.7676755 0.6530355
0.9825064 0.7695464 0.6549064
0.1642331 0.8620731 0.6462331
0.2673040 0.8639440 0.6481040
0.3703749 0.8658149 0.6499749
0.4734458 0.8676858 0.6518458
0.5765166 0.8695566 0.6537166
0.6795875 0.8714275 0.6555875
0.7826584 0.8732984 0.6574584
0.8857293 0.8751693 0.6593293
0.9888002 0.8770402 0.6612002
0.1705269 0.9695669 0.6525269
0.2735978 0.9714378 0.6543978
0.3766686 0.9733086 0.6562686
0.4797395 0.9751795 0.6581395
0.5828104 0.9770504 0.6600104
0.6858813 0.9789213 0.6618813
0.7889522 0.9807922 0.6637522
0.8920230 0.9826630 0.6656230
0.9950939 0.9845339 0.6674939
0.1208122 0.1102522 0.7040122
0.2238830 0.1121230 0.7058830
0.3269539 0.1139939 0.7077539
0.4300248 0.1158648 0.7096248
0.5330957 0.1177357 0.7114957
0.6361666 0.1196066 0.7133666
0.7392374 0.1214774 0.7152374
0.8423083 0.1233483 0.7171083
0.9453792 0.1252192 0.7189792
0.1271059 0.2177459 0.7103059
0.2301768 0.2196168 0.7121768
0.3332477 0.2214877 0.7140477
0.4363186 0.2233586 0.7159186
0.5393894 0.2252294 0.7177894
0.6424603 0.2271003 0.7196603
0.7455312 0.2289712 0.7215312
0.8486021 0.2308421 0.7234021
0.9516730 0.2327130 0.7252730
0.1333997 0.3252397 0.7165997
0.2364706 0.3271106 0.7184706
0.3395414 0.3289814 0.7203414
0.4426123 0.3308523 0.7222123
0.5456832 0.3327232 0.7240832
0.6487541 0.3345941 0.7259541
0.7518250 0.3364650 0.7278250
0.8548958 0.3383358 0.7296958
0.9579667 0.3402067 0.7315667
0.1396934 0.4327334 0.7228934
0.2427643 0.4346043 0.7247643
0.3458352 0.4364752 0.7266352
0.4489061 0.4383461 0.7285061
0.5519770 0.4402170 0.7303770
0.6550478 0.4420878 0.7322478
0.7581187 0.4439587 0.7341187
0.8611896 0.4458296 0.7359896
0.9642605 0.4477005 0.7378605
0.1459872 0.5402272 0.7291872
0.2490581 0.5420981 0.7310581
0.3521290 0.5439690 0.7329290
0.4551998 0.5458398 0.7347998
0.5582707 0.5477107 0.7366707
0.6613416 0.5495816 0.7385416
0.7644125 0.5514525 0.7404125
0.8674834 0.5533234 0.7422834
0.9705542 0.5551942 0.7441542
0.1522810 0.6477210 0.7354810
0.2553518 0.6495918 0.7373518
0.3584227 0.6514627 0.7392227
0.4614936 0.6533336 0.7410936
0.5645645 0.6552045 0.7429645
0.6676354 0.6570754 0.7448354
0.7707062 0.6589462 0.7467062
0.8737771 0.6608171 0.7485771
0.9768480 0.6626880 0.7504480
0.1585747 0.7552147 0.7417747
0.2616456 0.7570856 0.7436456
0.3647165 0.7589565 0.7455165
0.4677874 0.7608274 0.7473874
0.5708582 0.7626982 0.7492582
0.6739291 0.7645691 0.7511291
0.7770000 0.7664400 0.7530000
0.8800709 0.7683109 0.7548709
0.9831418 0.7701818 0.7567418
0.1648685 0.8627085 0.7480685
0.2679394 0.8645794 0.7499394
0.3710102 0.8664502 0.7518102
0.4740811 0.8683211 0.7536811
0.5771520 0.8701920 0.7555520
0.6802229 0.8720629 0.7574229
0.7832938 0.8739338 0.7592938
0.8863646 0.8758046 0.7611646
0.9894355 0.8776755 0.7630355
0.1711622 0.9702022 0.7543622
0.2742331 0.9720731 0.7562331
0.3773040 0.9739440 0.7581040
0.4803749 0.9758149 0.7599749
0.5834458 0.9776858 0.7618458
0.6865166 0.9795566 0.7637166
0.7895875 0.9814275 0.7655875
0.8926584 0.9832984 0.7674584
0.9957293 0.9851693 0.7693293
0.1214475 0.1108875 0.8058475
0.2245184 0.1127584 0.8077184
0.3275893 0.1146293 0.8095893
0.4306602 0.1165002 0.8114602
0.5337310 0.1183710 0.8133310
0.6368019 0.1202419 0.8152019
0.7398728 0.1221128 0.8170728
0.8429437 0.1239837 0.8189437
0.9460146 0.1258546 0.8208146
0.1277413 0.2183813 0.8121413
0.2308122 0.2202522 0.8140122
0.3338830 0.2221230 0.8158830
0.4369539 0.2239939 0.8177539
0.5400248 0.2258648 0.8196248
0.6430957 0.2277357 0.8214957
0.7461666 0.2296066 0.8233666
0.8492374 0.2314774 0.8252374
0.9523083 0.2333483 0.8271083
0.1340350 0.3258750 0.8184350
0.2371059 0.3277459 0.8203059
0.3401768 0.3296168 0.8221768
0.4432477 0.3314877 0.8240477
0.5463186 0.3333586 0.8259186
0.6493894 0.3352294 0.8277894
0.7524603 0.3371003 0.8296603
0.8555312 0.3389712 0.8315312
0.9586021 0.3408421 0.8334021
0.1403288 0.4333688 0.8247288
0.2433997 0.4352397 0.8265997
0.3464706 0.4371106 0.8284706
0.4495414 0.4389814 0.8303414
0.5526123 0.4408523 0.8322123
0.6556832 0.4427232 0.8340832
0.7587541 0.4445941 0.8359541
0.8618250 0.4464650 0.8378250
0.9648958 0.4483358 0.8396958
0.1466226 0.5408626 0.8310226
0.2496934 0.5427334 0.8328934
0.3527643 0.5446043 0.8347643
0.4558352 0.5464752 0.8366352
0.5589061 0.5483461 0.8385061
0.6619770 0.5502170 0.8403770
0.7650478 0.5520878 0.8422478
0.8681187 0.5539587 0.8441187
0.9711896 0.5558296 0.8459896
0.1529163 0.6483563 0.8373163
0.2559872 0.6502272 0.8391872
0.3590581 0.6520981 0.8410581
0.4621290 0.6539690 0.8429290
0.5651998 0.6558398 0.8447998
0.6682707 0.6577107 0.8466707
0.7713416 0.6595816 0.8485416
0.8744125 0.6614525 0.8504125
0.9774834 0.6633234 0.8522834
0.1592101 0.7558501 0.8436101
0.2622810 0.7577210 0.8454810
0.3653518 0.7595918 0.8473518
0.4684227 0.7614627 0.8492227
0.5714936 0.7633336 0.8510936
0.6745645 0.7652045 0.8529645
0.7776354 0.7670754 0.8548354
0.8807062 0.7689462 0.8567062
0.9837771 0.7708171 0.8585771
0.1655038 0.8633438 0.8499038
0.2685747 0.8652147 0.8517747
0.3716456 0.8670856 0.8536456
0.4747165 0.8689565 0.8555165
0.5777874 0.8708274 0.8573874
0.6808582 0.8726982 0.8592582
0.7839291 0.8745691 0.8611291
0.8870000 0.8764400 0.8630000
0.9900709 0.8783109 0.8648709
0.1717976 0.9708376 0.8561976
0.2748685 0.9727085 0.8580685
0.3779394 0.9745794 0.8599394
0.4810102 0.9764502 0.8618102
0.5840811 0.9783211 0.8636811
0.6871520 0.9801920 0.8655520
0.7902229 0.9820629 0.8674229
0.8932938 0.9839338 0.8692938
0.9963646 0.9858046 0.8711646
0.1220829 0.1115229 0.9076829
0.2251538 0.1133938 0.9095538
0.3282246 0.1152646 0.9114246
0.4312955 0.1171355 0.9132955
0.5343664 0.1190064 0.9151664
0.6374373 0.1208773 0.9170373
0.7405082 0.1227482 0.9189082
0.8435790 0.1246190 0.9207790
0.9466499 0.1264899 0.9226499
0.1283766 0.2190166 0.9139766
0.2314475 0.2208875 0.9158475
0.3345184 0.2227584 0.9177184
0.4375893 0.2246293 0.9195893
0.5406602 0.2265002 0.9214602
0.6437310 0.2283710 0.9233310
0.7468019 0.2302419 0.9252019
0.8498728 0.2321128 0.9270728
0.9529437 0.2339837 0.9289437
0.1346704 0.3265104 0.9202704
0.2377413 0.3283813 0.9221413
0.3408122 0.3302522 0.9240122
0.4438830 0.3321230 0.9258830
0.5469539 0.3339939 0.9277539
0.6500248 0.3358648 0.9296248
0.7530957 0.3377357 0.9314957
0.8561666 0.3396066 0.9333666
0.9592374 0.3414774 0.9352374
0.1409642 0.4340042 0.9265642
0.2440350 0.4358750 0.9284350
0.3471059 0.4377459 0.9303059
0.4501768 0.4396168 0.9321768
0.5532477 0.4414877 0.9340477
0.6563186 0.4433586 0.9359186
0.7593894 0.4452294 0.9377894
0.8624603 0.4471003 0.9396603
0.9655312 0.4489712 0.9415312
0.1472579 0.5414979 0.9328579
0.2503288 0.5433688 0.9347288
0.3533997 0.5452397 0.9365997
0.4564706 0.5471106 0.9384706
0.5595414 0.5489814 0.9403414
0.6626123 0.5508523 0.9422123
0.7656832 0.5527232 0.9440832
0.8687541 0.5545941 0.9459541
0.9718250 0.5564650 0.9478250
0.1535517 0.6489917 0.9391517
0.2566226 0.6508626 0.9410226
0.3596934 0.6527334 0.9428934
0.4627643 0.6546043 0.9447643
0.5658352 0.6564752 0.9466352
0.6689061 0.6583461 0.9485061
0.7719770 0.6602170 0.9503770
0.8750478 0.6620878 0.9522478
0.9781187 0.6639587 0.9541187
0.1598454 0.7564854 0.9454454
0.2629163 0.7583563 0.9473163
0.3659872 0.7602272 0.9491872
0.4690581 0.7620981 0.9510581
0.5721290 0.7639690 0.9529290
0.6751998 0.7658398 0.9547998
0.7782707 0.7677107 0.9566707
0.8813416 0.7695816 0.9585416
0.9844125 0.7714525 0.9604125
0.1661392 0.8639792 0.9517392
0.2692101 0.8658501 0.9536101
0.3722810 0.8677210 0.9554810
0.4753518 0.8695918 0.9573518
0.5784227 0.8714627 0.9592227
0.6814936 0.8733336 0.9610936
0.7845645 0.8752045 0.9629645
0.8876354 0.8770754 0.9648354
0.9907062 0.8789462 0.9667062
0.1724330 0.9714730 0.9580330
0.2755038 0.9733438 0.9599038
0.3785747 0.9752147 0.9617747
0.4816456 0.9770856 0.9636456
0.5847165 0.9789565 0.9655165
0.6877874 0.9808274 0.9673874
0.7908582 0.9826982 0.9692582
0.8939291 0.9845691 0.9711291
0.9970000 0.9864400 0.9730000
