android/app/src/main/assets/luts/Soft%20Light.cube
TITLE "MirrorBridge Soft Light"
# Generated by scripts/generate_luts.py with {"contrast": 0.88, "lift": 0.045, "saturation": 0.92, "temperature": 0.012}
LUT_3D_SIZE 5
DOMAIN_MIN 0.0 0.0 0.0
DOMAIN_MAX 1.0 1.0 1.0
0.1170000 0.1064400 0.0930000
0.3231418 0.1101818 0.0967418
0.5292835 0.1139235 0.1004835
0.7354253 0.1176653 0.1042253
0.9415670 0.1214070 0.1079670
0.1295875 0.3214275 0.1055875
0.3357293 0.3251693 0.1093293
0.5418710 0.3289110 0.1130710
0.7480128 0.3326528 0.1168128
0.9541546 0.3363946 0.1205546
0.1421750 0.5364150 0.1181750
0.3483168 0.5401568 0.1219168
0.5544586 0.5438986 0.1256586
0.7606003 0.5476403 0.1294003
0.9667421 0.5513821 0.1331421
0.1547626 0.7514026 0.1307626
0.3609043 0.7551443 0.1345043
0.5670461 0.7588861 0.1382461
0.7731878 0.7626278 0.1419878
0.9793296 0.7663696 0.1457296
0.1673501 0.9663901 0.1433501
0.3734918 0.9701318 0.1470918
0.5796336 0.9738736 0.1508336
0.7857754 0.9776154 0.1545754
0.9919171 0.9813571 0.1583171
0.1182707 0.1077107 0.2966707
0.3244125 0.1114525 0.3004125
0.5305542 0.1151942 0.3041542
0.7366960 0.1189360 0.3078960
0.9428378 0.1226778 0.3116378
0.1308582 0.3226982 0.3092582
0.3370000 0.3264400 0.3130000
0.5431418 0.3301818 0.3167418
0.7492835 0.3339235 0.3204835
0.9554253 0.3376653 0.3242253
0.1434458 0.5376858 0.3218458
0.3495875 0.5414275 0.3255875
0.5557293 0.5451693 0.3293293
0.7618710 0.5489110 0.3330710
0.9680128 0.5526528 0.3368128
0.1560333 0.7526733 0.3344333
0.3621750 0.7564150 0.3381750
0.5683168 0.7601568 0.3419168
0.7744586 0.7638986 0.3456586
0.9806003 0.7676403 0.3494003
0.1686208 0.9676608 0.3470208
0.3747626 0.9714026 0.3507626
0.5809043 0.9751443 0.3545043
0.7870461 0.9788861 0.3582461
0.9931878 0.9826278 0.3619878
0.1195414 0.1089814 0.5003414
0.3256832 0.1127232 0.5040832
0.5318250 0.1164650 0.5078250
0.7379667 0.1202067 0.5115667
0.9441085 0.1239485 0.5153085
0.1321290 0.3239690 0.5129290
0.3382707 0.3277107 0.5166707
0.5444125 0.3314525 0.5204125
0.7505542 0.3351942 0.5241542
0.9566960 0.3389360 0.5278960
0.1447165 0.5389565 0.5255165
0.3508582 0.5426982 0.5292582
0.5570000 0.5464400 0.5330000
0.7631418 0.5501818 0.5367418
0.9692835 0.5539235 0.5404835
0.1573040 0.7539440 0.5381040
0.3634458 0.7576858 0.5418458
0.5695875 0.7614275 0.5455875
0.7757293 0.7651693 0.5493293
0.9818710 0.7689110 0.5530710
0.1698915 0.9689315 0.5506915
0.3760333 0.9726733 0.5544333
0.5821750 0.9764150 0.5581750
0.7883168 0.9801568 0.5619168
0.9944586 0.9838986 0.5656586
0.1208122 0.1102522 0.7040122
0.3269539 0.1139939 0.7077539
0.5330957 0.1177357 0.7114957
0.7392374 0.1214774 0.7152374
0.9453792 0.1252192 0.7189792
0.1333997 0.3252397 0.7165997
0.3395414 0.3289814 0.7203414
0.5456832 0.3327232 0.7240832
0.7518250 0.3364650 0.7278250
0.9579667 0.3402067 0.7315667
0.1459872 0.5402272 0.7291872
0.3521290 0.5439690 0.7329290
0.5582707 0.5477107 0.7366707
0.7644125 0.5514525 0.7404125
0.9705542 0.5551942 0.7441542
0.1585747 0.7552147 0.7417747
0.3647165 0.7589565 0.7455165
0.5708582 0.7626982 0.7492582
0.7770000 0.7664400 0.7530000
0.9831418 0.7701818 0.7567418
0.1711622 0.9702022 0.7543622
0.3773040 0.9739440 0.7581040
0.5834458 0.9776858 0.7618458
0.7895875 0.9814275 0.7655875
0.9957293 0.9851693 0.7693293
0.1220829 0.1115229 0.9076829
0.3282246 0.1152646 0.9114246
0.5343664 0.1190064 0.9151664
0.7405082 0.1227482 0.9189082
0.9466499 0.1264899 0.9226499
0.1346704 0.3265104 0.9202704
0.3408122 0.3302522 0.9240122
0.5469539 0.3339939 0.9277539
0.7530957 0.3377357 0.9314957
0.9592374 0.3414774 0.9352374
0.1472579 0.5414979 0.9328579
0.3533997 0.5452397 0.9365997
0.5595414 0.5489814 0.9403414
0.7656832 0.5527232 0.9440832
0.9718250 0.5564650 0.9478250
0.1598454 0.7564854 0.9454454
0.3659872 0.7602272 0.9491872
0.5721290 0.7639690 0.9529290
0.7782707 0.7677107 0.9566707
0.9844125 0.7714525 0.9604125
0.1724330 0.9714730 0.9580330
0.3785747 0.9752147 0.9617747
0.5847165 0.9789565 0.9655165
0.7908582 0.9826982 0.9692582
0.9970000 0.9864400 0.9730000
