android/app/src/main/assets/luts/Soft%20Light.cube
TITLE "MirrorBridge Soft Light"
# Generated by scripts/generate_luts.py with {"contrast": 0.88, "lift": 0.045, "saturation": 0.92, "temperature": 0.012}
LUT_3D_SIZE 17
DOMAIN_MIN 0.0 0.0 0.0
DOMAIN_MAX 1.0 1.0 1.0
0.1170000 0.1064400 0.0930000
0.1685354 0.1073754 0.0939354
0.2200709 0.1083109 0.0948709
0.2716063 0.1092463 0.0958063
0.3231418 0.1101818 0.0967418
0.3746772 0.1111172 0.0976772
0.4262126 0.1120526 0.0986126
0.4777481 0.1129881 0.0995481
0.5292835 0.1139235 0.1004835
0.5808190 0.1148590 0.1014190
0.6323544 0.1157944 0.1023544
0.6838898 0.1167298 0.1032898
0.7354253 0.1176653 0.1042253
0.7869607 0.1186007 0.1051607
0.8384962 0.1195362 0.1060962
0.8900316 0.1204716 0.1070316
0.9415670 0.1214070 0.1079670
0.1201469 0.1601869 0.0961469
0.1716823 0.1611223 0.0970823
0.2232178 0.1620578 0.0980178
0.2747532 0.1629932 0.0989532
0.3262886 0.1639286 0.0998886
0.3778241 0.1648641 0.1008241
0.4293595 0.1657995 0.1017595
0.4808950 0.1667350 0.1026950
0.5324304 0.1676704 0.1036304
0.5839658 0.1686058 0.1045658
0.6355013 0.1695413 0.1055013
0.6870367 0.1704767 0.1064367
0.7385722 0.1714122 0.1073722
0.7901076 0.1723476 0.1083076
0.8416430 0.1732830 0.1092430
0.8931785 0.1742185 0.1101785
0.9447139 0.1751539 0.1111139
0.1232938 0.2139338 0.0992938
0.1748292 0.2148692 0.1002292
0.2263646 0.2158046 0.1011646
0.2779001 0.2167401 0.1021001
0.3294355 0.2176755 0.1030355
0.3809710 0.2186110 0.1039710
0.4325064 0.2195464 0.1049064
0.4840418 0.2204818 0.1058418
0.5355773 0.2214173 0.1067773
0.5871127 0.2223527 0.1077127
0.6386482 0.2232882 0.1086482
0.6901836 0.2242236 0.1095836
0.7417190 0.2251590 0.1105190
0.7932545 0.2260945 0.1114545
0.8447899 0.2270299 0.1123899
0.8963254 0.2279654 0.1133254
0.9478608 0.2289008 0.1142608
0.1264406 0.2676806 0.1024406
0.1779761 0.2686161 0.1033761
0.2295115 0.2695515 0.1043115
0.2810470 0.2704870 0.1052470
0.3325824 0.2714224 0.1061824
0.3841178 0.2723578 0.1071178
0.4356533 0.2732933 0.1080533
0.4871887 0.2742287 0.1089887
0.5387242 0.2751642 0.1099242
0.5902596 0.2760996 0.1108596
0.6417950 0.2770350 0.1117950
0.6933305 0.2779705 0.1127305
0.7448659 0.2789059 0.1136659
0.7964014 0.2798414 0.1146014
0.8479368 0.2807768 0.1155368
0.8994722 0.2817122 0.1164722
0.9510077 0.2826477 0.1174077
0.1295875 0.3214275 0.1055875
0.1811230 0.3223630 0.1065230
0.2326584 0.3232984 0.1074584
0.2841938 0.3242338 0.1083938
0.3357293 0.3251693 0.1093293
0.3872647 0.3261047 0.1102647
0.4388002 0.3270402 0.1112002
0.4903356 0.3279756 0.1121356
0.5418710 0.3289110 0.1130710
0.5934065 0.3298465 0.1140065
0.6449419 0.3307819 0.1149419
0.6964774 0.3317174 0.1158774
0.7480128 0.3326528 0.1168128
0.7995482 0.3335882 0.1177482
0.8510837 0.3345237 0.1186837
0.9026191 0.3354591 0.1196191
0.9541546 0.3363946 0.1205546
0.1327344 0.3751744 0.1087344
0.1842698 0.3761098 0.1096698
0.2358053 0.3770453 0.1106053
0.2873407 0.3779807 0.1115407
0.3388762 0.3789162 0.1124762
0.3904116 0.3798516 0.1134116
0.4419470 0.3807870 0.1143470
0.4934825 0.3817225 0.1152825
0.5450179 0.3826579 0.1162179
0.5965534 0.3835934 0.1171534
0.6480888 0.3845288 0.1180888
0.6996242 0.3854642 0.1190242
0.7511597 0.3863997 0.1199597
0.8026951 0.3873351 0.1208951
0.8542306 0.3882706 0.1218306
0.9057660 0.3892060 0.1227660
0.9573014 0.3901414 0.1237014
0.1358813 0.4289213 0.1118813
0.1874167 0.4298567 0.1128167
0.2389522 0.4307922 0.1137522
0.2904876 0.4317276 0.1146876
0.3420230 0.4326630 0.1156230
0.3935585 0.4335985 0.1165585
0.4450939 0.4345339 0.1174939
0.4966294 0.4354694 0.1184294
0.5481648 0.4364048 0.1193648
0.5997002 0.4373402 0.1203002
0.6512357 0.4382757 0.1212357
0.7027711 0.4392111 0.1221711
0.7543066 0.4401466 0.1231066
0.8058420 0.4410820 0.1240420
0.8573774 0.4420174 0.1249774
0.9089129 0.4429529 0.1259129
0.9604483 0.4438883 0.1268483
0.1390282 0.4826682 0.1150282
0.1905636 0.4836036 0.1159636
0.2420990 0.4845390 0.1168990
0.2936345 0.4854745 0.1178345
0.3451699 0.4864099 0.1187699
0.3967054 0.4873454 0.1197054
0.4482408 0.4882808 0.1206408
0.4997762 0.4892162 0.1215762
0.5513117 0.4901517 0.1225117
0.6028471 0.4910871 0.1234471
0.6543826 0.4920226 0.1243826
0.7059180 0.4929580 0.1253180
0.7574534 0.4938934 0.1262534
0.8089889 0.4948289 0.1271889
0.8605243 0.4957643 0.1281243
0.9120598 0.4966998 0.1290598
0.9635952 0.4976352 0.1299952
0.1421750 0.5364150 0.1181750
0.1937105 0.5373505 0.1191105
0.2452459 0.5382859 0.1200459
0.2967814 0.5392214 0.1209814
0.3483168 0.5401568 0.1219168
0.3998522 0.5410922 0.1228522
0.4513877 0.5420277 0.1237877
0.5029231 0.5429631 0.1247231
0.5544586 0.5438986 0.1256586
0.6059940 0.5448340 0.1265940
0.6575294 0.5457694 0.1275294
0.7090649 0.5467049 0.1284649
0.7606003 0.5476403 0.1294003
0.8121358 0.5485758 0.1303358
0.8636712 0.5495112 0.1312712
0.9152066 0.5504466 0.1322066
0.9667421 0.5513821 0.1331421
0.1453219 0.5901619 0.1213219
0.1968574 0.5910974 0.1222574
0.2483928 0.5920328 0.1231928
0.2999282 0.5929682 0.1241282
0.3514637 0.5939037 0.1250637
0.4029991 0.5948391 0.1259991
0.4545346 0.5957746 0.1269346
0.5060700 0.5967100 0.1278700
0.5576054 0.5976454 0.1288054
0.6091409 0.5985809 0.1297409
0.6606763 0.5995163 0.1306763
0.7122118 0.6004518 0.1316118
0.7637472 0.6013872 0.1325472
0.8152826 0.6023226 0.1334826
0.8668181 0.6032581 0.1344181
0.9183535 0.6041935 0.1353535
0.9698890 0.6051290 0.1362890
0.1484688 0.6439088 0.1244688
0.2000042 0.6448442 0.1254042
0.2515397 0.6457797 0.1263397
0.3030751 0.6467151 0.1272751
0.3546106 0.6476506 0.1282106
0.4061460 0.6485860 0.1291460
0.4576814 0.6495214 0.1300814
0.5092169 0.6504569 0.1310169
0.5607523 0.6513923 0.1319523
0.6122878 0.6523278 0.1328878
0.6638232 0.6532632 0.1338232
0.7153586 0.6541986 0.1347586
0.7668941 0.6551341 0.1356941
0.8184295 0.6560695 0.1366295
0.8699650 0.6570050 0.1375650
0.9215004 0.6579404 0.1385004
0.9730358 0.6588758 0.1394358
0.1516157 0.6976557 0.1276157
0.2031511 0.6985911 0.1285511
0.2546866 0.6995266 0.1294866
0.3062220 0.7004620 0.1304220
0.3577574 0.7013974 0.1313574
0.4092929 0.7023329 0.1322929
0.4608283 0.7032683 0.1332283
0.5123638 0.7042038 0.1341638
0.5638992 0.7051392 0.1350992
0.6154346 0.7060746 0.1360346
0.6669701 0.7070101 0.1369701
0.7185055 0.7079455 0.1379055
0.7700410 0.7088810 0.1388410
0.8215764 0.7098164 0.1397764
0.8731118 0.7107518 0.1407118
0.9246473 0.7116873 0.1416473
0.9761827 0.7126227 0.1425827
0.1547626 0.7514026 0.1307626
0.2062980 0.7523380 0.1316980
0.2578334 0.7532734 0.1326334
0.3093689 0.7542089 0.1335689
0.3609043 0.7551443 0.1345043
0.4124398 0.7560798 0.1354398
0.4639752 0.7570152 0.1363752
0.5155106 0.7579506 0.1373106
0.5670461 0.7588861 0.1382461
0.6185815 0.7598215 0.1391815
0.6701170 0.7607570 0.1401170
0.7216524 0.7616924 0.1410524
0.7731878 0.7626278 0.1419878
0.8247233 0.7635633 0.1429233
0.8762587 0.7644987 0.1438587
0.9277942 0.7654342 0.1447942
0.9793296 0.7663696 0.1457296
0.1579094 0.8051494 0.1339094
0.2094449 0.8060849 0.1348449
0.2609803 0.8070203 0.1357803
0.3125158 0.8079558 0.1367158
0.3640512 0.8088912 0.1376512
0.4155866 0.8098266 0.1385866
0.4671221 0.8107621 0.1395221
0.5186575 0.8116975 0.1404575
0.5701930 0.8126330 0.1413930
0.6217284 0.8135684 0.1423284
0.6732638 0.8145038 0.1432638
0.7247993 0.8154393 0.1441993
0.7763347 0.8163747 0.1451347
0.8278702 0.8173102 0.1460702
0.8794056 0.8182456 0.1470056
0.9309410 0.8191810 0.1479410
0.9824765 0.8201165 0.1488765
0.1610563 0.8588963 0.1370563
0.2125918 0.8598318 0.1379918
0.2641272 0.8607672 0.1389272
0.3156626 0.8617026 0.1398626
0.3671981 0.8626381 0.1407981
0.4187335 0.8635735 0.1417335
0.4702690 0.8645090 0.1426690
0.5218044 0.8654444 0.1436044
0.5733398 0.8663798 0.1445398
0.6248753 0.8673153 0.1454753
0.6764107 0.8682507 0.1464107
0.7279462 0.8691862 0.1473462
0.7794816 0.8701216 0.1482816
0.8310170 0.8710570 0.1492170
0.8825525 0.8719925 0.1501525
0.9340879 0.8729279 0.1510879
0.9856234 0.8738634 0.1520234
0.1642032 0.9126432 0.1402032
0.2157386 0.9135786 0.1411386
0.2672741 0.9145141 0.1420741
0.3188095 0.9154495 0.1430095
0.3703450 0.9163850 0.1439450
0.4218804 0.9173204 0.1448804
0.4734158 0.9182558 0.1458158
0.5249513 0.9191913 0.1467513
0.5764867 0.9201267 0.1476867
0.6280222 0.9210622 0.1486222
0.6795576 0.9219976 0.1495576
0.7310930 0.9229330 0.1504930
0.7826285 0.9238685 0.1514285
0.8341639 0.9248039 0.1523639
0.8856994 0.9257394 0.1532994
0.9372348 0.9266748 0.1542348
0.9887702 0.9276102 0.1551702
0.1673501 0.9663901 0.1433501
0.2188855 0.9673255 0.1442855
0.2704210 0.9682610 0.1452210
0.3219564 0.9691964 0.1461564
0.3734918 0.9701318 0.1470918
0.4250273 0.9710673 0.1480273
0.4765627 0.9720027 0.1489627
0.5280982 0.9729382 0.1498982
0.5796336 0.9738736 0.1508336
0.6311690 0.9748090 0.1517690
0.6827045 0.9757445 0.1527045
0.7342399 0.9766799 0.1536399
0.7857754 0.9776154 0.1545754
0.8373108 0.9785508 0.1555108
0.8888462 0.9794862 0.1564462
0.9403817 0.9804217 0.1573817
0.9919171 0.9813571 0.1583171
0.1173177 0.1067577 0.1439177
0.1688531 0.1076931 0.1448531
0.2203886 0.1086286 0.1457886
0.2719240 0.1095640 0.1467240
0.3234594 0.1104994 0.1476594
0.3749949 0.1114349 0.1485949
0.4265303 0.1123703 0.1495303
0.4780658 0.1133058 0.1504658
0.5296012 0.1142412 0.1514012
0.5811366 0.1151766 0.1523366
0.6326721 0.1161121 0.1532721
0.6842075 0.1170475 0.1542075
0.7357430 0.1179830 0.1551430
0.7872784 0.1189184 0.1560784
0.8388138 0.1198538 0.1570138
0.8903493 0.1207893 0.1579493
0.9418847 0.1217247 0.1588847
0.1204646 0.1605046 0.1470646
0.1720000 0.1614400 0.1480000
0.2235354 0.1623754 0.1489354
0.2750709 0.1633109 0.1498709
0.3266063 0.1642463 0.1508063
0.3781418 0.1651818 0.1517418
0.4296772 0.1661172 0.1526772
0.4812126 0.1670526 0.1536126
0.5327481 0.1679881 0.1545481
0.5842835 0.1689235 0.1554835
0.6358190 0.1698590 0.1564190
0.6873544 0.1707944 0.1573544
0.7388898 0.1717298 0.1582898
0.7904253 0.1726653 0.1592253
0.8419607 0.1736007 0.1601607
0.8934962 0.1745362 0.1610962
0.9450316 0.1754716 0.1620316
0.1236114 0.2142514 0.1502114
0.1751469 0.2151869 0.1511469
0.2266823 0.2161223 0.1520823
0.2782178 0.2170578 0.1530178
0.3297532 0.2179932 0.1539532
0.3812886 0.2189286 0.1548886
0.4328241 0.2198641 0.1558241
0.4843595 0.2207995 0.1567595
0.5358950 0.2217350 0.1576950
0.5874304 0.2226704 0.1586304
0.6389658 0.2236058 0.1595658
0.6905013 0.2245413 0.1605013
0.7420367 0.2254767 0.1614367
0.7935722 0.2264122 0.1623722
0.8451076 0.2273476 0.1633076
0.8966430 0.2282830 0.1642430
0.9481785 0.2292185 0.1651785
0.1267583 0.2679983 0.1533583
0.1782938 0.2689338 0.1542938
0.2298292 0.2698692 0.1552292
0.2813646 0.2708046 0.1561646
0.3329001 0.2717401 0.1571001
0.3844355 0.2726755 0.1580355
0.4359710 0.2736110 0.1589710
0.4875064 0.2745464 0.1599064
0.5390418 0.2754818 0.1608418
0.5905773 0.2764173 0.1617773
0.6421127 0.2773527 0.1627127
0.6936482 0.2782882 0.1636482
0.7451836 0.2792236 0.1645836
0.7967190 0.2801590 0.1655190
0.8482545 0.2810945 0.1664545
0.8997899 0.2820299 0.1673899
0.9513254 0.2829654 0.1683254
0.1299052 0.3217452 0.1565052
0.1814406 0.3226806 0.1574406
0.2329761 0.3236161 0.1583761
0.2845115 0.3245515 0.1593115
0.3360470 0.3254870 0.1602470
0.3875824 0.3264224 0.1611824
0.4391178 0.3273578 0.1621178
0.4906533 0.3282933 0.1630533
0.5421887 0.3292287 0.1639887
0.5937242 0.3301642 0.1649242
0.6452596 0.3310996 0.1658596
0.6967950 0.3320350 0.1667950
0.7483305 0.3329705 0.1677305
0.7998659 0.3339059 0.1686659
0.8514014 0.3348414 0.1696014
0.9029368 0.3357768 0.1705368
0.9544722 0.3367122 0.1714722
0.1330521 0.3754921 0.1596521
0.1845875 0.3764275 0.1605875
0.2361230 0.3773630 0.1615230
0.2876584 0.3782984 0.1624584
0.3391938 0.3792338 0.1633938
0.3907293 0.3801693 0.1643293
0.4422647 0.3811047 0.1652647
0.4938002 0.3820402 0.1662002
0.5453356 0.3829756 0.1671356
0.5968710 0.3839110 0.1680710
0.6484065 0.3848465 0.1690065
0.6999419 0.3857819 0.1699419
0.7514774 0.3867174 0.1708774
0.8030128 0.3876528 0.1718128
0.8545482 0.3885882 0.1727482
0.9060837 0.3895237 0.1736837
0.9576191 0.3904591 0.1746191
0.1361990 0.4292390 0.1627990
0.1877344 0.4301744 0.1637344
0.2392698 0.4311098 0.1646698
0.2908053 0.4320453 0.1656053
0.3423407 0.4329807 0.1665407
0.3938762 0.4339162 0.1674762
0.4454116 0.4348516 0.1684116
0.4969470 0.4357870 0.1693470
0.5484825 0.4367225 0.1702825
0.6000179 0.4376579 0.1712179
0.6515534 0.4385934 0.1721534
0.7030888 0.4395288 0.1730888
0.7546242 0.4404642 0.1740242
0.8061597 0.4413997 0.1749597
0.8576951 0.4423351 0.1758951
0.9092306 0.4432706 0.1768306
0.9607660 0.4442060 0.1777660
0.1393458 0.4829858 0.1659458
0.1908813 0.4839213 0.1668813
0.2424167 0.4848567 0.1678167
0.2939522 0.4857922 0.1687522
0.3454876 0.4867276 0.1696876
0.3970230 0.4876630 0.1706230
0.4485585 0.4885985 0.1715585
0.5000939 0.4895339 0.1724939
0.5516294 0.4904694 0.1734294
0.6031648 0.4914048 0.1743648
0.6547002 0.4923402 0.1753002
0.7062357 0.4932757 0.1762357
0.7577711 0.4942111 0.1771711
0.8093066 0.4951466 0.1781066
0.8608420 0.4960820 0.1790420
0.9123774 0.4970174 0.1799774
0.9639129 0.4979529 0.1809129
0.1424927 0.5367327 0.1690927
0.1940282 0.5376682 0.1700282
0.2455636 0.5386036 0.1709636
0.2970990 0.5395390 0.1718990
0.3486345 0.5404745 0.1728345
0.4001699 0.5414099 0.1737699
0.4517054 0.5423454 0.1747054
0.5032408 0.5432808 0.1756408
0.5547762 0.5442162 0.1765762
0.6063117 0.5451517 0.1775117
0.6578471 0.5460871 0.1784471
0.7093826 0.5470226 0.1793826
0.7609180 0.5479580 0.1803180
0.8124534 0.5488934 0.1812534
0.8639889 0.5498289 0.1821889
0.9155243 0.5507643 0.1831243
0.9670598 0.5516998 0.1840598
0.1456396 0.5904796 0.1722396
0.1971750 0.5914150 0.1731750
0.2487105 0.5923505 0.1741105
0.3002459 0.5932859 0.1750459
0.3517814 0.5942214 0.1759814
0.4033168 0.5951568 0.1769168
0.4548522 0.5960922 0.1778522
0.5063877 0.5970277 0.1787877
0.5579231 0.5979631 0.1797231
0.6094586 0.5988986 0.1806586
0.6609940 0.5998340 0.1815940
0.7125294 0.6007694 0.1825294
0.7640649 0.6017049 0.1834649
0.8156003 0.6026403 0.1844003
0.8671358 0.6035758 0.1853358
0.9186712 0.6045112 0.1862712
0.9702066 0.6054466 0.1872066
0.1487865 0.6442265 0.1753865
0.2003219 0.6451619 0.1763219
0.2518574 0.6460974 0.1772574
0.3033928 0.6470328 0.1781928
0.3549282 0.6479682 0.1791282
0.4064637 0.6489037 0.1800637
0.4579991 0.6498391 0.1809991
0.5095346 0.6507746 0.1819346
0.5610700 0.6517100 0.1828700
0.6126054 0.6526454 0.1838054
0.6641409 0.6535809 0.1847409
0.7156763 0.6545163 0.1856763
0.7672118 0.6554518 0.1866118
0.8187472 0.6563872 0.1875472
0.8702826 0.6573226 0.1884826
0.9218181 0.6582581 0.1894181
0.9733535 0.6591935 0.1903535
0.1519334 0.6979734 0.1785334
0.2034688 0.6989088 0.1794688
0.2550042 0.6998442 0.1804042
0.3065397 0.7007797 0.1813397
0.3580751 0.7017151 0.1822751
0.4096106 0.7026506 0.1832106
0.4611460 0.7035860 0.1841460
0.5126814 0.7045214 0.1850814
0.5642169 0.7054569 0.1860169
0.6157523 0.7063923 0.1869523
0.6672878 0.7073278 0.1878878
0.7188232 0.7082632 0.1888232
0.7703586 0.7091986 0.1897586
0.8218941 0.7101341 0.1906941
0.8734295 0.7110695 0.1916295
0.9249650 0.7120050 0.1925650
0.9765004 0.7129404 0.1935004
0.1550802 0.7517202 0.1816802
0.2066157 0.7526557 0.1826157
0.2581511 0.7535911 0.1835511
0.3096866 0.7545266 0.1844866
0.3612220 0.7554620 0.1854220
0.4127574 0.7563974 0.1863574
0.4642929 0.7573329 0.1872929
0.5158283 0.7582683 0.1882283
0.5673638 0.7592038 0.1891638
0.6188992 0.7601392 0.1900992
0.6704346 0.7610746 0.1910346
0.7219701 0.7620101 0.1919701
0.7735055 0.7629455 0.1929055
0.8250410 0.7638810 0.1938410
0.8765764 0.7648164 0.1947764
0.9281118 0.7657518 0.1957118
0.9796473 0.7666873 0.1966473
0.1582271 0.8054671 0.1848271
0.2097626 0.8064026 0.1857626
0.2612980 0.8073380 0.1866980
0.3128334 0.8082734 0.1876334
0.3643689 0.8092089 0.1885689
0.4159043 0.8101443 0.1895043
0.4674398 0.8110798 0.1904398
0.5189752 0.8120152 0.1913752
0.5705106 0.8129506 0.1923106
0.6220461 0.8138861 0.1932461
0.6735815 0.8148215 0.1941815
0.7251170 0.8157570 0.1951170
0.7766524 0.8166924 0.1960524
0.8281878 0.8176278 0.1969878
0.8797233 0.8185633 0.1979233
0.9312587 0.8194987 0.1988587
0.9827942 0.8204342 0.1997942
0.1613740 0.8592140 0.1879740
0.2129094 0.8601494 0.1889094
0.2644449 0.8610849 0.1898449
0.3159803 0.8620203 0.1907803
0.3675158 0.8629558 0.1917158
0.4190512 0.8638912 0.1926512
0.4705866 0.8648266 0.1935866
0.5221221 0.8657621 0.1945221
0.5736575 0.8666975 0.1954575
0.6251930 0.8676330 0.1963930
0.6767284 0.8685684 0.1973284
0.7282638 0.8695038 0.1982638
0.7797993 0.8704393 0.1991993
0.8313347 0.8713747 0.2001347
0.8828702 0.8723102 0.2010702
0.9344056 0.8732456 0.2020056
0.9859410 0.8741810 0.2029410
0.1645209 0.9129609 0.1911209
0.2160563 0.9138963 0.1920563
0.2675918 0.9148318 0.1929918
0.3191272 0.9157672 0.1939272
0.3706626 0.9167026 0.1948626
0.4221981 0.9176381 0.1957981
0.4737335 0.9185735 0.1967335
0.5252690 0.9195090 0.1976690
0.5768044 0.9204444 0.1986044
0.6283398 0.9213798 0.1995398
0.6798753 0.9223153 0.2004753
0.7314107 0.9232507 0.2014107
0.7829462 0.9241862 0.2023462
0.8344816 0.9251216 0.2032816
0.8860170 0.9260570 0.2042170
0.9375525 0.9269925 0.2051525
0.9890879 0.9279279 0.2060879
0.1676678 0.9667078 0.1942678
0.2192032 0.9676432 0.1952032
0.2707386 0.9685786 0.1961386
0.3222741 0.9695141 0.1970741
0.3738095 0.9704495 0.1980095
0.4253450 0.9713850 0.1989450
0.4768804 0.9723204 0.1998804
0.5284158 0.9732558 0.2008158
0.5799513 0.9741913 0.2017513
0.6314867 0.9751267 0.2026867
0.6830222 0.9760622 0.2036222
0.7345576 0.9769976 0.2045576
0.7860930 0.9779330 0.2054930
0.8376285 0.9788685 0.2064285
0.8891639 0.9798039 0.2073639
0.9406994 0.9807394 0.2082994
0.9922348 0.9816748 0.2092348
0.1176354 0.1070754 0.1948354
0.1691708 0.1080108 0.1957708
0.2207062 0.1089462 0.1967062
0.2722417 0.1098817 0.1976417
0.3237771 0.1108171 0.1985771
0.3753126 0.1117526 0.1995126
0.4268480 0.1126880 0.2004480
0.4783834 0.1136234 0.2013834
0.5299189 0.1145589 0.2023189
0.5814543 0.1154943 0.2032543
0.6329898 0.1164298 0.2041898
0.6845252 0.1173652 0.2051252
0.7360606 0.1183006 0.2060606
0.7875961 0.1192361 0.2069961
0.8391315 0.1201715 0.2079315
0.8906670 0.1211070 0.2088670
0.9422024 0.1220424 0.2098024
0.1207822 0.1608222 0.1979822
0.1723177 0.1617577 0.1989177
0.2238531 0.1626931 0.1998531
0.2753886 0.1636286 0.2007886
0.3269240 0.1645640 0.2017240
0.3784594 0.1654994 0.2026594
0.4299949 0.1664349 0.2035949
0.4815303 0.1673703 0.2045303
0.5330658 0.1683058 0.2054658
0.5846012 0.1692412 0.2064012
0.6361366 0.1701766 0.2073366
0.6876721 0.1711121 0.2082721
0.7392075 0.1720475 0.2092075
0.7907430 0.1729830 0.2101430
0.8422784 0.1739184 0.2110784
0.8938138 0.1748538 0.2120138
0.9453493 0.1757893 0.2129493
0.1239291 0.2145691 0.2011291
0.1754646 0.2155046 0.2020646
0.2270000 0.2164400 0.2030000
0.2785354 0.2173754 0.2039354
0.3300709 0.2183109 0.2048709
0.3816063 0.2192463 0.2058063
0.4331418 0.2201818 0.2067418
0.4846772 0.2211172 0.2076772
0.5362126 0.2220526 0.2086126
0.5877481 0.2229881 0.2095481
0.6392835 0.2239235 0.2104835
0.6908190 0.2248590 0.2114190
0.7423544 0.2257944 0.2123544
0.7938898 0.2267298 0.2132898
0.8454253 0.2276653 0.2142253
0.8969607 0.2286007 0.2151607
0.9484962 0.2295362 0.2160962
0.1270760 0.2683160 0.2042760
0.1786114 0.2692514 0.2052114
0.2301469 0.2701869 0.2061469
0.2816823 0.2711223 0.2070823
0.3332178 0.2720578 0.2080178
0.3847532 0.2729932 0.2089532
0.4362886 0.2739286 0.2098886
0.4878241 0.2748641 0.2108241
0.5393595 0.2757995 0.2117595
0.5908950 0.2767350 0.2126950
0.6424304 0.2776704 0.2136304
0.6939658 0.2786058 0.2145658
0.7455013 0.2795413 0.2155013
0.7970367 0.2804767 0.2164367
0.8485722 0.2814122 0.2173722
0.9001076 0.2823476 0.2183076
0.9516430 0.2832830 0.2192430
0.1302229 0.3220629 0.2074229
0.1817583 0.3229983 0.2083583
0.2332938 0.3239338 0.2092938
0.2848292 0.3248692 0.2102292
0.3363646 0.3258046 0.2111646
0.3879001 0.3267401 0.2121001
0.4394355 0.3276755 0.2130355
0.4909710 0.3286110 0.2139710
0.5425064 0.3295464 0.2149064
0.5940418 0.3304818 0.2158418
0.6455773 0.3314173 0.2167773
0.6971127 0.3323527 0.2177127
0.7486482 0.3332882 0.2186482
0.8001836 0.3342236 0.2195836
0.8517190 0.3351590 0.2205190
0.9032545 0.3360945 0.2214545
0.9547899 0.3370299 0.2223899
0.1333698 0.3758098 0.2105698
0.1849052 0.3767452 0.2115052
0.2364406 0.3776806 0.2124406
0.2879761 0.3786161 0.2133761
0.3395115 0.3795515 0.2143115
0.3910470 0.3804870 0.2152470
0.4425824 0.3814224 0.2161824
0.4941178 0.3823578 0.2171178
0.5456533 0.3832933 0.2180533
0.5971887 0.3842287 0.2189887
0.6487242 0.3851642 0.2199242
0.7002596 0.3860996 0.2208596
0.7517950 0.3870350 0.2217950
0.8033305 0.3879705 0.2227305
0.8548659 0.3889059 0.2236659
0.9064014 0.3898414 0.2246014
0.9579368 0.3907768 0.2255368
0.1365166 0.4295566 0.2137166
0.1880521 0.4304921 0.2146521
0.2395875 0.4314275 0.2155875
0.2911230 0.4323630 0.2165230
0.3426584 0.4332984 0.2174584
0.3941938 0.4342338 0.2183938
0.4457293 0.4351693 0.2193293
0.4972647 0.4361047 0.2202647
0.5488002 0.4370402 0.2212002
0.6003356 0.4379756 0.2221356
0.6518710 0.4389110 0.2230710
0.7034065 0.4398465 0.2240065
0.7549419 0.4407819 0.2249419
0.8064774 0.4417174 0.2258774
0.8580128 0.4426528 0.2268128
0.9095482 0.4435882 0.2277482
0.9610837 0.4445237 0.2286837
0.1396635 0.4833035 0.2168635
0.1911990 0.4842390 0.2177990
0.2427344 0.4851744 0.2187344
0.2942698 0.4861098 0.2196698
0.3458053 0.4870453 0.2206053
0.3973407 0.4879807 0.2215407
0.4488762 0.4889162 0.2224762
0.5004116 0.4898516 0.2234116
0.5519470 0.4907870 0.2243470
0.6034825 0.4917225 0.2252825
0.6550179 0.4926579 0.2262179
0.7065534 0.4935934 0.2271534
0.7580888 0.4945288 0.2280888
0.8096242 0.4954642 0.2290242
0.8611597 0.4963997 0.2299597
0.9126951 0.4973351 0.2308951
0.9642306 0.4982706 0.2318306
0.1428104 0.5370504 0.2200104
0.1943458 0.5379858 0.2209458
0.2458813 0.5389213 0.2218813
0.2974167 0.5398567 0.2228167
0.3489522 0.5407922 0.2237522
0.4004876 0.5417276 0.2246876
0.4520230 0.5426630 0.2256230
0.5035585 0.5435985 0.2265585
0.5550939 0.5445339 0.2274939
0.6066294 0.5454694 0.2284294
0.6581648 0.5464048 0.2293648
0.7097002 0.5473402 0.2303002
0.7612357 0.5482757 0.2312357
0.8127711 0.5492111 0.2321711
0.8643066 0.5501466 0.2331066
0.9158420 0.5510820 0.2340420
0.9673774 0.5520174 0.2349774
0.1459573 0.5907973 0.2231573
0.1974927 0.5917327 0.2240927
0.2490282 0.5926682 0.2250282
0.3005636 0.5936036 0.2259636
0.3520990 0.5945390 0.2268990
0.4036345 0.5954745 0.2278345
0.4551699 0.5964099 0.2287699
0.5067054 0.5973454 0.2297054
0.5582408 0.5982808 0.2306408
0.6097762 0.5992162 0.2315762
0.6613117 0.6001517 0.2325117
0.7128471 0.6010871 0.2334471
0.7643826 0.6020226 0.2343826
0.8159180 0.6029580 0.2353180
0.8674534 0.6038934 0.2362534
0.9189889 0.6048289 0.2371889
0.9705243 0.6057643 0.2381243
0.1491042 0.6445442 0.2263042
0.2006396 0.6454796 0.2272396
0.2521750 0.6464150 0.2281750
0.3037105 0.6473505 0.2291105
0.3552459 0.6482859 0.2300459
0.4067814 0.6492214 0.2309814
0.4583168 0.6501568 0.2319168
0.5098522 0.6510922 0.2328522
0.5613877 0.6520277 0.2337877
0.6129231 0.6529631 0.2347231
0.6644586 0.6538986 0.2356586
0.7159940 0.6548340 0.2365940
0.7675294 0.6557694 0.2375294
0.8190649 0.6567049 0.2384649
0.8706003 0.6576403 0.2394003
0.9221358 0.6585758 0.2403358
0.9736712 0.6595112 0.2412712
0.1522510 0.6982910 0.2294510
0.2037865 0.6992265 0.2303865
0.2553219 0.7001619 0.2313219
0.3068574 0.7010974 0.2322574
0.3583928 0.7020328 0.2331928
0.4099282 0.7029682 0.2341282
0.4614637 0.7039037 0.2350637
0.5129991 0.7048391 0.2359991
0.5645346 0.7057746 0.2369346
0.6160700 0.7067100 0.2378700
0.6676054 0.7076454 0.2388054
0.7191409 0.7085809 0.2397409
0.7706763 0.7095163 0.2406763
0.8222118 0.7104518 0.2416118
0.8737472 0.7113872 0.2425472
0.9252826 0.7123226 0.2434826
0.9768181 0.7132581 0.2444181
0.1553979 0.7520379 0.2325979
0.2069334 0.7529734 0.2335334
0.2584688 0.7539088 0.2344688
0.3100042 0.7548442 0.2354042
0.3615397 0.7557797 0.2363397
0.4130751 0.7567151 0.2372751
0.4646106 0.7576506 0.2382106
0.5161460 0.7585860 0.2391460
0.5676814 0.7595214 0.2400814
0.6192169 0.7604569 0.2410169
