android/app/src/main/assets/luts/Vivid%20Color.cube
TITLE "MirrorBridge Vivid Color"
# Generated by scripts/generate_luts.py with {"contrast": 1.12, "lift": 0.0, "saturation": 1.24, "temperature": 0.0}
LUT_3D_SIZE 17
DOMAIN_MIN 0.0 0.0 0.0
DOMAIN_MAX 1.0 1.0 1.0
0.0000000 0.0000000 0.0000000
0.0232283 0.0000000 0.0000000
0.1064566 0.0000000 0.0000000
0.1896850 0.0000000 0.0000000
0.2729133 0.0000000 0.0000000
0.3561416 0.0000000 0.0000000
0.4393699 0.0000000 0.0000000
0.5225982 0.0000000 0.0000000
0.6058266 0.0000000 0.0000000
0.6890549 0.0000000 0.0000000
0.7722832 0.0000000 0.0000000
0.8555115 0.0000000 0.0000000
0.9387398 0.0000000 0.0000000
1.0000000 0.0000000 0.0000000
1.0000000 0.0000000 0.0000000
1.0000000 0.0000000 0.0000000
1.0000000 0.0000000 0.0000000
0.0000000 0.0147846 0.0000000
0.0112130 0.0112130 0.0000000
0.0944413 0.0076413 0.0000000
0.1776696 0.0040696 0.0000000
0.2608979 0.0004979 0.0000000
0.3441262 0.0000000 0.0000000
0.4273546 0.0000000 0.0000000
0.5105829 0.0000000 0.0000000
0.5938112 0.0000000 0.0000000
0.6770395 0.0000000 0.0000000
0.7602678 0.0000000 0.0000000
0.8434962 0.0000000 0.0000000
0.9267245 0.0000000 0.0000000
1.0000000 0.0000000 0.0000000
1.0000000 0.0000000 0.0000000
1.0000000 0.0000000 0.0000000
1.0000000 0.0000000 0.0000000
0.0000000 0.0895693 0.0000000
0.0000000 0.0859976 0.0000000
0.0824259 0.0824259 0.0000000
0.1656542 0.0788542 0.0000000
0.2488826 0.0752826 0.0000000
0.3321109 0.0717109 0.0000000
0.4153392 0.0681392 0.0000000
0.4985675 0.0645675 0.0000000
0.5817958 0.0609958 0.0000000
0.6650242 0.0574242 0.0000000
0.7482525 0.0538525 0.0000000
0.8314808 0.0502808 0.0000000
0.9147091 0.0467091 0.0000000
0.9979374 0.0431374 0.0000000
1.0000000 0.0395658 0.0000000
1.0000000 0.0359941 0.0000000
1.0000000 0.0324224 0.0000000
0.0000000 0.1643539 0.0000000
0.0000000 0.1607822 0.0000000
0.0704106 0.1572106 0.0000000
0.1536389 0.1536389 0.0000000
0.2368672 0.1500672 0.0000000
0.3200955 0.1464955 0.0000000
0.4033238 0.1429238 0.0000000
0.4865522 0.1393522 0.0000000
0.5697805 0.1357805 0.0000000
0.6530088 0.1322088 0.0000000
0.7362371 0.1286371 0.0000000
0.8194654 0.1250654 0.0000000
0.9026938 0.1214938 0.0000000
0.9859221 0.1179221 0.0000000
1.0000000 0.1143504 0.0000000
1.0000000 0.1107787 0.0000000
1.0000000 0.1072070 0.0000000
0.0000000 0.2391386 0.0000000
0.0000000 0.2355669 0.0000000
0.0583952 0.2319952 0.0000000
0.1416235 0.2284235 0.0000000
0.2248518 0.2248518 0.0000000
0.3080802 0.2212802 0.0000000
0.3913085 0.2177085 0.0000000
0.4745368 0.2141368 0.0000000
0.5577651 0.2105651 0.0000000
0.6409934 0.2069934 0.0000000
0.7242218 0.2034218 0.0000000
0.8074501 0.1998501 0.0000000
0.8906784 0.1962784 0.0000000
0.9739067 0.1927067 0.0000000
1.0000000 0.1891350 0.0000000
1.0000000 0.1855634 0.0000000
1.0000000 0.1819917 0.0000000
0.0000000 0.3139232 0.0000000
0.0000000 0.3103515 0.0000000
0.0463798 0.3067798 0.0000000
0.1296082 0.3032082 0.0000000
0.2128365 0.2996365 0.0000000
0.2960648 0.2960648 0.0000000
0.3792931 0.2924931 0.0000000
0.4625214 0.2889214 0.0000000
0.5457498 0.2853498 0.0000000
0.6289781 0.2817781 0.0000000
0.7122064 0.2782064 0.0000000
0.7954347 0.2746347 0.0000000
0.8786630 0.2710630 0.0000000
0.9618914 0.2674914 0.0000000
1.0000000 0.2639197 0.0000000
1.0000000 0.2603480 0.0000000
1.0000000 0.2567763 0.0000000
0.0000000 0.3887078 0.0000000
0.0000000 0.3851362 0.0000000
0.0343645 0.3815645 0.0000000
0.1175928 0.3779928 0.0000000
0.2008211 0.3744211 0.0000000
0.2840494 0.3708494 0.0000000
0.3672778 0.3672778 0.0000000
0.4505061 0.3637061 0.0000000
0.5337344 0.3601344 0.0000000
0.6169627 0.3565627 0.0000000
0.7001910 0.3529910 0.0000000
0.7834194 0.3494194 0.0000000
0.8666477 0.3458477 0.0000000
0.9498760 0.3422760 0.0000000
1.0000000 0.3387043 0.0000000
1.0000000 0.3351326 0.0000000
1.0000000 0.3315610 0.0000000
0.0000000 0.4634925 0.0000000
0.0000000 0.4599208 0.0000000
0.0223491 0.4563491 0.0000000
0.1055774 0.4527774 0.0000000
0.1888058 0.4492058 0.0000000
0.2720341 0.4456341 0.0000000
0.3552624 0.4420624 0.0000000
0.4384907 0.4384907 0.0000000
0.5217190 0.4349190 0.0000000
0.6049474 0.4313474 0.0000000
0.6881757 0.4277757 0.0000000
0.7714040 0.4242040 0.0000000
0.8546323 0.4206323 0.0000000
0.9378606 0.4170606 0.0000000
1.0000000 0.4134890 0.0000000
1.0000000 0.4099173 0.0000000
1.0000000 0.4063456 0.0000000
0.0000000 0.5382771 0.0000000
0.0000000 0.5347054 0.0000000
0.0103338 0.5311338 0.0000000
0.0935621 0.5275621 0.0000000
0.1767904 0.5239904 0.0000000
0.2600187 0.5204187 0.0000000
0.3432470 0.5168470 0.0000000
0.4264754 0.5132754 0.0000000
0.5097037 0.5097037 0.0000000
0.5929320 0.5061320 0.0000000
0.6761603 0.5025603 0.0000000
0.7593886 0.4989886 0.0000000
0.8426170 0.4954170 0.0000000
0.9258453 0.4918453 0.0000000
1.0000000 0.4882736 0.0000000
1.0000000 0.4847019 0.0000000
1.0000000 0.4811302 0.0000000
0.0000000 0.6130618 0.0000000
0.0000000 0.6094901 0.0000000
0.0000000 0.6059184 0.0000000
0.0815467 0.6023467 0.0000000
0.1647750 0.5987750 0.0000000
0.2480034 0.5952034 0.0000000
0.3312317 0.5916317 0.0000000
0.4144600 0.5880600 0.0000000
0.4976883 0.5844883 0.0000000
0.5809166 0.5809166 0.0000000
0.6641450 0.5773450 0.0000000
0.7473733 0.5737733 0.0000000
0.8306016 0.5702016 0.0000000
0.9138299 0.5666299 0.0000000
0.9970582 0.5630582 0.0000000
1.0000000 0.5594866 0.0000000
1.0000000 0.5559149 0.0000000
0.0000000 0.6878464 0.0000000
0.0000000 0.6842747 0.0000000
0.0000000 0.6807030 0.0000000
0.0695314 0.6771314 0.0000000
0.1527597 0.6735597 0.0000000
0.2359880 0.6699880 0.0000000
0.3192163 0.6664163 0.0000000
0.4024446 0.6628446 0.0000000
0.4856730 0.6592730 0.0000000
0.5689013 0.6557013 0.0000000
0.6521296 0.6521296 0.0000000
0.7353579 0.6485579 0.0000000
0.8185862 0.6449862 0.0000000
0.9018146 0.6414146 0.0000000
0.9850429 0.6378429 0.0000000
1.0000000 0.6342712 0.0000000
1.0000000 0.6306995 0.0000000
0.0000000 0.7626310 0.0000000
0.0000000 0.7590594 0.0000000
0.0000000 0.7554877 0.0000000
0.0575160 0.7519160 0.0000000
0.1407443 0.7483443 0.0000000
0.2239726 0.7447726 0.0000000
0.3072010 0.7412010 0.0000000
0.3904293 0.7376293 0.0000000
0.4736576 0.7340576 0.0000000
0.5568859 0.7304859 0.0000000
0.6401142 0.7269142 0.0000000
0.7233426 0.7233426 0.0000000
0.8065709 0.7197709 0.0000000
0.8897992 0.7161992 0.0000000
0.9730275 0.7126275 0.0000000
1.0000000 0.7090558 0.0000000
1.0000000 0.7054842 0.0000000
0.0000000 0.8374157 0.0000000
0.0000000 0.8338440 0.0000000
0.0000000 0.8302723 0.0000000
0.0455006 0.8267006 0.0000000
0.1287290 0.8231290 0.0000000
0.2119573 0.8195573 0.0000000
0.2951856 0.8159856 0.0000000
0.3784139 0.8124139 0.0000000
0.4616422 0.8088422 0.0000000
0.5448706 0.8052706 0.0000000
0.6280989 0.8016989 0.0000000
0.7113272 0.7981272 0.0000000
0.7945555 0.7945555 0.0000000
0.8777838 0.7909838 0.0000000
0.9610122 0.7874122 0.0000000
1.0000000 0.7838405 0.0000000
1.0000000 0.7802688 0.0000000
0.0000000 0.9122003 0.0000000
0.0000000 0.9086286 0.0000000
0.0000000 0.9050570 0.0000000
0.0334853 0.9014853 0.0000000
0.1167136 0.8979136 0.0000000
0.1999419 0.8943419 0.0000000
0.2831702 0.8907702 0.0000000
0.3663986 0.8871986 0.0000000
0.4496269 0.8836269 0.0000000
0.5328552 0.8800552 0.0000000
0.6160835 0.8764835 0.0000000
0.6993118 0.8729118 0.0000000
0.7825402 0.8693402 0.0000000
0.8657685 0.8657685 0.0000000
0.9489968 0.8621968 0.0000000
1.0000000 0.8586251 0.0000000
1.0000000 0.8550534 0.0000000
0.0000000 0.9869850 0.0000000
0.0000000 0.9834133 0.0000000
0.0000000 0.9798416 0.0000000
0.0214699 0.9762699 0.0000000
0.1046982 0.9726982 0.0000000
0.1879266 0.9691266 0.0000000
0.2711549 0.9655549 0.0000000
0.3543832 0.9619832 0.0000000
0.4376115 0.9584115 0.0000000
0.5208398 0.9548398 0.0000000
0.6040682 0.9512682 0.0000000
0.6872965 0.9476965 0.0000000
0.7705248 0.9441248 0.0000000
0.8537531 0.9405531 0.0000000
0.9369814 0.9369814 0.0000000
1.0000000 0.9334098 0.0000000
1.0000000 0.9298381 0.0000000
0.0000000 1.0000000 0.0000000
0.0000000 1.0000000 0.0000000
0.0000000 1.0000000 0.0000000
0.0094546 1.0000000 0.0000000
0.0926829 1.0000000 0.0000000
0.1759112 1.0000000 0.0000000
0.2591395 1.0000000 0.0000000
0.3423678 1.0000000 0.0000000
0.4255962 1.0000000 0.0000000
0.5088245 1.0000000 0.0000000
0.5920528 1.0000000 0.0000000
0.6752811 1.0000000 0.0000000
0.7585094 1.0000000 0.0000000
0.8417378 1.0000000 0.0000000
0.9249661 1.0000000 0.0000000
1.0000000 1.0000000 0.0000000
1.0000000 1.0000000 0.0000000
0.0000000 1.0000000 0.0000000
0.0000000 1.0000000 0.0000000
0.0000000 1.0000000 0.0000000
0.0000000 1.0000000 0.0000000
0.0806675 1.0000000 0.0000000
0.1638958 1.0000000 0.0000000
0.2471242 1.0000000 0.0000000
0.3303525 1.0000000 0.0000000
0.4135808 1.0000000 0.0000000
0.4968091 1.0000000 0.0000000
0.5800374 1.0000000 0.0000000
0.6632658 1.0000000 0.0000000
0.7464941 1.0000000 0.0000000
0.8297224 1.0000000 0.0000000
0.9129507 1.0000000 0.0000000
0.9961790 1.0000000 0.0000000
1.0000000 1.0000000 0.0000000
0.0000000 0.0000000 0.0255870
0.0220154 0.0000000 0.0220154
0.1052437 0.0000000 0.0184437
0.1884720 0.0000000 0.0148720
0.2717003 0.0000000 0.0113003
0.3549286 0.0000000 0.0077286
0.4381570 0.0000000 0.0041570
0.5213853 0.0000000 0.0005853
0.6046136 0.0000000 0.0000000
0.6878419 0.0000000 0.0000000
0.7710702 0.0000000 0.0000000
0.8542986 0.0000000 0.0000000
0.9375269 0.0000000 0.0000000
1.0000000 0.0000000 0.0000000
1.0000000 0.0000000 0.0000000
1.0000000 0.0000000 0.0000000
1.0000000 0.0000000 0.0000000
0.0000000 0.0135717 0.0135717
0.0100000 0.0100000 0.0100000
0.0932283 0.0064283 0.0064283
0.1764566 0.0028566 0.0028566
0.2596850 0.0000000 0.0000000
0.3429133 0.0000000 0.0000000
0.4261416 0.0000000 0.0000000
0.5093699 0.0000000 0.0000000
0.5925982 0.0000000 0.0000000
0.6758266 0.0000000 0.0000000
0.7590549 0.0000000 0.0000000
0.8422832 0.0000000 0.0000000
0.9255115 0.0000000 0.0000000
1.0000000 0.0000000 0.0000000
1.0000000 0.0000000 0.0000000
1.0000000 0.0000000 0.0000000
1.0000000 0.0000000 0.0000000
0.0000000 0.0883563 0.0015563
0.0000000 0.0847846 0.0000000
0.0812130 0.0812130 0.0000000
0.1644413 0.0776413 0.0000000
0.2476696 0.0740696 0.0000000
0.3308979 0.0704979 0.0000000
0.4141262 0.0669262 0.0000000
0.4973546 0.0633546 0.0000000
0.5805829 0.0597829 0.0000000
0.6638112 0.0562112 0.0000000
0.7470395 0.0526395 0.0000000
0.8302678 0.0490678 0.0000000
0.9134962 0.0454962 0.0000000
0.9967245 0.0419245 0.0000000
1.0000000 0.0383528 0.0000000
1.0000000 0.0347811 0.0000000
1.0000000 0.0312094 0.0000000
0.0000000 0.1631410 0.0000000
0.0000000 0.1595693 0.0000000
0.0691976 0.1559976 0.0000000
0.1524259 0.1524259 0.0000000
0.2356542 0.1488542 0.0000000
0.3188826 0.1452826 0.0000000
0.4021109 0.1417109 0.0000000
0.4853392 0.1381392 0.0000000
0.5685675 0.1345675 0.0000000
0.6517958 0.1309958 0.0000000
0.7350242 0.1274242 0.0000000
0.8182525 0.1238525 0.0000000
0.9014808 0.1202808 0.0000000
0.9847091 0.1167091 0.0000000
1.0000000 0.1131374 0.0000000
1.0000000 0.1095658 0.0000000
1.0000000 0.1059941 0.0000000
0.0000000 0.2379256 0.0000000
0.0000000 0.2343539 0.0000000
0.0571822 0.2307822 0.0000000
0.1404106 0.2272106 0.0000000
0.2236389 0.2236389 0.0000000
0.3068672 0.2200672 0.0000000
0.3900955 0.2164955 0.0000000
0.4733238 0.2129238 0.0000000
0.5565522 0.2093522 0.0000000
0.6397805 0.2057805 0.0000000
0.7230088 0.2022088 0.0000000
0.8062371 0.1986371 0.0000000
0.8894654 0.1950654 0.0000000
0.9726938 0.1914938 0.0000000
1.0000000 0.1879221 0.0000000
1.0000000 0.1843504 0.0000000
1.0000000 0.1807787 0.0000000
0.0000000 0.3127102 0.0000000
0.0000000 0.3091386 0.0000000
0.0451669 0.3055669 0.0000000
0.1283952 0.3019952 0.0000000
0.2116235 0.2984235 0.0000000
0.2948518 0.2948518 0.0000000
0.3780802 0.2912802 0.0000000
0.4613085 0.2877085 0.0000000
0.5445368 0.2841368 0.0000000
0.6277651 0.2805651 0.0000000
0.7109934 0.2769934 0.0000000
0.7942218 0.2734218 0.0000000
0.8774501 0.2698501 0.0000000
0.9606784 0.2662784 0.0000000
1.0000000 0.2627067 0.0000000
1.0000000 0.2591350 0.0000000
1.0000000 0.2555634 0.0000000
0.0000000 0.3874949 0.0000000
0.0000000 0.3839232 0.0000000
0.0331515 0.3803515 0.0000000
0.1163798 0.3767798 0.0000000
0.1996082 0.3732082 0.0000000
0.2828365 0.3696365 0.0000000
0.3660648 0.3660648 0.0000000
0.4492931 0.3624931 0.0000000
0.5325214 0.3589214 0.0000000
0.6157498 0.3553498 0.0000000
0.6989781 0.3517781 0.0000000
0.7822064 0.3482064 0.0000000
0.8654347 0.3446347 0.0000000
0.9486630 0.3410630 0.0000000
1.0000000 0.3374914 0.0000000
1.0000000 0.3339197 0.0000000
1.0000000 0.3303480 0.0000000
0.0000000 0.4622795 0.0000000
0.0000000 0.4587078 0.0000000
0.0211362 0.4551362 0.0000000
0.1043645 0.4515645 0.0000000
0.1875928 0.4479928 0.0000000
0.2708211 0.4444211 0.0000000
0.3540494 0.4408494 0.0000000
0.4372778 0.4372778 0.0000000
0.5205061 0.4337061 0.0000000
0.6037344 0.4301344 0.0000000
0.6869627 0.4265627 0.0000000
0.7701910 0.4229910 0.0000000
0.8534194 0.4194194 0.0000000
0.9366477 0.4158477 0.0000000
1.0000000 0.4122760 0.0000000
1.0000000 0.4087043 0.0000000
1.0000000 0.4051326 0.0000000
0.0000000 0.5370642 0.0000000
0.0000000 0.5334925 0.0000000
0.0091208 0.5299208 0.0000000
0.0923491 0.5263491 0.0000000
0.1755774 0.5227774 0.0000000
0.2588058 0.5192058 0.0000000
0.3420341 0.5156341 0.0000000
0.4252624 0.5120624 0.0000000
0.5084907 0.5084907 0.0000000
0.5917190 0.5049190 0.0000000
0.6749474 0.5013474 0.0000000
0.7581757 0.4977757 0.0000000
0.8414040 0.4942040 0.0000000
0.9246323 0.4906323 0.0000000
1.0000000 0.4870606 0.0000000
1.0000000 0.4834890 0.0000000
1.0000000 0.4799173 0.0000000
0.0000000 0.6118488 0.0000000
0.0000000 0.6082771 0.0000000
0.0000000 0.6047054 0.0000000
0.0803338 0.6011338 0.0000000
0.1635621 0.5975621 0.0000000
0.2467904 0.5939904 0.0000000
0.3300187 0.5904187 0.0000000
0.4132470 0.5868470 0.0000000
0.4964754 0.5832754 0.0000000
0.5797037 0.5797037 0.0000000
0.6629320 0.5761320 0.0000000
0.7461603 0.5725603 0.0000000
0.8293886 0.5689886 0.0000000
0.9126170 0.5654170 0.0000000
0.9958453 0.5618453 0.0000000
1.0000000 0.5582736 0.0000000
1.0000000 0.5547019 0.0000000
0.0000000 0.6866334 0.0000000
0.0000000 0.6830618 0.0000000
0.0000000 0.6794901 0.0000000
0.0683184 0.6759184 0.0000000
0.1515467 0.6723467 0.0000000
0.2347750 0.6687750 0.0000000
0.3180034 0.6652034 0.0000000
0.4012317 0.6616317 0.0000000
0.4844600 0.6580600 0.0000000
0.5676883 0.6544883 0.0000000
0.6509166 0.6509166 0.0000000
0.7341450 0.6473450 0.0000000
0.8173733 0.6437733 0.0000000
0.9006016 0.6402016 0.0000000
0.9838299 0.6366299 0.0000000
1.0000000 0.6330582 0.0000000
1.0000000 0.6294866 0.0000000
0.0000000 0.7614181 0.0000000
0.0000000 0.7578464 0.0000000
0.0000000 0.7542747 0.0000000
0.0563030 0.7507030 0.0000000
0.1395314 0.7471314 0.0000000
0.2227597 0.7435597 0.0000000
0.3059880 0.7399880 0.0000000
0.3892163 0.7364163 0.0000000
0.4724446 0.7328446 0.0000000
0.5556730 0.7292730 0.0000000
0.6389013 0.7257013 0.0000000
0.7221296 0.7221296 0.0000000
0.8053579 0.7185579 0.0000000
0.8885862 0.7149862 0.0000000
0.9718146 0.7114146 0.0000000
1.0000000 0.7078429 0.0000000
1.0000000 0.7042712 0.0000000
0.0000000 0.8362027 0.0000000
0.0000000 0.8326310 0.0000000
0.0000000 0.8290594 0.0000000
0.0442877 0.8254877 0.0000000
0.1275160 0.8219160 0.0000000
0.2107443 0.8183443 0.0000000
0.2939726 0.8147726 0.0000000
0.3772010 0.8112010 0.0000000
0.4604293 0.8076293 0.0000000
0.5436576 0.8040576 0.0000000
0.6268859 0.8004859 0.0000000
0.7101142 0.7969142 0.0000000
0.7933426 0.7933426 0.0000000
0.8765709 0.7897709 0.0000000
0.9597992 0.7861992 0.0000000
1.0000000 0.7826275 0.0000000
1.0000000 0.7790558 0.0000000
0.0000000 0.9109874 0.0000000
0.0000000 0.9074157 0.0000000
0.0000000 0.9038440 0.0000000
0.0322723 0.9002723 0.0000000
0.1155006 0.8967006 0.0000000
0.1987290 0.8931290 0.0000000
0.2819573 0.8895573 0.0000000
0.3651856 0.8859856 0.0000000
0.4484139 0.8824139 0.0000000
0.5316422 0.8788422 0.0000000
0.6148706 0.8752706 0.0000000
0.6980989 0.8716989 0.0000000
0.7813272 0.8681272 0.0000000
0.8645555 0.8645555 0.0000000
0.9477838 0.8609838 0.0000000
1.0000000 0.8574122 0.0000000
1.0000000 0.8538405 0.0000000
0.0000000 0.9857720 0.0000000
0.0000000 0.9822003 0.0000000
0.0000000 0.9786286 0.0000000
0.0202570 0.9750570 0.0000000
0.1034853 0.9714853 0.0000000
0.1867136 0.9679136 0.0000000
0.2699419 0.9643419 0.0000000
0.3531702 0.9607702 0.0000000
0.4363986 0.9571986 0.0000000
0.5196269 0.9536269 0.0000000
0.6028552 0.9500552 0.0000000
0.6860835 0.9464835 0.0000000
0.7693118 0.9429118 0.0000000
0.8525402 0.9393402 0.0000000
0.9357685 0.9357685 0.0000000
1.0000000 0.9321968 0.0000000
1.0000000 0.9286251 0.0000000
0.0000000 1.0000000 0.0000000
0.0000000 1.0000000 0.0000000
0.0000000 1.0000000 0.0000000
0.0082416 1.0000000 0.0000000
0.0914699 1.0000000 0.0000000
0.1746982 1.0000000 0.0000000
0.2579266 1.0000000 0.0000000
0.3411549 1.0000000 0.0000000
0.4243832 1.0000000 0.0000000
0.5076115 1.0000000 0.0000000
0.5908398 1.0000000 0.0000000
0.6740682 1.0000000 0.0000000
0.7572965 1.0000000 0.0000000
0.8405248 1.0000000 0.0000000
0.9237531 1.0000000 0.0000000
1.0000000 1.0000000 0.0000000
1.0000000 1.0000000 0.0000000
0.0000000 1.0000000 0.0000000
0.0000000 1.0000000 0.0000000
0.0000000 1.0000000 0.0000000
0.0000000 1.0000000 0.0000000
0.0794546 1.0000000 0.0000000
0.1626829 1.0000000 0.0000000
0.2459112 1.0000000 0.0000000
0.3291395 1.0000000 0.0000000
0.4123678 1.0000000 0.0000000
0.4955962 1.0000000 0.0000000
0.5788245 1.0000000 0.0000000
0.6620528 1.0000000 0.0000000
0.7452811 1.0000000 0.0000000
0.8285094 1.0000000 0.0000000
0.9117378 1.0000000 0.0000000
0.9949661 1.0000000 0.0000000
1.0000000 1.0000000 0.0000000
0.0000000 0.0000000 0.1111741
0.0208024 0.0000000 0.1076024
0.1040307 0.0000000 0.1040307
0.1872590 0.0000000 0.1004590
0.2704874 0.0000000 0.0968874
0.3537157 0.0000000 0.0933157
0.4369440 0.0000000 0.0897440
0.5201723 0.0000000 0.0861723
0.6034006 0.0000000 0.0826006
0.6866290 0.0000000 0.0790290
0.7698573 0.0000000 0.0754573
0.8530856 0.0000000 0.0718856
0.9363139 0.0000000 0.0683139
1.0000000 0.0000000 0.0647422
1.0000000 0.0000000 0.0611706
1.0000000 0.0000000 0.0575989
1.0000000 0.0000000 0.0540272
0.0000000 0.0123587 0.0991587
0.0087870 0.0087870 0.0955870
0.0920154 0.0052154 0.0920154
0.1752437 0.0016437 0.0884437
0.2584720 0.0000000 0.0848720
0.3417003 0.0000000 0.0813003
0.4249286 0.0000000 0.0777286
0.5081570 0.0000000 0.0741570
0.5913853 0.0000000 0.0705853
0.6746136 0.0000000 0.0670136
0.7578419 0.0000000 0.0634419
0.8410702 0.0000000 0.0598702
0.9242986 0.0000000 0.0562986
1.0000000 0.0000000 0.0527269
1.0000000 0.0000000 0.0491552
1.0000000 0.0000000 0.0455835
1.0000000 0.0000000 0.0420118
0.0000000 0.0871434 0.0871434
0.0000000 0.0835717 0.0835717
0.0800000 0.0800000 0.0800000
0.1632283 0.0764283 0.0764283
0.2464566 0.0728566 0.0728566
0.3296850 0.0692850 0.0692850
0.4129133 0.0657133 0.0657133
0.4961416 0.0621416 0.0621416
0.5793699 0.0585699 0.0585699
0.6625982 0.0549982 0.0549982
0.7458266 0.0514266 0.0514266
0.8290549 0.0478549 0.0478549
0.9122832 0.0442832 0.0442832
0.9955115 0.0407115 0.0407115
1.0000000 0.0371398 0.0371398
1.0000000 0.0335682 0.0335682
1.0000000 0.0299965 0.0299965
0.0000000 0.1619280 0.0751280
0.0000000 0.1583563 0.0715563
0.0679846 0.1547846 0.0679846
0.1512130 0.1512130 0.0644130
0.2344413 0.1476413 0.0608413
0.3176696 0.1440696 0.0572696
0.4008979 0.1404979 0.0536979
0.4841262 0.1369262 0.0501262
0.5673546 0.1333546 0.0465546
0.6505829 0.1297829 0.0429829
0.7338112 0.1262112 0.0394112
0.8170395 0.1226395 0.0358395
0.9002678 0.1190678 0.0322678
0.9834962 0.1154962 0.0286962
1.0000000 0.1119245 0.0251245
1.0000000 0.1083528 0.0215528
1.0000000 0.1047811 0.0179811
0.0000000 0.2367126 0.0631126
0.0000000 0.2331410 0.0595410
0.0559693 0.2295693 0.0559693
0.1391976 0.2259976 0.0523976
0.2224259 0.2224259 0.0488259
0.3056542 0.2188542 0.0452542
0.3888826 0.2152826 0.0416826
0.4721109 0.2117109 0.0381109
0.5553392 0.2081392 0.0345392
0.6385675 0.2045675 0.0309675
0.7217958 0.2009958 0.0273958
0.8050242 0.1974242 0.0238242
0.8882525 0.1938525 0.0202525
0.9714808 0.1902808 0.0166808
1.0000000 0.1867091 0.0131091
1.0000000 0.1831374 0.0095374
1.0000000 0.1795658 0.0059658
0.0000000 0.3114973 0.0510973
0.0000000 0.3079256 0.0475256
0.0439539 0.3043539 0.0439539
0.1271822 0.3007822 0.0403822
0.2104106 0.2972106 0.0368106
0.2936389 0.2936389 0.0332389
0.3768672 0.2900672 0.0296672
0.4600955 0.2864955 0.0260955
0.5433238 0.2829238 0.0225238
0.6265522 0.2793522 0.0189522
0.7097805 0.2757805 0.0153805
0.7930088 0.2722088 0.0118088
0.8762371 0.2686371 0.0082371
0.9594654 0.2650654 0.0046654
1.0000000 0.2614938 0.0010938
1.0000000 0.2579221 0.0000000
1.0000000 0.2543504 0.0000000
0.0000000 0.3862819 0.0390819
0.0000000 0.3827102 0.0355102
0.0319386 0.3791386 0.0319386
0.1151669 0.3755669 0.0283669
0.1983952 0.3719952 0.0247952
0.2816235 0.3684235 0.0212235
0.3648518 0.3648518 0.0176518
0.4480802 0.3612802 0.0140802
0.5313085 0.3577085 0.0105085
0.6145368 0.3541368 0.0069368
0.6977651 0.3505651 0.0033651
0.7809934 0.3469934 0.0000000
0.8642218 0.3434218 0.0000000
0.9474501 0.3398501 0.0000000
1.0000000 0.3362784 0.0000000
1.0000000 0.3327067 0.0000000
1.0000000 0.3291350 0.0000000
0.0000000 0.4610666 0.0270666
0.0000000 0.4574949 0.0234949
0.0199232 0.4539232 0.0199232
0.1031515 0.4503515 0.0163515
0.1863798 0.4467798 0.0127798
0.2696082 0.4432082 0.0092082
0.3528365 0.4396365 0.0056365
0.4360648 0.4360648 0.0020648
0.5192931 0.4324931 0.0000000
0.6025214 0.4289214 0.0000000
0.6857498 0.4253498 0.0000000
0.7689781 0.4217781 0.0000000
0.8522064 0.4182064 0.0000000
0.9354347 0.4146347 0.0000000
1.0000000 0.4110630 0.0000000
1.0000000 0.4074914 0.0000000
1.0000000 0.4039197 0.0000000
0.0000000 0.5358512 0.0150512
0.0000000 0.5322795 0.0114795
0.0079078 0.5287078 0.0079078
0.0911362 0.5251362 0.0043362
0.1743645 0.5215645 0.0007645
0.2575928 0.5179928 0.0000000
0.3408211 0.5144211 0.0000000
0.4240494 0.5108494 0.0000000
0.5072778 0.5072778 0.0000000
0.5905061 0.5037061 0.0000000
0.6737344 0.5001344 0.0000000
0.7569627 0.4965627 0.0000000
0.8401910 0.4929910 0.0000000
0.9234194 0.4894194 0.0000000
1.0000000 0.4858477 0.0000000
1.0000000 0.4822760 0.0000000
1.0000000 0.4787043 0.0000000
0.0000000 0.6106358 0.0030358
0.0000000 0.6070642 0.0000000
0.0000000 0.6034925 0.0000000
0.0791208 0.5999208 0.0000000
0.1623491 0.5963491 0.0000000
0.2455774 0.5927774 0.0000000
0.3288058 0.5892058 0.0000000
0.4120341 0.5856341 0.0000000
0.4952624 0.5820624 0.0000000
0.5784907 0.5784907 0.0000000
0.6617190 0.5749190 0.0000000
0.7449474 0.5713474 0.0000000
0.8281757 0.5677757 0.0000000
0.9114040 0.5642040 0.0000000
0.9946323 0.5606323 0.0000000
1.0000000 0.5570606 0.0000000
1.0000000 0.5534890 0.0000000
0.0000000 0.6854205 0.0000000
0.0000000 0.6818488 0.0000000
0.0000000 0.6782771 0.0000000
0.0671054 0.6747054 0.0000000
0.1503338 0.6711338 0.0000000
0.2335621 0.6675621 0.0000000
0.3167904 0.6639904 0.0000000
0.4000187 0.6604187 0.0000000
0.4832470 0.6568470 0.0000000
0.5664754 0.6532754 0.0000000
0.6497037 0.6497037 0.0000000
0.7329320 0.6461320 0.0000000
0.8161603 0.6425603 0.0000000
0.8993886 0.6389886 0.0000000
0.9826170 0.6354170 0.0000000
1.0000000 0.6318453 0.0000000
1.0000000 0.6282736 0.0000000
0.0000000 0.7602051 0.0000000
0.0000000 0.7566334 0.0000000
0.0000000 0.7530618 0.0000000
0.0550901 0.7494901 0.0000000
0.1383184 0.7459184 0.0000000
0.2215467 0.7423467 0.0000000
0.3047750 0.7387750 0.0000000
0.3880034 0.7352034 0.0000000
0.4712317 0.7316317 0.0000000
0.5544600 0.7280600 0.0000000
0.6376883 0.7244883 0.0000000
0.7209166 0.7209166 0.0000000
0.8041450 0.7173450 0.0000000
0.8873733 0.7137733 0.0000000
0.9706016 0.7102016 0.0000000
1.0000000 0.7066299 0.0000000
1.0000000 0.7030582 0.0000000
0.0000000 0.8349898 0.0000000
0.0000000 0.8314181 0.0000000
0.0000000 0.8278464 0.0000000
0.0430747 0.8242747 0.0000000
0.1263030 0.8207030 0.0000000
0.2095314 0.8171314 0.0000000
0.2927597 0.8135597 0.0000000
0.3759880 0.8099880 0.0000000
0.4592163 0.8064163 0.0000000
0.5424446 0.8028446 0.0000000
