android/app/src/main/assets/luts/Vivid%20Color.cube
TITLE "MirrorBridge Vivid Color"
# Generated by scripts/generate_luts.py with {"contrast": 1.12, "lift": 0.0, "saturation": 1.24, "temperature": 0.0}
LUT_3D_SIZE 9
DOMAIN_MIN 0.0 0.0 0.0
DOMAIN_MAX 1.0 1.0 1.0
0.0000000 0.0000000 0.0000000
0.1064566 0.0000000 0.0000000
0.2729133 0.0000000 0.0000000
0.4393699 0.0000000 0.0000000
0.6058266 0.0000000 0.0000000
0.7722832 0.0000000 0.0000000
0.9387398 0.0000000 0.0000000
1.0000000 0.0000000 0.0000000
1.0000000 0.0000000 0.0000000
0.0000000 0.0895693 0.0000000
0.0824259 0.0824259 0.0000000
0.2488826 0.0752826 0.0000000
0.4153392 0.0681392 0.0000000
0.5817958 0.0609958 0.0000000
0.7482525 0.0538525 0.0000000
0.9147091 0.0467091 0.0000000
1.0000000 0.0395658 0.0000000
1.0000000 0.0324224 0.0000000
0.0000000 0.2391386 0.0000000
0.0583952 0.2319952 0.0000000
0.2248518 0.2248518 0.0000000
0.3913085 0.2177085 0.0000000
0.5577651 0.2105651 0.0000000
0.7242218 0.2034218 0.0000000
0.8906784 0.1962784 0.0000000
1.0000000 0.1891350 0.0000000
1.0000000 0.1819917 0.0000000
0.0000000 0.3887078 0.0000000
0.0343645 0.3815645 0.0000000
0.2008211 0.3744211 0.0000000
0.3672778 0.3672778 0.0000000
0.5337344 0.3601344 0.0000000
0.7001910 0.3529910 0.0000000
0.8666477 0.3458477 0.0000000
1.0000000 0.3387043 0.0000000
1.0000000 0.3315610 0.0000000
0.0000000 0.5382771 0.0000000
0.0103338 0.5311338 0.0000000
0.1767904 0.5239904 0.0000000
0.3432470 0.5168470 0.0000000
0.5097037 0.5097037 0.0000000
0.6761603 0.5025603 0.0000000
0.8426170 0.4954170 0.0000000
1.0000000 0.4882736 0.0000000
1.0000000 0.4811302 0.0000000
0.0000000 0.6878464 0.0000000
0.0000000 0.6807030 0.0000000
0.1527597 0.6735597 0.0000000
0.3192163 0.6664163 0.0000000
0.4856730 0.6592730 0.0000000
0.6521296 0.6521296 0.0000000
0.8185862 0.6449862 0.0000000
0.9850429 0.6378429 0.0000000
1.0000000 0.6306995 0.0000000
0.0000000 0.8374157 0.0000000
0.0000000 0.8302723 0.0000000
0.1287290 0.8231290 0.0000000
0.2951856 0.8159856 0.0000000
0.4616422 0.8088422 0.0000000
0.6280989 0.8016989 0.0000000
0.7945555 0.7945555 0.0000000
0.9610122 0.7874122 0.0000000
1.0000000 0.7802688 0.0000000
0.0000000 0.9869850 0.0000000
0.0000000 0.9798416 0.0000000
0.1046982 0.9726982 0.0000000
0.2711549 0.9655549 0.0000000
0.4376115 0.9584115 0.0000000
0.6040682 0.9512682 0.0000000
0.7705248 0.9441248 0.0000000
0.9369814 0.9369814 0.0000000
1.0000000 0.9298381 0.0000000
0.0000000 1.0000000 0.0000000
0.0000000 1.0000000 0.0000000
0.0806675 1.0000000 0.0000000
0.2471242 1.0000000 0.0000000
0.4135808 1.0000000 0.0000000
0.5800374 1.0000000 0.0000000
0.7464941 1.0000000 0.0000000
0.9129507 1.0000000 0.0000000
1.0000000 1.0000000 0.0000000
0.0000000 0.0000000 0.1111741
0.1040307 0.0000000 0.1040307
0.2704874 0.0000000 0.0968874
0.4369440 0.0000000 0.0897440
0.6034006 0.0000000 0.0826006
0.7698573 0.0000000 0.0754573
0.9363139 0.0000000 0.0683139
1.0000000 0.0000000 0.0611706
1.0000000 0.0000000 0.0540272
0.0000000 0.0871434 0.0871434
0.0800000 0.0800000 0.0800000
0.2464566 0.0728566 0.0728566
0.4129133 0.0657133 0.0657133
0.5793699 0.0585699 0.0585699
0.7458266 0.0514266 0.0514266
0.9122832 0.0442832 0.0442832
1.0000000 0.0371398 0.0371398
1.0000000 0.0299965 0.0299965
0.0000000 0.2367126 0.0631126
0.0559693 0.2295693 0.0559693
0.2224259 0.2224259 0.0488259
0.3888826 0.2152826 0.0416826
0.5553392 0.2081392 0.0345392
0.7217958 0.2009958 0.0273958
0.8882525 0.1938525 0.0202525
1.0000000 0.1867091 0.0131091
1.0000000 0.1795658 0.0059658
0.0000000 0.3862819 0.0390819
0.0319386 0.3791386 0.0319386
0.1983952 0.3719952 0.0247952
0.3648518 0.3648518 0.0176518
0.5313085 0.3577085 0.0105085
0.6977651 0.3505651 0.0033651
0.8642218 0.3434218 0.0000000
1.0000000 0.3362784 0.0000000
1.0000000 0.3291350 0.0000000
0.0000000 0.5358512 0.0150512
0.0079078 0.5287078 0.0079078
0.1743645 0.5215645 0.0007645
0.3408211 0.5144211 0.0000000
0.5072778 0.5072778 0.0000000
0.6737344 0.5001344 0.0000000
0.8401910 0.4929910 0.0000000
1.0000000 0.4858477 0.0000000
1.0000000 0.4787043 0.0000000
0.0000000 0.6854205 0.0000000
0.0000000 0.6782771 0.0000000
0.1503338 0.6711338 0.0000000
0.3167904 0.6639904 0.0000000
0.4832470 0.6568470 0.0000000
0.6497037 0.6497037 0.0000000
0.8161603 0.6425603 0.0000000
0.9826170 0.6354170 0.0000000
1.0000000 0.6282736 0.0000000
0.0000000 0.8349898 0.0000000
0.0000000 0.8278464 0.0000000
0.1263030 0.8207030 0.0000000
0.2927597 0.8135597 0.0000000
0.4592163 0.8064163 0.0000000
0.6256730 0.7992730 0.0000000
0.7921296 0.7921296 0.0000000
0.9585862 0.7849862 0.0000000
1.0000000 0.7778429 0.0000000
0.0000000 0.9845590 0.0000000
0.0000000 0.9774157 0.0000000
0.1022723 0.9702723 0.0000000
0.2687290 0.9631290 0.0000000
0.4351856 0.9559856 0.0000000
0.6016422 0.9488422 0.0000000
0.7680989 0.9416989 0.0000000
0.9345555 0.9345555 0.0000000
1.0000000 0.9274122 0.0000000
0.0000000 1.0000000 0.0000000
0.0000000 1.0000000 0.0000000
0.0782416 1.0000000 0.0000000
0.2446982 1.0000000 0.0000000
0.4111549 1.0000000 0.0000000
0.5776115 1.0000000 0.0000000
0.7440682 1.0000000 0.0000000
0.9105248 1.0000000 0.0000000
1.0000000 1.0000000 0.0000000
0.0000000 0.0000000 0.2823482
0.1016048 0.0000000 0.2752048
0.2680614 0.0000000 0.2680614
0.4345181 0.0000000 0.2609181
0.6009747 0.0000000 0.2537747
0.7674314 0.0000000 0.2466314
0.9338880 0.0000000 0.2394880
1.0000000 0.0000000 0.2323446
1.0000000 0.0000000 0.2252013
0.0000000 0.0847174 0.2583174
0.0775741 0.0775741 0.2511741
0.2440307 0.0704307 0.2440307
0.4104874 0.0632874 0.2368874
0.5769440 0.0561440 0.2297440
0.7434006 0.0490006 0.2226006
0.9098573 0.0418573 0.2154573
1.0000000 0.0347139 0.2083139
1.0000000 0.0275706 0.2011706
0.0000000 0.2342867 0.2342867
0.0535434 0.2271434 0.2271434
0.2200000 0.2200000 0.2200000
0.3864566 0.2128566 0.2128566
0.5529133 0.2057133 0.2057133
0.7193699 0.1985699 0.1985699
0.8858266 0.1914266 0.1914266
1.0000000 0.1842832 0.1842832
1.0000000 0.1771398 0.1771398
0.0000000 0.3838560 0.2102560
0.0295126 0.3767126 0.2031126
0.1959693 0.3695693 0.1959693
0.3624259 0.3624259 0.1888259
0.5288826 0.3552826 0.1816826
0.6953392 0.3481392 0.1745392
0.8617958 0.3409958 0.1673958
1.0000000 0.3338525 0.1602525
1.0000000 0.3267091 0.1531091
0.0000000 0.5334253 0.1862253
0.0054819 0.5262819 0.1790819
0.1719386 0.5191386 0.1719386
0.3383952 0.5119952 0.1647952
0.5048518 0.5048518 0.1576518
0.6713085 0.4977085 0.1505085
0.8377651 0.4905651 0.1433651
1.0000000 0.4834218 0.1362218
1.0000000 0.4762784 0.1290784
0.0000000 0.6829946 0.1621946
0.0000000 0.6758512 0.1550512
0.1479078 0.6687078 0.1479078
0.3143645 0.6615645 0.1407645
0.4808211 0.6544211 0.1336211
0.6472778 0.6472778 0.1264778
0.8137344 0.6401344 0.1193344
0.9801910 0.6329910 0.1121910
1.0000000 0.6258477 0.1050477
0.0000000 0.8325638 0.1381638
0.0000000 0.8254205 0.1310205
0.1238771 0.8182771 0.1238771
0.2903338 0.8111338 0.1167338
0.4567904 0.8039904 0.1095904
0.6232470 0.7968470 0.1024470
0.7897037 0.7897037 0.0953037
0.9561603 0.7825603 0.0881603
1.0000000 0.7754170 0.0810170
0.0000000 0.9821331 0.1141331
0.0000000 0.9749898 0.1069898
0.0998464 0.9678464 0.0998464
0.2663030 0.9607030 0.0927030
0.4327597 0.9535597 0.0855597
0.5992163 0.9464163 0.0784163
0.7656730 0.9392730 0.0712730
0.9321296 0.9321296 0.0641296
1.0000000 0.9249862 0.0569862
0.0000000 1.0000000 0.0901024
0.0000000 1.0000000 0.0829590
0.0758157 1.0000000 0.0758157
0.2422723 1.0000000 0.0686723
0.4087290 1.0000000 0.0615290
0.5751856 1.0000000 0.0543856
0.7416422 1.0000000 0.0472422
0.9080989 1.0000000 0.0400989
1.0000000 1.0000000 0.0329555
0.0000000 0.0000000 0.4535222
0.0991789 0.0000000 0.4463789
0.2656355 0.0000000 0.4392355
0.4320922 0.0000000 0.4320922
0.5985488 0.0000000 0.4249488
0.7650054 0.0000000 0.4178054
0.9314621 0.0000000 0.4106621
1.0000000 0.0000000 0.4035187
1.0000000 0.0000000 0.3963754
0.0000000 0.0822915 0.4294915
0.0751482 0.0751482 0.4223482
0.2416048 0.0680048 0.4152048
0.4080614 0.0608614 0.4080614
0.5745181 0.0537181 0.4009181
0.7409747 0.0465747 0.3937747
0.9074314 0.0394314 0.3866314
1.0000000 0.0322880 0.3794880
1.0000000 0.0251446 0.3723446
0.0000000 0.2318608 0.4054608
0.0511174 0.2247174 0.3983174
0.2175741 0.2175741 0.3911741
0.3840307 0.2104307 0.3840307
0.5504874 0.2032874 0.3768874
0.7169440 0.1961440 0.3697440
0.8834006 0.1890006 0.3626006
1.0000000 0.1818573 0.3554573
1.0000000 0.1747139 0.3483139
0.0000000 0.3814301 0.3814301
0.0270867 0.3742867 0.3742867
0.1935434 0.3671434 0.3671434
0.3600000 0.3600000 0.3600000
0.5264566 0.3528566 0.3528566
0.6929133 0.3457133 0.3457133
0.8593699 0.3385699 0.3385699
1.0000000 0.3314266 0.3314266
1.0000000 0.3242832 0.3242832
0.0000000 0.5309994 0.3573994
0.0030560 0.5238560 0.3502560
0.1695126 0.5167126 0.3431126
0.3359693 0.5095693 0.3359693
0.5024259 0.5024259 0.3288259
0.6688826 0.4952826 0.3216826
0.8353392 0.4881392 0.3145392
1.0000000 0.4809958 0.3073958
1.0000000 0.4738525 0.3002525
0.0000000 0.6805686 0.3333686
0.0000000 0.6734253 0.3262253
0.1454819 0.6662819 0.3190819
0.3119386 0.6591386 0.3119386
0.4783952 0.6519952 0.3047952
0.6448518 0.6448518 0.2976518
0.8113085 0.6377085 0.2905085
0.9777651 0.6305651 0.2833651
1.0000000 0.6234218 0.2762218
0.0000000 0.8301379 0.3093379
0.0000000 0.8229946 0.3021946
0.1214512 0.8158512 0.2950512
0.2879078 0.8087078 0.2879078
0.4543645 0.8015645 0.2807645
0.6208211 0.7944211 0.2736211
0.7872778 0.7872778 0.2664778
0.9537344 0.7801344 0.2593344
1.0000000 0.7729910 0.2521910
0.0000000 0.9797072 0.2853072
0.0000000 0.9725638 0.2781638
0.0974205 0.9654205 0.2710205
0.2638771 0.9582771 0.2638771
0.4303338 0.9511338 0.2567338
0.5967904 0.9439904 0.2495904
0.7632470 0.9368470 0.2424470
0.9297037 0.9297037 0.2353037
1.0000000 0.9225603 0.2281603
0.0000000 1.0000000 0.2612765
0.0000000 1.0000000 0.2541331
0.0733898 1.0000000 0.2469898
0.2398464 1.0000000 0.2398464
0.4063030 1.0000000 0.2327030
0.5727597 1.0000000 0.2255597
0.7392163 1.0000000 0.2184163
0.9056730 1.0000000 0.2112730
1.0000000 1.0000000 0.2041296
0.0000000 0.0000000 0.6246963
0.0967530 0.0000000 0.6175530
0.2632096 0.0000000 0.6104096
0.4296662 0.0000000 0.6032662
0.5961229 0.0000000 0.5961229
0.7625795 0.0000000 0.5889795
0.9290362 0.0000000 0.5818362
1.0000000 0.0000000 0.5746928
1.0000000 0.0000000 0.5675494
0.0000000 0.0798656 0.6006656
0.0727222 0.0727222 0.5935222
0.2391789 0.0655789 0.5863789
0.4056355 0.0584355 0.5792355
0.5720922 0.0512922 0.5720922
0.7385488 0.0441488 0.5649488
0.9050054 0.0370054 0.5578054
1.0000000 0.0298621 0.5506621
1.0000000 0.0227187 0.5435187
0.0000000 0.2294349 0.5766349
0.0486915 0.2222915 0.5694915
0.2151482 0.2151482 0.5623482
0.3816048 0.2080048 0.5552048
0.5480614 0.2008614 0.5480614
0.7145181 0.1937181 0.5409181
0.8809747 0.1865747 0.5337747
1.0000000 0.1794314 0.5266314
1.0000000 0.1722880 0.5194880
0.0000000 0.3790042 0.5526042
0.0246608 0.3718608 0.5454608
0.1911174 0.3647174 0.5383174
0.3575741 0.3575741 0.5311741
0.5240307 0.3504307 0.5240307
0.6904874 0.3432874 0.5168874
0.8569440 0.3361440 0.5097440
1.0000000 0.3290006 0.5026006
1.0000000 0.3218573 0.4954573
0.0000000 0.5285734 0.5285734
0.0006301 0.5214301 0.5214301
0.1670867 0.5142867 0.5142867
0.3335434 0.5071434 0.5071434
0.5000000 0.5000000 0.5000000
0.6664566 0.4928566 0.4928566
0.8329133 0.4857133 0.4857133
0.9993699 0.4785699 0.4785699
1.0000000 0.4714266 0.4714266
0.0000000 0.6781427 0.5045427
0.0000000 0.6709994 0.4973994
0.1430560 0.6638560 0.4902560
0.3095126 0.6567126 0.4831126
0.4759693 0.6495693 0.4759693
0.6424259 0.6424259 0.4688259
0.8088826 0.6352826 0.4616826
0.9753392 0.6281392 0.4545392
1.0000000 0.6209958 0.4473958
0.0000000 0.8277120 0.4805120
0.0000000 0.8205686 0.4733686
0.1190253 0.8134253 0.4662253
0.2854819 0.8062819 0.4590819
0.4519386 0.7991386 0.4519386
0.6183952 0.7919952 0.4447952
0.7848518 0.7848518 0.4376518
0.9513085 0.7777085 0.4305085
1.0000000 0.7705651 0.4233651
0.0000000 0.9772813 0.4564813
0.0000000 0.9701379 0.4493379
0.0949946 0.9629946 0.4421946
0.2614512 0.9558512 0.4350512
0.4279078 0.9487078 0.4279078
0.5943645 0.9415645 0.4207645
0.7608211 0.9344211 0.4136211
0.9272778 0.9272778 0.4064778
1.0000000 0.9201344 0.3993344
0.0000000 1.0000000 0.4324506
0.0000000 1.0000000 0.4253072
0.0709638 1.0000000 0.4181638
0.2374205 1.0000000 0.4110205
0.4038771 1.0000000 0.4038771
0.5703338 1.0000000 0.3967338
0.7367904 1.0000000 0.3895904
0.9032470 1.0000000 0.3824470
1.0000000 1.0000000 0.3753037
0.0000000 0.0000000 0.7958704
0.0943270 0.0000000 0.7887270
0.2607837 0.0000000 0.7815837
0.4272403 0.0000000 0.7744403
0.5936970 0.0000000 0.7672970
0.7601536 0.0000000 0.7601536
0.9266102 0.0000000 0.7530102
1.0000000 0.0000000 0.7458669
1.0000000 0.0000000 0.7387235
0.0000000 0.0774397 0.7718397
0.0702963 0.0702963 0.7646963
0.2367530 0.0631530 0.7575530
0.4032096 0.0560096 0.7504096
0.5696662 0.0488662 0.7432662
0.7361229 0.0417229 0.7361229
0.9025795 0.0345795 0.7289795
1.0000000 0.0274362 0.7218362
1.0000000 0.0202928 0.7146928
0.0000000 0.2270090 0.7478090
0.0462656 0.2198656 0.7406656
0.2127222 0.2127222 0.7335222
0.3791789 0.2055789 0.7263789
0.5456355 0.1984355 0.7192355
0.7120922 0.1912922 0.7120922
0.8785488 0.1841488 0.7049488
1.0000000 0.1770054 0.6978054
1.0000000 0.1698621 0.6906621
0.0000000 0.3765782 0.7237782
0.0222349 0.3694349 0.7166349
0.1886915 0.3622915 0.7094915
0.3551482 0.3551482 0.7023482
0.5216048 0.3480048 0.6952048
0.6880614 0.3408614 0.6880614
0.8545181 0.3337181 0.6809181
1.0000000 0.3265747 0.6737747
1.0000000 0.3194314 0.6666314
0.0000000 0.5261475 0.6997475
0.0000000 0.5190042 0.6926042
0.1646608 0.5118608 0.6854608
0.3311174 0.5047174 0.6783174
0.4975741 0.4975741 0.6711741
0.6640307 0.4904307 0.6640307
0.8304874 0.4832874 0.6568874
0.9969440 0.4761440 0.6497440
1.0000000 0.4690006 0.6426006
0.0000000 0.6757168 0.6757168
0.0000000 0.6685734 0.6685734
0.1406301 0.6614301 0.6614301
0.3070867 0.6542867 0.6542867
0.4735434 0.6471434 0.6471434
0.6400000 0.6400000 0.6400000
0.8064566 0.6328566 0.6328566
0.9729133 0.6257133 0.6257133
1.0000000 0.6185699 0.6185699
0.0000000 0.8252861 0.6516861
0.0000000 0.8181427 0.6445427
0.1165994 0.8109994 0.6373994
0.2830560 0.8038560 0.6302560
0.4495126 0.7967126 0.6231126
0.6159693 0.7895693 0.6159693
0.7824259 0.7824259 0.6088259
0.9488826 0.7752826 0.6016826
1.0000000 0.7681392 0.5945392
0.0000000 0.9748554 0.6276554
0.0000000 0.9677120 0.6205120
0.0925686 0.9605686 0.6133686
0.2590253 0.9534253 0.6062253
0.4254819 0.9462819 0.5990819
0.5919386 0.9391386 0.5919386
0.7583952 0.9319952 0.5847952
0.9248518 0.9248518 0.5776518
1.0000000 0.9177085 0.5705085
0.0000000 1.0000000 0.6036246
0.0000000 1.0000000 0.5964813
0.0685379 1.0000000 0.5893379
0.2349946 1.0000000 0.5821946
0.4014512 1.0000000 0.5750512
0.5679078 1.0000000 0.5679078
0.7343645 1.0000000 0.5607645
0.9008211 1.0000000 0.5536211
1.0000000 1.0000000 0.5464778
0.0000000 0.0000000 0.9670445
0.0919011 0.0000000 0.9599011
0.2583578 0.0000000 0.9527578
0.4248144 0.0000000 0.9456144
0.5912710 0.0000000 0.9384710
0.7577277 0.0000000 0.9313277
0.9241843 0.0000000 0.9241843
1.0000000 0.0000000 0.9170410
1.0000000 0.0000000 0.9098976
0.0000000 0.0750138 0.9430138
0.0678704 0.0678704 0.9358704
0.2343270 0.0607270 0.9287270
0.4007837 0.0535837 0.9215837
0.5672403 0.0464403 0.9144403
0.7336970 0.0392970 0.9072970
0.9001536 0.0321536 0.9001536
1.0000000 0.0250102 0.8930102
1.0000000 0.0178669 0.8858669
0.0000000 0.2245830 0.9189830
0.0438397 0.2174397 0.9118397
0.2102963 0.2102963 0.9046963
0.3767530 0.2031530 0.8975530
0.5432096 0.1960096 0.8904096
0.7096662 0.1888662 0.8832662
0.8761229 0.1817229 0.8761229
1.0000000 0.1745795 0.8689795
1.0000000 0.1674362 0.8618362
0.0000000 0.3741523 0.8949523
0.0198090 0.3670090 0.8878090
0.1862656 0.3598656 0.8806656
0.3527222 0.3527222 0.8735222
0.5191789 0.3455789 0.8663789
0.6856355 0.3384355 0.8592355
0.8520922 0.3312922 0.8520922
1.0000000 0.3241488 0.8449488
1.0000000 0.3170054 0.8378054
0.0000000 0.5237216 0.8709216
0.0000000 0.5165782 0.8637782
0.1622349 0.5094349 0.8566349
0.3286915 0.5022915 0.8494915
0.4951482 0.4951482 0.8423482
0.6616048 0.4880048 0.8352048
0.8280614 0.4808614 0.8280614
0.9945181 0.4737181 0.8209181
1.0000000 0.4665747 0.8137747
0.0000000 0.6732909 0.8468909
0.0000000 0.6661475 0.8397475
0.1382042 0.6590042 0.8326042
0.3046608 0.6518608 0.8254608
0.4711174 0.6447174 0.8183174
0.6375741 0.6375741 0.8111741
0.8040307 0.6304307 0.8040307
0.9704874 0.6232874 0.7968874
1.0000000 0.6161440 0.7897440
0.0000000 0.8228602 0.8228602
0.0000000 0.8157168 0.8157168
0.1141734 0.8085734 0.8085734
0.2806301 0.8014301 0.8014301
0.4470867 0.7942867 0.7942867
0.6135434 0.7871434 0.7871434
0.7800000 0.7800000 0.7800000
0.9464566 0.7728566 0.7728566
1.0000000 0.7657133 0.7657133
0.0000000 0.9724294 0.7988294
0.0000000 0.9652861 0.7916861
0.0901427 0.9581427 0.7845427
0.2565994 0.9509994 0.7773994
0.4230560 0.9438560 0.7702560
0.5895126 0.9367126 0.7631126
0.7559693 0.9295693 0.7559693
0.9224259 0.9224259 0.7488259
1.0000000 0.9152826 0.7416826
0.0000000 1.0000000 0.7747987
0.0000000 1.0000000 0.7676554
0.0661120 1.0000000 0.7605120
0.2325686 1.0000000 0.7533686
0.3990253 1.0000000 0.7462253
0.5654819 1.0000000 0.7390819
0.7319386 1.0000000 0.7319386
0.8983952 1.0000000 0.7247952
1.0000000 1.0000000 0.7176518
0.0000000 0.0000000 1.0000000
0.0894752 0.0000000 1.0000000
0.2559318 0.0000000 1.0000000
0.4223885 0.0000000 1.0000000
0.5888451 0.0000000 1.0000000
0.7553018 0.0000000 1.0000000
0.9217584 0.0000000 1.0000000
1.0000000 0.0000000 1.0000000
1.0000000 0.0000000 1.0000000
0.0000000 0.0725878 1.0000000
0.0654445 0.0654445 1.0000000
0.2319011 0.0583011 1.0000000
0.3983578 0.0511578 1.0000000
0.5648144 0.0440144 1.0000000
0.7312710 0.0368710 1.0000000
0.8977277 0.0297277 1.0000000
1.0000000 0.0225843 1.0000000
1.0000000 0.0154410 1.0000000
0.0000000 0.2221571 1.0000000
0.0414138 0.2150138 1.0000000
0.2078704 0.2078704 1.0000000
0.3743270 0.2007270 1.0000000
0.5407837 0.1935837 1.0000000
0.7072403 0.1864403 1.0000000
0.8736970 0.1792970 1.0000000
1.0000000 0.1721536 1.0000000
1.0000000 0.1650102 1.0000000
0.0000000 0.3717264 1.0000000
0.0173830 0.3645830 1.0000000
0.1838397 0.3574397 1.0000000
0.3502963 0.3502963 1.0000000
0.5167530 0.3431530 1.0000000
0.6832096 0.3360096 1.0000000
0.8496662 0.3288662 1.0000000
1.0000000 0.3217229 1.0000000
1.0000000 0.3145795 1.0000000
0.0000000 0.5212957 1.0000000
0.0000000 0.5141523 1.0000000
0.1598090 0.5070090 1.0000000
0.3262656 0.4998656 1.0000000
0.4927222 0.4927222 1.0000000
0.6591789 0.4855789 1.0000000
0.8256355 0.4784355 0.9992355
0.9920922 0.4712922 0.9920922
1.0000000 0.4641488 0.9849488
0.0000000 0.6708650 1.0000000
0.0000000 0.6637216 1.0000000
0.1357782 0.6565782 1.0000000
0.3022349 0.6494349 0.9966349
0.4686915 0.6422915 0.9894915
0.6351482 0.6351482 0.9823482
0.8016048 0.6280048 0.9752048
0.9680614 0.6208614 0.9680614
1.0000000 0.6137181 0.9609181
0.0000000 0.8204342 0.9940342
0.0000000 0.8132909 0.9868909
0.1117475 0.8061475 0.9797475
0.2782042 0.7990042 0.9726042
0.4446608 0.7918608 0.9654608
0.6111174 0.7847174 0.9583174
0.7775741 0.7775741 0.9511741
0.9440307 0.7704307 0.9440307
1.0000000 0.7632874 0.9368874
0.0000000 0.9700035 0.9700035
0.0000000 0.9628602 0.9628602
0.0877168 0.9557168 0.9557168
0.2541734 0.9485734 0.9485734
0.4206301 0.9414301 0.9414301
0.5870867 0.9342867 0.9342867
0.7535434 0.9271434 0.9271434
0.9200000 0.9200000 0.9200000
1.0000000 0.9128566 0.9128566
0.0000000 1.0000000 0.9459728
0.0000000 1.0000000 0.9388294
0.0636861 1.0000000 0.9316861
0.2301427 1.0000000 0.9245427
0.3965994 1.0000000 0.9173994
0.5630560 1.0000000 0.9102560
0.7295126 1.0000000 0.9031126
0.8959693 1.0000000 0.8959693
1.0000000 1.0000000 0.8888259
0.0000000 0.0000000 1.0000000
0.0870493 0.0000000 1.0000000
0.2535059 0.0000000 1.0000000
0.4199626 0.0000000 1.0000000
0.5864192 0.0000000 1.0000000
0.7528758 0.0000000 1.0000000
0.9193325 0.0000000 1.0000000
1.0000000 0.0000000 1.0000000
1.0000000 0.0000000 1.0000000
0.0000000 0.0701619 1.0000000
0.0630186 0.0630186 1.0000000
0.2294752 0.0558752 1.0000000
0.3959318 0.0487318 1.0000000
0.5623885 0.0415885 1.0000000
0.7288451 0.0344451 1.0000000
0.8953018 0.0273018 1.0000000
1.0000000 0.0201584 1.0000000
1.0000000 0.0130150 1.0000000
0.0000000 0.2197312 1.0000000
0.0389878 0.2125878 1.0000000
0.2054445 0.2054445 1.0000000
0.3719011 0.1983011 1.0000000
0.5383578 0.1911578 1.0000000
0.7048144 0.1840144 1.0000000
0.8712710 0.1768710 1.0000000
1.0000000 0.1697277 1.0000000
1.0000000 0.1625843 1.0000000
0.0000000 0.3693005 1.0000000
0.0149571 0.3621571 1.0000000
0.1814138 0.3550138 1.0000000
0.3478704 0.3478704 1.0000000
0.5143270 0.3407270 1.0000000
0.6807837 0.3335837 1.0000000
0.8472403 0.3264403 1.0000000
1.0000000 0.3192970 1.0000000
1.0000000 0.3121536 1.0000000
0.0000000 0.5188698 1.0000000
0.0000000 0.5117264 1.0000000
0.1573830 0.5045830 1.0000000
0.3238397 0.4974397 1.0000000
0.4902963 0.4902963 1.0000000
0.6567530 0.4831530 1.0000000
0.8232096 0.4760096 1.0000000
0.9896662 0.4688662 1.0000000
1.0000000 0.4617229 1.0000000
0.0000000 0.6684390 1.0000000
0.0000000 0.6612957 1.0000000
0.1333523 0.6541523 1.0000000
0.2998090 0.6470090 1.0000000
0.4662656 0.6398656 1.0000000
0.6327222 0.6327222 1.0000000
0.7991789 0.6255789 1.0000000
0.9656355 0.6184355 1.0000000
1.0000000 0.6112922 1.0000000
0.0000000 0.8180083 1.0000000
0.0000000 0.8108650 1.0000000
0.1093216 0.8037216 1.0000000
0.2757782 0.7965782 1.0000000
0.4422349 0.7894349 1.0000000
0.6086915 0.7822915 1.0000000
0.7751482 0.7751482 1.0000000
0.9416048 0.7680048 1.0000000
1.0000000 0.7608614 1.0000000
0.0000000 0.9675776 1.0000000
0.0000000 0.9604342 1.0000000
0.0852909 0.9532909 1.0000000
0.2517475 0.9461475 1.0000000
0.4182042 0.9390042 1.0000000
0.5846608 0.9318608 1.0000000
0.7511174 0.9247174 1.0000000
0.9175741 0.9175741 1.0000000
1.0000000 0.9104307 1.0000000
0.0000000 1.0000000 1.0000000
0.0000000 1.0000000 1.0000000
0.0612602 1.0000000 1.0000000
0.2277168 1.0000000 1.0000000
0.3941734 1.0000000 1.0000000
0.5606301 1.0000000 1.0000000
0.7270867 1.0000000 1.0000000
0.8935434 1.0000000 1.0000000
1.0000000 1.0000000 1.0000000
