android/app/src/main/assets/luts/Vivid%20Color.cube
TITLE "MirrorBridge Vivid Color"
# Generated by scripts/generate_luts.py with {"contrast": 1.12, "lift": 0.0, "saturation": 1.24, "temperature": 0.0}
LUT_3D_SIZE 5
DOMAIN_MIN 0.0 0.0 0.0
DOMAIN_MAX 1.0 1.0 1.0
0.0000000 0.0000000 0.0000000
0.2729133 0.0000000 0.0000000
0.6058266 0.0000000 0.0000000
0.9387398 0.0000000 0.0000000
1.0000000 0.0000000 0.0000000
0.0000000 0.2391386 0.0000000
0.2248518 0.2248518 0.0000000
0.5577651 0.2105651 0.0000000
0.8906784 0.1962784 0.0000000
1.0000000 0.1819917 0.0000000
0.0000000 0.5382771 0.0000000
0.1767904 0.5239904 0.0000000
0.5097037 0.5097037 0.0000000
0.8426170 0.4954170 0.0000000
1.0000000 0.4811302 0.0000000
0.0000000 0.8374157 0.0000000
0.1287290 0.8231290 0.0000000
0.4616422 0.8088422 0.0000000
0.7945555 0.7945555 0.0000000
1.0000000 0.7802688 0.0000000
0.0000000 1.0000000 0.0000000
0.0806675 1.0000000 0.0000000
0.4135808 1.0000000 0.0000000
0.7464941 1.0000000 0.0000000
1.0000000 1.0000000 0.0000000
0.0000000 0.0000000 0.2823482
0.2680614 0.0000000 0.2680614
0.6009747 0.0000000 0.2537747
0.9338880 0.0000000 0.2394880
1.0000000 0.0000000 0.2252013
0.0000000 0.2342867 0.2342867
0.2200000 0.2200000 0.2200000
0.5529133 0.2057133 0.2057133
0.8858266 0.1914266 0.1914266
1.0000000 0.1771398 0.1771398
0.0000000 0.5334253 0.1862253
0.1719386 0.5191386 0.1719386
0.5048518 0.5048518 0.1576518
0.8377651 0.4905651 0.1433651
1.0000000 0.4762784 0.1290784
0.0000000 0.8325638 0.1381638
0.1238771 0.8182771 0.1238771
0.4567904 0.8039904 0.1095904
0.7897037 0.7897037 0.0953037
1.0000000 0.7754170 0.0810170
0.0000000 1.0000000 0.0901024
0.0758157 1.0000000 0.0758157
0.4087290 1.0000000 0.0615290
0.7416422 1.0000000 0.0472422
1.0000000 1.0000000 0.0329555
0.0000000 0.0000000 0.6246963
0.2632096 0.0000000 0.6104096
0.5961229 0.0000000 0.5961229
0.9290362 0.0000000 0.5818362
1.0000000 0.0000000 0.5675494
0.0000000 0.2294349 0.5766349
0.2151482 0.2151482 0.5623482
0.5480614 0.2008614 0.5480614
0.8809747 0.1865747 0.5337747
1.0000000 0.1722880 0.5194880
0.0000000 0.5285734 0.5285734
0.1670867 0.5142867 0.5142867
0.5000000 0.5000000 0.5000000
0.8329133 0.4857133 0.4857133
1.0000000 0.4714266 0.4714266
0.0000000 0.8277120 0.4805120
0.1190253 0.8134253 0.4662253
0.4519386 0.7991386 0.4519386
0.7848518 0.7848518 0.4376518
1.0000000 0.7705651 0.4233651
0.0000000 1.0000000 0.4324506
0.0709638 1.0000000 0.4181638
0.4038771 1.0000000 0.4038771
0.7367904 1.0000000 0.3895904
1.0000000 1.0000000 0.3753037
0.0000000 0.0000000 0.9670445
0.2583578 0.0000000 0.9527578
0.5912710 0.0000000 0.9384710
0.9241843 0.0000000 0.9241843
1.0000000 0.0000000 0.9098976
0.0000000 0.2245830 0.9189830
0.2102963 0.2102963 0.9046963
0.5432096 0.1960096 0.8904096
0.8761229 0.1817229 0.8761229
1.0000000 0.1674362 0.8618362
0.0000000 0.5237216 0.8709216
0.1622349 0.5094349 0.8566349
0.4951482 0.4951482 0.8423482
0.8280614 0.4808614 0.8280614
1.0000000 0.4665747 0.8137747
0.0000000 0.8228602 0.8228602
0.1141734 0.8085734 0.8085734
0.4470867 0.7942867 0.7942867
0.7800000 0.7800000 0.7800000
1.0000000 0.7657133 0.7657133
0.0000000 1.0000000 0.7747987
0.0661120 1.0000000 0.7605120
0.3990253 1.0000000 0.7462253
0.7319386 1.0000000 0.7319386
1.0000000 1.0000000 0.7176518
0.0000000 0.0000000 1.0000000
0.2535059 0.0000000 1.0000000
0.5864192 0.0000000 1.0000000
0.9193325 0.0000000 1.0000000
1.0000000 0.0000000 1.0000000
0.0000000 0.2197312 1.0000000
0.2054445 0.2054445 1.0000000
0.5383578 0.1911578 1.0000000
0.8712710 0.1768710 1.0000000
1.0000000 0.1625843 1.0000000
0.0000000 0.5188698 1.0000000
0.1573830 0.5045830 1.0000000
0.4902963 0.4902963 1.0000000
0.8232096 0.4760096 1.0000000
1.0000000 0.4617229 1.0000000
0.0000000 0.8180083 1.0000000
0.1093216 0.8037216 1.0000000
0.4422349 0.7894349 1.0000000
0.7751482 0.7751482 1.0000000
1.0000000 0.7608614 1.0000000
0.0000000 1.0000000 1.0000000
0.0612602 1.0000000 1.0000000
0.3941734 1.0000000 1.0000000
0.7270867 1.0000000 1.0000000
1.0000000 1.0000000 1.0000000
