android/app/src/main/assets/luts/Warm%20Tone.cube
TITLE "MirrorBridge Warm Tone"
# Generated by scripts/generate_luts.py with {"contrast": 1.03, "lift": 0.005, "saturation": 1.04, "temperature": 0.055}
LUT_3D_SIZE 17
DOMAIN_MIN 0.0 0.0 0.0
DOMAIN_MAX 1.0 1.0 1.0
0.0450000 0.0000000 0.0000000
0.1114026 0.0000000 0.0000000
0.1778051 0.0000000 0.0000000
0.2442077 0.0000000 0.0000000
0.3106102 0.0000000 0.0000000
0.3770128 0.0000000 0.0000000
0.4434153 0.0000000 0.0000000
0.5098179 0.0000000 0.0000000
0.5762204 0.0000000 0.0000000
0.6426230 0.0000000 0.0000000
0.7090256 0.0000000 0.0000000
0.7754281 0.0000000 0.0000000
0.8418307 0.0000000 0.0000000
0.9082332 0.0000000 0.0000000
0.9746358 0.0000000 0.0000000
1.0000000 0.0000000 0.0000000
1.0000000 0.0000000 0.0000000
0.0431584 0.0617084 0.0000000
0.1095609 0.0611609 0.0000000
0.1759635 0.0606135 0.0000000
0.2423660 0.0600660 0.0000000
0.3087686 0.0595186 0.0000000
0.3751711 0.0589711 0.0000000
0.4415737 0.0584237 0.0000000
0.5079762 0.0578762 0.0000000
0.5743788 0.0573288 0.0000000
0.6407814 0.0567814 0.0000000
0.7071839 0.0562339 0.0000000
0.7735865 0.0556865 0.0000000
0.8399890 0.0551390 0.0000000
0.9063916 0.0545916 0.0000000
0.9727941 0.0540441 0.0000000
1.0000000 0.0534967 0.0000000
1.0000000 0.0529492 0.0000000
0.0413167 0.1268167 0.0000000
0.1077193 0.1262693 0.0000000
0.1741218 0.1257218 0.0000000
0.2405244 0.1251744 0.0000000
0.3069269 0.1246269 0.0000000
0.3733295 0.1240795 0.0000000
0.4397320 0.1235320 0.0000000
0.5061346 0.1229846 0.0000000
0.5725372 0.1224372 0.0000000
0.6389397 0.1218897 0.0000000
0.7053423 0.1213423 0.0000000
0.7717448 0.1207948 0.0000000
0.8381474 0.1202474 0.0000000
0.9045499 0.1196999 0.0000000
0.9709525 0.1191525 0.0000000
1.0000000 0.1186050 0.0000000
1.0000000 0.1180576 0.0000000
0.0394751 0.1919251 0.0000000
0.1058776 0.1913776 0.0000000
0.1722802 0.1908302 0.0000000
0.2386827 0.1902827 0.0000000
0.3050853 0.1897353 0.0000000
0.3714879 0.1891879 0.0000000
0.4378904 0.1886404 0.0000000
0.5042930 0.1880930 0.0000000
0.5706955 0.1875455 0.0000000
0.6370981 0.1869981 0.0000000
0.7035006 0.1864506 0.0000000
0.7699032 0.1859032 0.0000000
0.8363057 0.1853557 0.0000000
0.9027083 0.1848083 0.0000000
0.9691109 0.1842608 0.0000000
1.0000000 0.1837134 0.0000000
1.0000000 0.1831660 0.0000000
0.0376334 0.2570334 0.0000000
0.1040360 0.2564860 0.0000000
0.1704386 0.2559385 0.0000000
0.2368411 0.2553911 0.0000000
0.3032437 0.2548437 0.0000000
0.3696462 0.2542962 0.0000000
0.4360488 0.2537488 0.0000000
0.5024513 0.2532013 0.0000000
0.5688539 0.2526539 0.0000000
0.6352564 0.2521064 0.0000000
0.7016590 0.2515590 0.0000000
0.7680615 0.2510115 0.0000000
0.8344641 0.2504641 0.0000000
0.9008667 0.2499167 0.0000000
0.9672692 0.2493692 0.0000000
1.0000000 0.2488218 0.0000000
1.0000000 0.2482743 0.0000000
0.0357918 0.3221418 0.0000000
0.1021944 0.3215944 0.0000000
0.1685969 0.3210469 0.0000000
0.2349995 0.3204995 0.0000000
0.3014020 0.3199520 0.0000000
0.3678046 0.3194046 0.0000000
0.4342071 0.3188571 0.0000000
0.5006097 0.3183097 0.0000000
0.5670122 0.3177622 0.0000000
0.6334148 0.3172148 0.0000000
0.6998174 0.3166673 0.0000000
0.7662199 0.3161199 0.0000000
0.8326225 0.3155725 0.0000000
0.8990250 0.3150250 0.0000000
0.9654276 0.3144776 0.0000000
1.0000000 0.3139301 0.0000000
1.0000000 0.3133827 0.0000000
0.0339502 0.3872502 0.0000000
0.1003527 0.3867027 0.0000000
0.1667553 0.3861553 0.0000000
0.2331578 0.3856078 0.0000000
0.2995604 0.3850604 0.0000000
0.3659629 0.3845129 0.0000000
0.4323655 0.3839655 0.0000000
0.4987680 0.3834180 0.0000000
0.5651706 0.3828706 0.0000000
0.6315732 0.3823232 0.0000000
0.6979757 0.3817757 0.0000000
0.7643783 0.3812283 0.0000000
0.8307808 0.3806808 0.0000000
0.8971834 0.3801334 0.0000000
0.9635859 0.3795859 0.0000000
1.0000000 0.3790385 0.0000000
1.0000000 0.3784910 0.0000000
0.0321085 0.4523585 0.0000000
0.0985111 0.4518111 0.0000000
0.1649136 0.4512636 0.0000000
0.2313162 0.4507162 0.0000000
0.2977187 0.4501687 0.0000000
0.3641213 0.4496213 0.0000000
0.4305238 0.4490738 0.0000000
0.4969264 0.4485264 0.0000000
0.5633290 0.4479790 0.0000000
0.6297315 0.4474315 0.0000000
0.6961341 0.4468841 0.0000000
0.7625366 0.4463366 0.0000000
0.8289392 0.4457892 0.0000000
0.8953417 0.4452417 0.0000000
0.9617443 0.4446943 0.0000000
1.0000000 0.4441468 0.0000000
1.0000000 0.4435994 0.0000000
0.0302669 0.5174669 0.0000000
0.0966694 0.5169194 0.0000000
0.1630720 0.5163720 0.0000000
0.2294745 0.5158245 0.0000000
0.2958771 0.5152771 0.0000000
0.3622797 0.5147297 0.0000000
0.4286822 0.5141822 0.0000000
0.4950848 0.5136348 0.0000000
0.5614873 0.5130873 0.0000000
0.6278899 0.5125399 0.0000000
0.6942924 0.5119924 0.0000000
0.7606950 0.5114450 0.0000000
0.8270975 0.5108975 0.0000000
0.8935001 0.5103501 0.0000000
0.9599027 0.5098027 0.0000000
1.0000000 0.5092552 0.0000000
1.0000000 0.5087078 0.0000000
0.0284252 0.5825752 0.0000000
0.0948278 0.5820278 0.0000000
0.1612303 0.5814804 0.0000000
0.2276329 0.5809329 0.0000000
0.2940355 0.5803855 0.0000000
0.3604380 0.5798380 0.0000000
0.4268406 0.5792906 0.0000000
0.4932431 0.5787431 0.0000000
0.5596457 0.5781957 0.0000000
0.6260482 0.5776482 0.0000000
0.6924508 0.5771008 0.0000000
0.7588533 0.5765533 0.0000000
0.8252559 0.5760059 0.0000000
0.8916585 0.5754585 0.0000000
0.9580610 0.5749110 0.0000000
1.0000000 0.5743636 0.0000000
1.0000000 0.5738161 0.0000000
0.0265836 0.6476836 0.0000000
0.0929862 0.6471362 0.0000000
0.1593887 0.6465887 0.0000000
0.2257913 0.6460413 0.0000000
0.2921938 0.6454938 0.0000000
0.3585964 0.6449464 0.0000000
0.4249989 0.6443989 0.0000000
0.4914015 0.6438515 0.0000000
0.5578040 0.6433040 0.0000000
0.6242066 0.6427566 0.0000000
0.6906092 0.6422092 0.0000000
0.7570117 0.6416617 0.0000000
0.8234143 0.6411143 0.0000000
0.8898168 0.6405668 0.0000000
0.9562194 0.6400194 0.0000000
1.0000000 0.6394719 0.0000000
1.0000000 0.6389245 0.0000000
0.0247420 0.7127920 0.0000000
0.0911445 0.7122445 0.0000000
0.1575471 0.7116971 0.0000000
0.2239496 0.7111496 0.0000000
0.2903522 0.7106022 0.0000000
0.3567547 0.7100547 0.0000000
0.4231573 0.7095073 0.0000000
0.4895598 0.7089598 0.0000000
0.5559624 0.7084124 0.0000000
0.6223650 0.7078650 0.0000000
0.6887675 0.7073175 0.0000000
0.7551701 0.7067701 0.0000000
0.8215726 0.7062226 0.0000000
0.8879752 0.7056752 0.0000000
0.9543777 0.7051277 0.0000000
1.0000000 0.7045803 0.0000000
1.0000000 0.7040328 0.0000000
0.0229003 0.7779003 0.0000000
0.0893029 0.7773529 0.0000000
0.1557054 0.7768054 0.0000000
0.2221080 0.7762580 0.0000000
0.2885105 0.7757105 0.0000000
0.3549131 0.7751631 0.0000000
0.4213156 0.7746157 0.0000000
0.4877182 0.7740682 0.0000000
0.5541208 0.7735208 0.0000000
0.6205233 0.7729733 0.0000000
0.6869259 0.7724259 0.0000000
0.7533284 0.7718784 0.0000000
0.8197310 0.7713310 0.0000000
0.8861335 0.7707835 0.0000000
0.9525361 0.7702361 0.0000000
1.0000000 0.7696886 0.0000000
1.0000000 0.7691412 0.0000000
0.0210587 0.8430087 0.0000000
0.0874612 0.8424612 0.0000000
0.1538638 0.8419138 0.0000000
0.2202663 0.8413663 0.0000000
0.2866689 0.8408189 0.0000000
0.3530715 0.8402715 0.0000000
0.4194740 0.8397240 0.0000000
0.4858766 0.8391766 0.0000000
0.5522791 0.8386291 0.0000000
0.6186817 0.8380817 0.0000000
0.6850842 0.8375342 0.0000000
0.7514868 0.8369868 0.0000000
0.8178893 0.8364393 0.0000000
0.8842919 0.8358919 0.0000000
0.9506945 0.8353445 0.0000000
1.0000000 0.8347970 0.0000000
1.0000000 0.8342496 0.0000000
0.0192170 0.9081170 0.0000000
0.0856196 0.9075696 0.0000000
0.1520222 0.9070222 0.0000000
0.2184247 0.9064747 0.0000000
0.2848273 0.9059273 0.0000000
0.3512298 0.9053798 0.0000000
0.4176324 0.9048324 0.0000000
0.4840349 0.9042849 0.0000000
0.5504375 0.9037375 0.0000000
0.6168400 0.9031900 0.0000000
0.6832426 0.9026426 0.0000000
0.7496451 0.9020951 0.0000000
0.8160477 0.9015477 0.0000000
0.8824503 0.9010003 0.0000000
0.9488528 0.9004528 0.0000000
1.0000000 0.8999054 0.0000000
1.0000000 0.8993579 0.0000000
0.0173754 0.9732254 0.0000000
0.0837780 0.9726780 0.0000000
0.1501805 0.9721305 0.0000000
0.2165831 0.9715831 0.0000000
0.2829856 0.9710356 0.0000000
0.3493882 0.9704882 0.0000000
0.4157907 0.9699407 0.0000000
0.4821933 0.9693933 0.0000000
0.5485958 0.9688458 0.0000000
0.6149984 0.9682984 0.0000000
0.6814010 0.9677510 0.0000000
0.7478035 0.9672035 0.0000000
0.8142061 0.9666561 0.0000000
0.8806086 0.9661086 0.0000000
0.9470112 0.9655612 0.0000000
1.0000000 0.9650137 0.0000000
1.0000000 0.9644663 0.0000000
0.0155338 1.0000000 0.0000000
0.0819363 1.0000000 0.0000000
0.1483389 1.0000000 0.0000000
0.2147414 1.0000000 0.0000000
0.2811440 1.0000000 0.0000000
0.3475465 1.0000000 0.0000000
0.4139491 1.0000000 0.0000000
0.4803516 1.0000000 0.0000000
0.5467542 1.0000000 0.0000000
0.6131568 1.0000000 0.0000000
0.6795593 1.0000000 0.0000000
0.7459619 1.0000000 0.0000000
0.8123644 1.0000000 0.0000000
0.8787670 1.0000000 0.0000000
0.9451695 1.0000000 0.0000000
1.0000000 1.0000000 0.0000000
1.0000000 1.0000000 0.0000000
0.0448141 0.0000000 0.0017641
0.1112166 0.0000000 0.0012166
0.1776192 0.0000000 0.0006692
0.2440217 0.0000000 0.0001217
0.3104243 0.0000000 0.0000000
0.3768269 0.0000000 0.0000000
0.4432294 0.0000000 0.0000000
0.5096320 0.0000000 0.0000000
0.5760345 0.0000000 0.0000000
0.6424371 0.0000000 0.0000000
0.7088396 0.0000000 0.0000000
0.7752422 0.0000000 0.0000000
0.8416447 0.0000000 0.0000000
0.9080473 0.0000000 0.0000000
0.9744499 0.0000000 0.0000000
1.0000000 0.0000000 0.0000000
1.0000000 0.0000000 0.0000000
0.0429724 0.0615224 0.0000000
0.1093750 0.0609750 0.0000000
0.1757776 0.0604276 0.0000000
0.2421801 0.0598801 0.0000000
0.3085827 0.0593327 0.0000000
0.3749852 0.0587852 0.0000000
0.4413878 0.0582378 0.0000000
0.5077903 0.0576903 0.0000000
0.5741929 0.0571429 0.0000000
0.6405954 0.0565954 0.0000000
0.7069980 0.0560480 0.0000000
0.7734006 0.0555005 0.0000000
0.8398031 0.0549531 0.0000000
0.9062057 0.0544057 0.0000000
0.9726082 0.0538582 0.0000000
1.0000000 0.0533108 0.0000000
1.0000000 0.0527633 0.0000000
0.0411308 0.1266308 0.0000000
0.1075334 0.1260834 0.0000000
0.1739359 0.1255359 0.0000000
0.2403385 0.1249885 0.0000000
0.3067410 0.1244410 0.0000000
0.3731436 0.1238936 0.0000000
0.4395461 0.1233461 0.0000000
0.5059487 0.1227987 0.0000000
0.5723512 0.1222512 0.0000000
0.6387538 0.1217038 0.0000000
0.7051564 0.1211564 0.0000000
0.7715589 0.1206089 0.0000000
0.8379615 0.1200615 0.0000000
0.9043640 0.1195140 0.0000000
0.9707666 0.1189666 0.0000000
1.0000000 0.1184191 0.0000000
1.0000000 0.1178717 0.0000000
0.0392892 0.1917392 0.0000000
0.1056917 0.1911917 0.0000000
0.1720943 0.1906443 0.0000000
0.2384968 0.1900968 0.0000000
0.3048994 0.1895494 0.0000000
0.3713019 0.1890019 0.0000000
0.4377045 0.1884545 0.0000000
0.5041071 0.1879070 0.0000000
0.5705096 0.1873596 0.0000000
0.6369122 0.1868122 0.0000000
0.7033147 0.1862647 0.0000000
0.7697173 0.1857173 0.0000000
0.8361198 0.1851698 0.0000000
0.9025224 0.1846224 0.0000000
0.9689249 0.1840749 0.0000000
1.0000000 0.1835275 0.0000000
1.0000000 0.1829800 0.0000000
0.0374475 0.2568475 0.0000000
0.1038501 0.2563001 0.0000000
0.1702526 0.2557526 0.0000000
0.2366552 0.2552052 0.0000000
0.3030577 0.2546577 0.0000000
0.3694603 0.2541103 0.0000000
0.4358629 0.2535629 0.0000000
0.5022654 0.2530154 0.0000000
0.5686680 0.2524680 0.0000000
0.6350705 0.2519205 0.0000000
0.7014731 0.2513731 0.0000000
0.7678756 0.2508256 0.0000000
0.8342782 0.2502782 0.0000000
0.9006807 0.2497307 0.0000000
0.9670833 0.2491833 0.0000000
1.0000000 0.2486358 0.0000000
1.0000000 0.2480884 0.0000000
0.0356059 0.3219559 0.0000000
0.1020084 0.3214084 0.0000000
0.1684110 0.3208610 0.0000000
0.2348136 0.3203136 0.0000000
0.3012161 0.3197661 0.0000000
0.3676187 0.3192187 0.0000000
0.4340212 0.3186712 0.0000000
0.5004238 0.3181238 0.0000000
0.5668263 0.3175763 0.0000000
0.6332289 0.3170289 0.0000000
0.6996314 0.3164814 0.0000000
0.7660340 0.3159340 0.0000000
0.8324365 0.3153865 0.0000000
0.8988391 0.3148391 0.0000000
0.9652417 0.3142917 0.0000000
1.0000000 0.3137442 0.0000000
1.0000000 0.3131968 0.0000000
0.0337642 0.3870642 0.0000000
0.1001668 0.3865168 0.0000000
0.1665694 0.3859694 0.0000000
0.2329719 0.3854219 0.0000000
0.2993745 0.3848745 0.0000000
0.3657770 0.3843270 0.0000000
0.4321796 0.3837796 0.0000000
0.4985821 0.3832321 0.0000000
0.5649847 0.3826847 0.0000000
0.6313872 0.3821372 0.0000000
0.6977898 0.3815898 0.0000000
0.7641924 0.3810424 0.0000000
0.8305949 0.3804949 0.0000000
0.8969975 0.3799475 0.0000000
0.9634000 0.3794000 0.0000000
1.0000000 0.3788526 0.0000000
1.0000000 0.3783051 0.0000000
0.0319226 0.4521726 0.0000000
0.0983252 0.4516252 0.0000000
0.1647277 0.4510777 0.0000000
0.2311303 0.4505303 0.0000000
0.2975328 0.4499828 0.0000000
0.3639354 0.4494354 0.0000000
0.4303379 0.4488879 0.0000000
0.4967405 0.4483405 0.0000000
0.5631430 0.4477930 0.0000000
0.6295456 0.4472456 0.0000000
0.6959482 0.4466982 0.0000000
0.7623507 0.4461507 0.0000000
0.8287533 0.4456033 0.0000000
0.8951558 0.4450558 0.0000000
0.9615584 0.4445084 0.0000000
1.0000000 0.4439609 0.0000000
1.0000000 0.4434135 0.0000000
0.0300810 0.5172810 0.0000000
0.0964835 0.5167335 0.0000000
0.1628861 0.5161861 0.0000000
0.2292886 0.5156386 0.0000000
0.2956912 0.5150912 0.0000000
0.3620937 0.5145437 0.0000000
0.4284963 0.5139963 0.0000000
0.4948989 0.5134489 0.0000000
0.5613014 0.5129014 0.0000000
0.6277040 0.5123540 0.0000000
0.6941065 0.5118065 0.0000000
0.7605091 0.5112591 0.0000000
0.8269116 0.5107116 0.0000000
0.8933142 0.5101642 0.0000000
0.9597167 0.5096167 0.0000000
1.0000000 0.5090693 0.0000000
1.0000000 0.5085218 0.0000000
0.0282393 0.5823893 0.0000000
0.0946419 0.5818419 0.0000000
0.1610444 0.5812944 0.0000000
0.2274470 0.5807470 0.0000000
0.2938495 0.5801995 0.0000000
0.3602521 0.5796521 0.0000000
0.4266547 0.5791047 0.0000000
0.4930572 0.5785572 0.0000000
0.5594598 0.5780098 0.0000000
0.6258623 0.5774623 0.0000000
0.6922649 0.5769149 0.0000000
0.7586674 0.5763674 0.0000000
0.8250700 0.5758200 0.0000000
0.8914725 0.5752725 0.0000000
0.9578751 0.5747251 0.0000000
1.0000000 0.5741777 0.0000000
1.0000000 0.5736302 0.0000000
0.0263977 0.6474977 0.0000000
0.0928002 0.6469502 0.0000000
0.1592028 0.6464028 0.0000000
0.2256053 0.6458554 0.0000000
0.2920079 0.6453079 0.0000000
0.3584105 0.6447605 0.0000000
0.4248130 0.6442130 0.0000000
0.4912156 0.6436656 0.0000000
0.5576181 0.6431181 0.0000000
0.6240207 0.6425707 0.0000000
0.6904232 0.6420232 0.0000000
0.7568258 0.6414758 0.0000000
0.8232283 0.6409283 0.0000000
0.8896309 0.6403809 0.0000000
0.9560335 0.6398335 0.0000000
1.0000000 0.6392860 0.0000000
1.0000000 0.6387386 0.0000000
0.0245560 0.7126060 0.0000000
0.0909586 0.7120586 0.0000000
0.1573612 0.7115112 0.0000000
0.2237637 0.7109637 0.0000000
0.2901663 0.7104163 0.0000000
0.3565688 0.7098688 0.0000000
0.4229714 0.7093214 0.0000000
0.4893739 0.7087739 0.0000000
0.5557765 0.7082265 0.0000000
0.6221790 0.7076790 0.0000000
0.6885816 0.7071316 0.0000000
0.7549842 0.7065842 0.0000000
0.8213867 0.7060367 0.0000000
0.8877893 0.7054893 0.0000000
0.9541918 0.7049418 0.0000000
1.0000000 0.7043944 0.0000000
1.0000000 0.7038469 0.0000000
0.0227144 0.7777144 0.0000000
0.0891170 0.7771670 0.0000000
0.1555195 0.7766195 0.0000000
0.2219221 0.7760721 0.0000000
0.2883246 0.7755246 0.0000000
0.3547272 0.7749772 0.0000000
0.4211297 0.7744297 0.0000000
0.4875323 0.7738823 0.0000000
0.5539348 0.7733348 0.0000000
0.6203374 0.7727874 0.0000000
0.6867400 0.7722400 0.0000000
0.7531425 0.7716925 0.0000000
0.8195451 0.7711451 0.0000000
0.8859476 0.7705976 0.0000000
0.9523502 0.7700502 0.0000000
1.0000000 0.7695027 0.0000000
1.0000000 0.7689553 0.0000000
0.0208728 0.8428228 0.0000000
0.0872753 0.8422753 0.0000000
0.1536779 0.8417279 0.0000000
0.2200804 0.8411804 0.0000000
0.2864830 0.8406330 0.0000000
0.3528855 0.8400855 0.0000000
0.4192881 0.8395381 0.0000000
0.4856907 0.8389907 0.0000000
0.5520932 0.8384432 0.0000000
0.6184958 0.8378958 0.0000000
0.6848983 0.8373483 0.0000000
0.7513009 0.8368009 0.0000000
0.8177034 0.8362534 0.0000000
0.8841060 0.8357060 0.0000000
0.9505085 0.8351585 0.0000000
1.0000000 0.8346111 0.0000000
1.0000000 0.8340636 0.0000000
0.0190311 0.9079311 0.0000000
0.0854337 0.9073837 0.0000000
0.1518362 0.9068362 0.0000000
0.2182388 0.9062888 0.0000000
0.2846413 0.9057413 0.0000000
0.3510439 0.9051939 0.0000000
0.4174465 0.9046465 0.0000000
0.4838490 0.9040990 0.0000000
0.5502516 0.9035516 0.0000000
0.6166541 0.9030041 0.0000000
0.6830567 0.9024567 0.0000000
0.7494592 0.9019092 0.0000000
0.8158618 0.9013618 0.0000000
0.8822643 0.9008143 0.0000000
0.9486669 0.9002669 0.0000000
1.0000000 0.8997195 0.0000000
1.0000000 0.8991720 0.0000000
0.0171895 0.9730395 0.0000000
0.0835920 0.9724920 0.0000000
0.1499946 0.9719446 0.0000000
0.2163972 0.9713972 0.0000000
0.2827997 0.9708497 0.0000000
0.3492023 0.9703023 0.0000000
0.4156048 0.9697548 0.0000000
0.4820074 0.9692074 0.0000000
0.5484099 0.9686599 0.0000000
0.6148125 0.9681125 0.0000000
0.6812150 0.9675650 0.0000000
0.7476176 0.9670176 0.0000000
0.8140201 0.9664701 0.0000000
0.8804227 0.9659227 0.0000000
0.9468253 0.9653753 0.0000000
1.0000000 0.9648278 0.0000000
1.0000000 0.9642804 0.0000000
0.0153478 1.0000000 0.0000000
0.0817504 1.0000000 0.0000000
0.1481530 1.0000000 0.0000000
0.2145555 1.0000000 0.0000000
0.2809581 1.0000000 0.0000000
0.3473606 1.0000000 0.0000000
0.4137632 1.0000000 0.0000000
0.4801657 1.0000000 0.0000000
0.5465683 1.0000000 0.0000000
0.6129708 1.0000000 0.0000000
0.6793734 1.0000000 0.0000000
0.7457760 1.0000000 0.0000000
0.8121785 1.0000000 0.0000000
0.8785811 1.0000000 0.0000000
0.9449836 1.0000000 0.0000000
1.0000000 1.0000000 0.0000000
1.0000000 1.0000000 0.0000000
0.0446282 0.0000000 0.0685282
0.1110307 0.0000000 0.0679807
0.1774333 0.0000000 0.0674333
0.2438358 0.0000000 0.0668858
0.3102384 0.0000000 0.0663384
0.3766409 0.0000000 0.0657909
0.4430435 0.0000000 0.0652435
0.5094461 0.0000000 0.0646961
0.5758486 0.0000000 0.0641486
0.6422512 0.0000000 0.0636012
0.7086537 0.0000000 0.0630537
0.7750563 0.0000000 0.0625063
0.8414588 0.0000000 0.0619588
0.9078614 0.0000000 0.0614114
0.9742639 0.0000000 0.0608639
1.0000000 0.0000000 0.0603165
1.0000000 0.0000000 0.0597690
0.0427865 0.0613365 0.0666865
0.1091891 0.0607891 0.0661391
0.1755916 0.0602416 0.0655916
0.2419942 0.0596942 0.0650442
0.3083967 0.0591468 0.0644967
0.3747993 0.0585993 0.0639493
0.4412019 0.0580519 0.0634019
0.5076044 0.0575044 0.0628544
0.5740070 0.0569570 0.0623070
0.6404095 0.0564095 0.0617595
0.7068121 0.0558621 0.0612121
0.7732146 0.0553146 0.0606646
0.8396172 0.0547672 0.0601172
0.9060197 0.0542197 0.0595697
0.9724223 0.0536723 0.0590223
1.0000000 0.0531249 0.0584749
1.0000000 0.0525774 0.0579274
0.0409449 0.1264449 0.0648449
0.1073474 0.1258974 0.0642974
0.1737500 0.1253500 0.0637500
0.2401526 0.1248026 0.0632026
0.3065551 0.1242551 0.0626551
0.3729577 0.1237077 0.0621077
0.4393602 0.1231602 0.0615602
0.5057628 0.1226128 0.0610128
0.5721653 0.1220653 0.0604653
0.6385679 0.1215179 0.0599179
0.7049704 0.1209704 0.0593704
0.7713730 0.1204230 0.0588230
0.8377756 0.1198755 0.0582756
0.9041781 0.1193281 0.0577281
0.9705807 0.1187807 0.0571807
1.0000000 0.1182332 0.0566332
1.0000000 0.1176858 0.0560858
0.0391032 0.1915532 0.0630033
0.1055058 0.1910058 0.0624558
0.1719084 0.1904584 0.0619084
0.2383109 0.1899109 0.0613609
0.3047135 0.1893635 0.0608135
0.3711160 0.1888160 0.0602660
0.4375186 0.1882686 0.0597186
0.5039211 0.1877211 0.0591711
0.5703237 0.1871737 0.0586237
0.6367262 0.1866262 0.0580762
0.7031288 0.1860788 0.0575288
0.7695314 0.1855314 0.0569814
0.8359339 0.1849839 0.0564339
0.9023365 0.1844365 0.0558865
0.9687390 0.1838890 0.0553390
1.0000000 0.1833416 0.0547916
1.0000000 0.1827941 0.0542441
0.0372616 0.2566616 0.0611616
0.1036642 0.2561142 0.0606142
0.1700667 0.2555667 0.0600667
0.2364693 0.2550193 0.0595193
0.3028718 0.2544718 0.0589718
0.3692744 0.2539244 0.0584244
0.4356769 0.2533769 0.0578769
0.5020795 0.2528295 0.0573295
0.5684821 0.2522820 0.0567820
0.6348846 0.2517346 0.0562346
0.7012872 0.2511872 0.0556872
0.7676897 0.2506397 0.0551397
0.8340923 0.2500923 0.0545923
0.9004948 0.2495448 0.0540448
0.9668974 0.2489974 0.0534974
1.0000000 0.2484499 0.0529499
1.0000000 0.2479025 0.0524025
0.0354200 0.3217700 0.0593200
0.1018225 0.3212225 0.0587725
0.1682251 0.3206751 0.0582251
0.2346276 0.3201276 0.0576776
0.3010302 0.3195802 0.0571302
0.3674327 0.3190327 0.0565827
0.4338353 0.3184853 0.0560353
0.5002379 0.3179379 0.0554879
0.5666404 0.3173904 0.0549404
0.6330430 0.3168430 0.0543930
0.6994455 0.3162955 0.0538455
0.7658481 0.3157481 0.0532981
0.8322506 0.3152006 0.0527506
0.8986532 0.3146532 0.0522032
0.9650557 0.3141057 0.0516557
1.0000000 0.3135583 0.0511083
1.0000000 0.3130109 0.0505608
0.0335783 0.3868783 0.0574783
0.0999809 0.3863309 0.0569309
0.1663834 0.3857834 0.0563834
0.2327860 0.3852360 0.0558360
0.2991885 0.3846885 0.0552886
0.3655911 0.3841411 0.0547411
0.4319937 0.3835937 0.0541937
0.4983962 0.3830462 0.0536462
0.5647988 0.3824988 0.0530988
0.6312013 0.3819513 0.0525513
0.6976039 0.3814039 0.0520039
0.7640064 0.3808564 0.0514564
0.8304090 0.3803090 0.0509090
0.8968115 0.3797615 0.0503615
0.9632141 0.3792141 0.0498141
1.0000000 0.3786667 0.0492667
1.0000000 0.3781192 0.0487192
0.0317367 0.4519867 0.0556367
0.0981392 0.4514392 0.0550892
0.1645418 0.4508918 0.0545418
0.2309444 0.4503444 0.0539944
0.2973469 0.4497969 0.0534469
0.3637495 0.4492495 0.0528995
0.4301520 0.4487020 0.0523520
0.4965546 0.4481546 0.0518046
0.5629571 0.4476071 0.0512571
0.6293597 0.4470597 0.0507097
0.6957622 0.4465122 0.0501622
0.7621648 0.4459648 0.0496148
0.8285674 0.4454173 0.0490674
0.8949699 0.4448699 0.0485199
0.9613725 0.4443225 0.0479725
1.0000000 0.4437750 0.0474250
1.0000000 0.4432276 0.0468776
0.0298950 0.5170951 0.0537950
0.0962976 0.5165476 0.0532476
0.1627002 0.5160002 0.0527002
0.2291027 0.5154527 0.0521527
0.2955053 0.5149053 0.0516053
0.3619078 0.5143578 0.0510578
0.4283104 0.5138104 0.0505104
0.4947129 0.5132629 0.0499629
0.5611155 0.5127155 0.0494155
0.6275180 0.5121680 0.0488680
0.6939206 0.5116206 0.0483206
0.7603232 0.5110732 0.0477732
0.8267257 0.5105257 0.0472257
0.8931283 0.5099783 0.0466783
0.9595308 0.5094308 0.0461308
1.0000000 0.5088834 0.0455834
1.0000000 0.5083359 0.0450359
0.0280534 0.5822034 0.0519534
0.0944560 0.5816560 0.0514060
0.1608585 0.5811085 0.0508585
0.2272611 0.5805611 0.0503111
0.2936636 0.5800136 0.0497636
0.3600662 0.5794662 0.0492162
0.4264687 0.5789187 0.0486687
0.4928713 0.5783713 0.0481213
0.5592738 0.5778239 0.0475738
0.6256764 0.5772764 0.0470264
0.6920790 0.5767290 0.0464790
0.7584815 0.5761815 0.0459315
0.8248841 0.5756341 0.0453841
0.8912866 0.5750866 0.0448366
0.9576892 0.5745392 0.0442892
1.0000000 0.5739917 0.0437417
1.0000000 0.5734443 0.0431943
0.0262118 0.6473118 0.0501118
0.0926143 0.6467643 0.0495643
0.1590169 0.6462169 0.0490169
0.2254194 0.6456694 0.0484694
0.2918220 0.6451220 0.0479220
0.3582245 0.6445745 0.0473745
0.4246271 0.6440271 0.0468271
0.4910297 0.6434797 0.0462797
0.5574322 0.6429322 0.0457322
0.6238348 0.6423848 0.0451848
0.6902373 0.6418373 0.0446373
0.7566399 0.6412899 0.0440899
0.8230424 0.6407424 0.0435424
0.8894450 0.6401950 0.0429950
0.9558475 0.6396475 0.0424475
1.0000000 0.6391001 0.0419001
1.0000000 0.6385527 0.0413526
0.0243701 0.7124201 0.0482701
0.0907727 0.7118727 0.0477227
0.1571752 0.7113252 0.0471752
0.2235778 0.7107778 0.0466278
0.2899803 0.7102304 0.0460803
0.3563829 0.7096829 0.0455329
0.4227855 0.7091355 0.0449855
0.4891880 0.7085880 0.0444380
0.5555906 0.7080406 0.0438906
0.6219931 0.7074931 0.0433431
0.6883957 0.7069457 0.0427957
0.7547982 0.7063982 0.0422482
0.8212008 0.7058508 0.0417008
0.8876033 0.7053033 0.0411533
0.9540059 0.7047559 0.0406059
1.0000000 0.7042085 0.0400585
1.0000000 0.7036610 0.0395110
0.0225285 0.7775285 0.0464285
0.0889310 0.7769810 0.0458810
0.1553336 0.7764336 0.0453336
0.2217362 0.7758862 0.0447862
0.2881387 0.7753387 0.0442387
0.3545413 0.7747913 0.0436913
0.4209438 0.7742438 0.0431438
0.4873464 0.7736964 0.0425964
0.5537489 0.7731489 0.0420489
0.6201515 0.7726015 0.0415015
