android/app/src/main/assets/luts/Warm%20Tone.cube
TITLE "MirrorBridge Warm Tone"
# Generated by scripts/generate_luts.py with {"contrast": 1.03, "lift": 0.005, "saturation": 1.04, "temperature": 0.055}
LUT_3D_SIZE 5
DOMAIN_MIN 0.0 0.0 0.0
DOMAIN_MAX 1.0 1.0 1.0
0.0450000 0.0000000 0.0000000
0.3106102 0.0000000 0.0000000
0.5762204 0.0000000 0.0000000
0.8418307 0.0000000 0.0000000
1.0000000 0.0000000 0.0000000
0.0376334 0.2570334 0.0000000
0.3032437 0.2548437 0.0000000
0.5688539 0.2526539 0.0000000
0.8344641 0.2504641 0.0000000
1.0000000 0.2482743 0.0000000
0.0302669 0.5174669 0.0000000
0.2958771 0.5152771 0.0000000
0.5614873 0.5130873 0.0000000
0.8270975 0.5108975 0.0000000
1.0000000 0.5087078 0.0000000
0.0229003 0.7779003 0.0000000
0.2885105 0.7757105 0.0000000
0.5541208 0.7735208 0.0000000
0.8197310 0.7713310 0.0000000
1.0000000 0.7691412 0.0000000
0.0155338 1.0000000 0.0000000
0.2811440 1.0000000 0.0000000
0.5467542 1.0000000 0.0000000
0.8123644 1.0000000 0.0000000
1.0000000 1.0000000 0.0000000
0.0442563 0.0000000 0.2020563
0.3098666 0.0000000 0.1998666
0.5754768 0.0000000 0.1976768
0.8410870 0.0000000 0.1954870
1.0000000 0.0000000 0.1932972
0.0368898 0.2562898 0.1946898
0.3025000 0.2541000 0.1925000
0.5681102 0.2519102 0.1903102
0.8337204 0.2497204 0.1881204
1.0000000 0.2475307 0.1859307
0.0295232 0.5167232 0.1873232
0.2951334 0.5145334 0.1851334
0.5607437 0.5123437 0.1829437
0.8263539 0.5101539 0.1807539
1.0000000 0.5079641 0.1785641
0.0221567 0.7771567 0.1799567
0.2877669 0.7749669 0.1777669
0.5533771 0.7727771 0.1755771
0.8189873 0.7705873 0.1733873
1.0000000 0.7683975 0.1711975
0.0147901 1.0000000 0.1725901
0.2804003 1.0000000 0.1704003
0.5460105 1.0000000 0.1682105
0.8116208 1.0000000 0.1660208
1.0000000 1.0000000 0.1638310
0.0435127 0.0000000 0.4691127
0.3091229 0.0000000 0.4669229
0.5747331 0.0000000 0.4647331
0.8403433 0.0000000 0.4625433
1.0000000 0.0000000 0.4603536
0.0361461 0.2555461 0.4617461
0.3017563 0.2533563 0.4595563
0.5673666 0.2511666 0.4573666
0.8329768 0.2489768 0.4551768
1.0000000 0.2467870 0.4529870
0.0287796 0.5159796 0.4543796
0.2943898 0.5137898 0.4521898
0.5600000 0.5116000 0.4500000
0.8256102 0.5094102 0.4478102
1.0000000 0.5072204 0.4456204
0.0214130 0.7764130 0.4470130
0.2870232 0.7742232 0.4448232
0.5526334 0.7720334 0.4426334
0.8182437 0.7698437 0.4404437
1.0000000 0.7676539 0.4382539
0.0140464 1.0000000 0.4396464
0.2796567 1.0000000 0.4374567
0.5452669 1.0000000 0.4352669
0.8108771 1.0000000 0.4330771
1.0000000 1.0000000 0.4308873
0.0427690 0.0000000 0.7361690
0.3083792 0.0000000 0.7339792
0.5739895 0.0000000 0.7317895
0.8395997 0.0000000 0.7295997
1.0000000 0.0000000 0.7274099
0.0354025 0.2548025 0.7288025
0.3010127 0.2526127 0.7266127
0.5666229 0.2504229 0.7244229
0.8322331 0.2482331 0.7222331
1.0000000 0.2460433 0.7200433
0.0280359 0.5152359 0.7214359
0.2936461 0.5130461 0.7192461
0.5592563 0.5108563 0.7170563
0.8248666 0.5086666 0.7148666
1.0000000 0.5064768 0.7126768
0.0206693 0.7756693 0.7140693
0.2862796 0.7734796 0.7118796
0.5518898 0.7712898 0.7096898
0.8175000 0.7691000 0.7075000
1.0000000 0.7669102 0.7053102
0.0133028 1.0000000 0.7067028
0.2789130 1.0000000 0.7045130
0.5445232 1.0000000 0.7023232
0.8101334 1.0000000 0.7001334
1.0000000 1.0000000 0.6979437
0.0420254 0.0000000 1.0000000
0.3076356 0.0000000 1.0000000
0.5732458 0.0000000 0.9988458
0.8388560 0.0000000 0.9966560
1.0000000 0.0000000 0.9944662
0.0346588 0.2540588 0.9958588
0.3002690 0.2518690 0.9936690
0.5658792 0.2496792 0.9914792
0.8314895 0.2474895 0.9892895
1.0000000 0.2452997 0.9870997
0.0272922 0.5144922 0.9884922
0.2929025 0.5123025 0.9863025
0.5585127 0.5101127 0.9841127
0.8241229 0.5079229 0.9819229
1.0000000 0.5057331 0.9797331
0.0199257 0.7749257 0.9811257
0.2855359 0.7727359 0.9789359
0.5511461 0.7705461 0.9767461
0.8167563 0.7683563 0.9745563
1.0000000 0.7661666 0.9723666
0.0125591 1.0000000 0.9737591
0.2781693 1.0000000 0.9715693
0.5437796 1.0000000 0.9693796
0.8093898 1.0000000 0.9671898
1.0000000 1.0000000 0.9650000
