android/app/src/main/assets/luts/Warm%20Tone.cube
TITLE "MirrorBridge Warm Tone"
# Generated by scripts/generate_luts.py with {"contrast": 1.03, "lift": 0.005, "saturation": 1.04, "temperature": 0.055}
LUT_3D_SIZE 9
DOMAIN_MIN 0.0 0.0 0.0
DOMAIN_MAX 1.0 1.0 1.0
0.0450000 0.0000000 0.0000000
0.1778051 0.0000000 0.0000000
0.3106102 0.0000000 0.0000000
0.4434153 0.0000000 0.0000000
0.5762204 0.0000000 0.0000000
0.7090256 0.0000000 0.0000000
0.8418307 0.0000000 0.0000000
0.9746358 0.0000000 0.0000000
1.0000000 0.0000000 0.0000000
0.0413167 0.1268167 0.0000000
0.1741218 0.1257218 0.0000000
0.3069269 0.1246269 0.0000000
0.4397320 0.1235320 0.0000000
0.5725372 0.1224372 0.0000000
0.7053423 0.1213423 0.0000000
0.8381474 0.1202474 0.0000000
0.9709525 0.1191525 0.0000000
1.0000000 0.1180576 0.0000000
0.0376334 0.2570334 0.0000000
0.1704386 0.2559385 0.0000000
0.3032437 0.2548437 0.0000000
0.4360488 0.2537488 0.0000000
0.5688539 0.2526539 0.0000000
0.7016590 0.2515590 0.0000000
0.8344641 0.2504641 0.0000000
0.9672692 0.2493692 0.0000000
1.0000000 0.2482743 0.0000000
0.0339502 0.3872502 0.0000000
0.1667553 0.3861553 0.0000000
0.2995604 0.3850604 0.0000000
0.4323655 0.3839655 0.0000000
0.5651706 0.3828706 0.0000000
0.6979757 0.3817757 0.0000000
0.8307808 0.3806808 0.0000000
0.9635859 0.3795859 0.0000000
1.0000000 0.3784910 0.0000000
0.0302669 0.5174669 0.0000000
0.1630720 0.5163720 0.0000000
0.2958771 0.5152771 0.0000000
0.4286822 0.5141822 0.0000000
0.5614873 0.5130873 0.0000000
0.6942924 0.5119924 0.0000000
0.8270975 0.5108975 0.0000000
0.9599027 0.5098027 0.0000000
1.0000000 0.5087078 0.0000000
0.0265836 0.6476836 0.0000000
0.1593887 0.6465887 0.0000000
0.2921938 0.6454938 0.0000000
0.4249989 0.6443989 0.0000000
0.5578040 0.6433040 0.0000000
0.6906092 0.6422092 0.0000000
0.8234143 0.6411143 0.0000000
0.9562194 0.6400194 0.0000000
1.0000000 0.6389245 0.0000000
0.0229003 0.7779003 0.0000000
0.1557054 0.7768054 0.0000000
0.2885105 0.7757105 0.0000000
0.4213156 0.7746157 0.0000000
0.5541208 0.7735208 0.0000000
0.6869259 0.7724259 0.0000000
0.8197310 0.7713310 0.0000000
0.9525361 0.7702361 0.0000000
1.0000000 0.7691412 0.0000000
0.0192170 0.9081170 0.0000000
0.1520222 0.9070222 0.0000000
0.2848273 0.9059273 0.0000000
0.4176324 0.9048324 0.0000000
0.5504375 0.9037375 0.0000000
0.6832426 0.9026426 0.0000000
0.8160477 0.9015477 0.0000000
0.9488528 0.9004528 0.0000000
1.0000000 0.8993579 0.0000000
0.0155338 1.0000000 0.0000000
0.1483389 1.0000000 0.0000000
0.2811440 1.0000000 0.0000000
0.4139491 1.0000000 0.0000000
0.5467542 1.0000000 0.0000000
0.6795593 1.0000000 0.0000000
0.8123644 1.0000000 0.0000000
0.9451695 1.0000000 0.0000000
1.0000000 1.0000000 0.0000000
0.0446282 0.0000000 0.0685282
0.1774333 0.0000000 0.0674333
0.3102384 0.0000000 0.0663384
0.4430435 0.0000000 0.0652435
0.5758486 0.0000000 0.0641486
0.7086537 0.0000000 0.0630537
0.8414588 0.0000000 0.0619588
0.9742639 0.0000000 0.0608639
1.0000000 0.0000000 0.0597690
0.0409449 0.1264449 0.0648449
0.1737500 0.1253500 0.0637500
0.3065551 0.1242551 0.0626551
0.4393602 0.1231602 0.0615602
0.5721653 0.1220653 0.0604653
0.7049704 0.1209704 0.0593704
0.8377756 0.1198755 0.0582756
0.9705807 0.1187807 0.0571807
1.0000000 0.1176858 0.0560858
0.0372616 0.2566616 0.0611616
0.1700667 0.2555667 0.0600667
0.3028718 0.2544718 0.0589718
0.4356769 0.2533769 0.0578769
0.5684821 0.2522820 0.0567820
0.7012872 0.2511872 0.0556872
0.8340923 0.2500923 0.0545923
0.9668974 0.2489974 0.0534974
1.0000000 0.2479025 0.0524025
0.0335783 0.3868783 0.0574783
0.1663834 0.3857834 0.0563834
0.2991885 0.3846885 0.0552886
0.4319937 0.3835937 0.0541937
0.5647988 0.3824988 0.0530988
0.6976039 0.3814039 0.0520039
0.8304090 0.3803090 0.0509090
0.9632141 0.3792141 0.0498141
1.0000000 0.3781192 0.0487192
0.0298950 0.5170951 0.0537950
0.1627002 0.5160002 0.0527002
0.2955053 0.5149053 0.0516053
0.4283104 0.5138104 0.0505104
0.5611155 0.5127155 0.0494155
0.6939206 0.5116206 0.0483206
0.8267257 0.5105257 0.0472257
0.9595308 0.5094308 0.0461308
1.0000000 0.5083359 0.0450359
0.0262118 0.6473118 0.0501118
0.1590169 0.6462169 0.0490169
0.2918220 0.6451220 0.0479220
0.4246271 0.6440271 0.0468271
0.5574322 0.6429322 0.0457322
0.6902373 0.6418373 0.0446373
0.8230424 0.6407424 0.0435424
0.9558475 0.6396475 0.0424475
1.0000000 0.6385527 0.0413526
0.0225285 0.7775285 0.0464285
0.1553336 0.7764336 0.0453336
0.2881387 0.7753387 0.0442387
0.4209438 0.7742438 0.0431438
0.5537489 0.7731489 0.0420489
0.6865540 0.7720540 0.0409540
0.8193592 0.7709592 0.0398592
0.9521643 0.7698643 0.0387643
1.0000000 0.7687694 0.0376694
0.0188452 0.9077452 0.0427452
0.1516503 0.9066503 0.0416503
0.2844554 0.9055554 0.0405554
0.4172605 0.9044605 0.0394605
0.5500656 0.9033657 0.0383656
0.6828708 0.9022708 0.0372708
0.8156759 0.9011759 0.0361759
0.9484810 0.9000810 0.0350810
1.0000000 0.8989861 0.0339861
0.0151619 1.0000000 0.0390619
0.1479670 1.0000000 0.0379670
0.2807721 1.0000000 0.0368722
0.4135773 1.0000000 0.0357773
0.5463824 1.0000000 0.0346824
0.6791875 1.0000000 0.0335875
0.8119926 1.0000000 0.0324926
0.9447977 1.0000000 0.0313977
1.0000000 1.0000000 0.0303028
0.0442563 0.0000000 0.2020563
0.1770615 0.0000000 0.2009614
0.3098666 0.0000000 0.1998666
0.4426717 0.0000000 0.1987717
0.5754768 0.0000000 0.1976768
0.7082819 0.0000000 0.1965819
0.8410870 0.0000000 0.1954870
0.9738921 0.0000000 0.1943921
1.0000000 0.0000000 0.1932972
0.0405731 0.1260731 0.1983731
0.1733782 0.1249782 0.1972782
0.3061833 0.1238833 0.1961833
0.4389884 0.1227884 0.1950884
0.5717935 0.1216935 0.1939935
0.7045986 0.1205986 0.1928986
0.8374037 0.1195037 0.1918037
0.9702088 0.1184088 0.1907088
1.0000000 0.1173139 0.1896139
0.0368898 0.2562898 0.1946898
0.1696949 0.2551949 0.1935949
0.3025000 0.2541000 0.1925000
0.4353051 0.2530051 0.1914051
0.5681102 0.2519102 0.1903102
0.7009153 0.2508153 0.1892153
0.8337204 0.2497204 0.1881204
0.9665256 0.2486255 0.1870255
1.0000000 0.2475307 0.1859307
0.0332065 0.3865065 0.1910065
0.1660116 0.3854116 0.1899116
0.2988167 0.3843167 0.1888167
0.4316218 0.3832218 0.1877218
0.5644269 0.3821269 0.1866269
0.6972320 0.3810321 0.1855321
0.8300372 0.3799372 0.1844372
0.9628423 0.3788423 0.1833423
1.0000000 0.3777474 0.1822474
0.0295232 0.5167232 0.1873232
0.1623283 0.5156283 0.1862283
0.2951334 0.5145334 0.1851334
0.4279386 0.5134386 0.1840386
0.5607437 0.5123437 0.1829437
0.6935488 0.5112488 0.1818488
0.8263539 0.5101539 0.1807539
0.9591590 0.5090590 0.1796590
1.0000000 0.5079641 0.1785641
0.0258399 0.6469399 0.1836399
0.1586450 0.6458451 0.1825450
0.2914502 0.6447502 0.1814502
0.4242553 0.6436553 0.1803553
0.5570604 0.6425604 0.1792604
0.6898655 0.6414655 0.1781655
0.8226706 0.6403706 0.1770706
0.9554757 0.6392757 0.1759757
1.0000000 0.6381808 0.1748808
0.0221567 0.7771567 0.1799567
0.1549618 0.7760618 0.1788618
0.2877669 0.7749669 0.1777669
0.4205720 0.7738720 0.1766720
0.5533771 0.7727771 0.1755771
0.6861822 0.7716822 0.1744822
0.8189873 0.7705873 0.1733873
0.9517924 0.7694924 0.1722924
1.0000000 0.7683975 0.1711975
0.0184734 0.9073734 0.1762734
0.1512785 0.9062785 0.1751785
0.2840836 0.9051836 0.1740836
0.4168887 0.9040887 0.1729887
0.5496938 0.9029938 0.1718938
0.6824989 0.9018989 0.1707989
0.8153040 0.9008040 0.1697040
0.9481092 0.8997092 0.1686092
1.0000000 0.8986143 0.1675143
0.0147901 1.0000000 0.1725901
0.1475952 1.0000000 0.1714952
0.2804003 1.0000000 0.1704003
0.4132054 1.0000000 0.1693054
0.5460105 1.0000000 0.1682105
0.6788156 1.0000000 0.1671156
0.8116208 1.0000000 0.1660208
0.9444259 1.0000000 0.1649259
1.0000000 1.0000000 0.1638310
0.0438845 0.0000000 0.3355845
0.1766896 0.0000000 0.3344896
0.3094947 0.0000000 0.3333947
0.4422998 0.0000000 0.3322998
0.5751050 0.0000000 0.3312050
0.7079101 0.0000000 0.3301101
0.8407152 0.0000000 0.3290152
0.9735203 0.0000000 0.3279203
1.0000000 0.0000000 0.3268254
0.0402012 0.1257012 0.3319012
0.1730063 0.1246063 0.3308063
0.3058114 0.1235114 0.3297114
0.4386166 0.1224166 0.3286166
0.5714217 0.1213217 0.3275217
0.7042268 0.1202268 0.3264268
0.8370319 0.1191319 0.3253319
0.9698370 0.1180370 0.3242370
1.0000000 0.1169421 0.3231421
0.0365179 0.2559180 0.3282180
0.1693231 0.2548231 0.3271231
0.3021282 0.2537282 0.3260282
0.4349333 0.2526333 0.3249333
0.5677384 0.2515384 0.3238384
0.7005435 0.2504435 0.3227435
0.8333486 0.2493486 0.3216486
0.9661537 0.2482537 0.3205537
1.0000000 0.2471588 0.3194588
0.0328347 0.3861347 0.3245347
0.1656398 0.3850398 0.3234398
0.2984449 0.3839449 0.3223449
0.4312500 0.3828500 0.3212500
0.5640551 0.3817551 0.3201551
0.6968602 0.3806602 0.3190602
0.8296653 0.3795653 0.3179653
0.9624704 0.3784704 0.3168704
1.0000000 0.3773755 0.3157755
0.0291514 0.5163514 0.3208514
0.1619565 0.5152565 0.3197565
0.2947616 0.5141616 0.3186616
0.4275667 0.5130667 0.3175667
0.5603718 0.5119718 0.3164718
0.6931769 0.5108769 0.3153769
0.8259821 0.5097820 0.3142820
0.9587872 0.5086872 0.3131872
1.0000000 0.5075923 0.3120923
0.0254681 0.6465681 0.3171681
0.1582732 0.6454732 0.3160732
0.2910783 0.6443783 0.3149783
0.4238834 0.6432834 0.3138834
0.5566886 0.6421886 0.3127885
0.6894937 0.6410937 0.3116937
0.8222988 0.6399988 0.3105988
0.9551039 0.6389039 0.3095039
1.0000000 0.6378090 0.3084090
0.0217848 0.7767848 0.3134848
0.1545899 0.7756899 0.3123899
0.2873950 0.7745951 0.3112950
0.4202002 0.7735002 0.3102002
0.5530053 0.7724053 0.3091053
0.6858104 0.7713104 0.3080104
0.8186155 0.7702155 0.3069155
0.9514206 0.7691206 0.3058206
1.0000000 0.7680257 0.3047257
0.0181015 0.9070016 0.3098016
0.1509067 0.9059067 0.3087067
0.2837118 0.9048118 0.3076118
0.4165169 0.9037169 0.3065169
0.5493220 0.9026220 0.3054220
0.6821271 0.9015271 0.3043271
0.8149322 0.9004322 0.3032322
0.9477373 0.8993373 0.3021373
1.0000000 0.8982424 0.3010424
0.0144183 1.0000000 0.3061183
0.1472234 1.0000000 0.3050234
0.2800285 1.0000000 0.3039285
0.4128336 1.0000000 0.3028336
0.5456387 1.0000000 0.3017387
0.6784438 1.0000000 0.3006438
0.8112489 1.0000000 0.2995489
0.9440540 1.0000000 0.2984540
1.0000000 1.0000000 0.2973592
0.0435127 0.0000000 0.4691127
0.1763178 0.0000000 0.4680178
0.3091229 0.0000000 0.4669229
0.4419280 0.0000000 0.4658280
0.5747331 0.0000000 0.4647331
0.7075382 0.0000000 0.4636382
0.8403433 0.0000000 0.4625433
0.9731485 0.0000000 0.4614484
1.0000000 0.0000000 0.4603536
0.0398294 0.1253294 0.4654294
0.1726345 0.1242345 0.4643345
0.3054396 0.1231396 0.4632396
0.4382447 0.1220447 0.4621447
0.5710498 0.1209498 0.4610498
0.7038550 0.1198550 0.4599550
0.8366601 0.1187601 0.4588601
0.9694652 0.1176652 0.4577652
1.0000000 0.1165703 0.4566703
0.0361461 0.2555461 0.4617461
0.1689512 0.2544512 0.4606512
0.3017563 0.2533563 0.4595563
0.4345614 0.2522614 0.4584614
0.5673666 0.2511666 0.4573666
0.7001717 0.2500717 0.4562717
0.8329768 0.2489768 0.4551768
0.9657819 0.2478819 0.4540819
1.0000000 0.2467870 0.4529870
0.0324628 0.3857628 0.4580628
0.1652679 0.3846680 0.4569680
0.2980731 0.3835731 0.4558731
0.4308782 0.3824782 0.4547782
0.5636833 0.3813833 0.4536833
0.6964884 0.3802884 0.4525884
0.8292935 0.3791935 0.4514935
0.9620986 0.3780986 0.4503986
1.0000000 0.3770037 0.4493037
0.0287796 0.5159796 0.4543796
0.1615847 0.5148847 0.4532847
0.2943898 0.5137898 0.4521898
0.4271949 0.5126949 0.4510949
0.5600000 0.5116000 0.4500000
0.6928051 0.5105051 0.4489051
0.8256102 0.5094102 0.4478102
0.9584153 0.5083153 0.4467153
1.0000000 0.5072204 0.4456204
0.0250963 0.6461963 0.4506963
0.1579014 0.6451014 0.4496014
0.2907065 0.6440065 0.4485065
0.4235116 0.6429116 0.4474116
0.5563167 0.6418167 0.4463167
0.6891218 0.6407218 0.4452218
0.8219269 0.6396269 0.4441269
0.9547321 0.6385321 0.4430321
1.0000000 0.6374372 0.4419372
0.0214130 0.7764130 0.4470130
0.1542181 0.7753181 0.4459181
0.2870232 0.7742232 0.4448232
0.4198283 0.7731283 0.4437283
0.5526334 0.7720334 0.4426334
0.6854386 0.7709386 0.4415386
0.8182437 0.7698437 0.4404437
0.9510488 0.7687488 0.4393488
1.0000000 0.7676539 0.4382539
0.0177297 0.9066297 0.4433297
0.1505348 0.9055348 0.4422348
0.2833399 0.9044399 0.4411399
0.4161450 0.9033450 0.4400450
0.5489502 0.9022502 0.4389502
0.6817553 0.9011553 0.4378553
0.8145604 0.9000604 0.4367604
0.9473655 0.8989655 0.4356655
1.0000000 0.8978706 0.4345706
0.0140464 1.0000000 0.4396464
0.1468515 1.0000000 0.4385516
0.2796567 1.0000000 0.4374567
0.4124618 1.0000000 0.4363618
0.5452669 1.0000000 0.4352669
0.6780720 1.0000000 0.4341720
0.8108771 1.0000000 0.4330771
0.9436822 1.0000000 0.4319822
1.0000000 1.0000000 0.4308873
0.0431408 0.0000000 0.6026409
0.1759460 0.0000000 0.6015460
0.3087511 0.0000000 0.6004511
0.4415562 0.0000000 0.5993562
0.5743613 0.0000000 0.5982613
0.7071664 0.0000000 0.5971664
0.8399715 0.0000000 0.5960715
0.9727766 0.0000000 0.5949766
1.0000000 0.0000000 0.5938817
0.0394576 0.1249576 0.5989576
0.1722627 0.1238627 0.5978627
0.3050678 0.1227678 0.5967678
0.4378729 0.1216729 0.5956729
0.5706780 0.1205780 0.5945780
0.7034831 0.1194831 0.5934831
0.8362882 0.1183882 0.5923882
0.9690933 0.1172933 0.5912933
1.0000000 0.1161984 0.5901984
0.0357743 0.2551743 0.5952743
0.1685794 0.2540794 0.5941794
0.3013845 0.2529845 0.5930845
0.4341896 0.2518896 0.5919896
0.5669947 0.2507947 0.5908947
0.6997998 0.2496998 0.5897998
0.8326050 0.2486049 0.5887050
0.9654101 0.2475101 0.5876101
1.0000000 0.2464152 0.5865152
0.0320910 0.3853910 0.5915910
0.1648961 0.3842961 0.5904961
0.2977012 0.3832012 0.5894012
0.4305063 0.3821063 0.5883063
0.5633115 0.3810114 0.5872114
0.6961166 0.3799166 0.5861166
0.8289217 0.3788217 0.5850217
0.9617268 0.3777268 0.5839268
1.0000000 0.3766319 0.5828319
0.0284077 0.5156077 0.5879077
0.1612128 0.5145128 0.5868128
0.2940179 0.5134180 0.5857180
0.4268231 0.5123231 0.5846231
0.5596282 0.5112282 0.5835282
0.6924333 0.5101333 0.5824333
0.8252384 0.5090384 0.5813384
0.9580435 0.5079435 0.5802435
1.0000000 0.5068486 0.5791486
0.0247244 0.6458244 0.5842244
0.1575296 0.6447296 0.5831296
0.2903347 0.6436347 0.5820347
0.4231398 0.6425398 0.5809398
0.5559449 0.6414449 0.5798449
0.6887500 0.6403500 0.5787500
0.8215551 0.6392551 0.5776551
0.9543602 0.6381602 0.5765602
1.0000000 0.6370653 0.5754653
0.0210412 0.7760412 0.5805412
0.1538463 0.7749463 0.5794463
0.2866514 0.7738514 0.5783514
0.4194565 0.7727565 0.5772565
0.5522616 0.7716616 0.5761616
0.6850667 0.7705667 0.5750667
0.8178718 0.7694718 0.5739718
0.9506769 0.7683769 0.5728769
1.0000000 0.7672821 0.5717820
0.0173579 0.9062579 0.5768579
0.1501630 0.9051630 0.5757630
0.2829681 0.9040681 0.5746681
0.4157732 0.9029732 0.5735732
0.5485783 0.9018783 0.5724783
0.6813834 0.9007834 0.5713834
0.8141886 0.8996886 0.5702886
0.9469937 0.8985937 0.5691937
1.0000000 0.8974988 0.5680988
0.0136746 1.0000000 0.5731746
0.1464797 1.0000000 0.5720797
0.2792848 1.0000000 0.5709848
0.4120899 1.0000000 0.5698899
0.5448951 1.0000000 0.5687950
0.6777002 1.0000000 0.5677002
0.8105053 1.0000000 0.5666053
0.9433104 1.0000000 0.5655104
1.0000000 1.0000000 0.5644155
0.0427690 0.0000000 0.7361690
0.1755741 0.0000000 0.7350741
0.3083792 0.0000000 0.7339792
0.4411844 0.0000000 0.7328843
0.5739895 0.0000000 0.7317895
0.7067946 0.0000000 0.7306946
0.8395997 0.0000000 0.7295997
0.9724048 0.0000000 0.7285048
1.0000000 0.0000000 0.7274099
0.0390857 0.1245857 0.7324857
0.1718908 0.1234908 0.7313909
0.3046960 0.1223960 0.7302960
0.4375011 0.1213011 0.7292011
0.5703062 0.1202062 0.7281062
0.7031113 0.1191113 0.7270113
0.8359164 0.1180164 0.7259164
0.9687215 0.1169215 0.7248215
1.0000000 0.1158266 0.7237266
0.0354025 0.2548025 0.7288025
0.1682076 0.2537076 0.7277076
0.3010127 0.2526127 0.7266127
0.4338178 0.2515178 0.7255178
0.5666229 0.2504229 0.7244229
0.6994280 0.2493280 0.7233280
0.8322331 0.2482331 0.7222331
0.9650382 0.2471382 0.7211382
1.0000000 0.2460433 0.7200433
0.0317192 0.3850192 0.7251192
0.1645243 0.3839243 0.7240243
0.2973294 0.3828294 0.7229294
0.4301345 0.3817345 0.7218345
0.5629396 0.3806396 0.7207396
0.6957447 0.3795447 0.7196447
0.8285498 0.3784498 0.7185498
0.9613550 0.3773550 0.7174550
1.0000000 0.3762601 0.7163601
0.0280359 0.5152359 0.7214359
0.1608410 0.5141410 0.7203410
0.2936461 0.5130461 0.7192461
0.4264512 0.5119512 0.7181512
0.5592563 0.5108563 0.7170563
0.6920614 0.5097615 0.7159614
0.8248666 0.5086666 0.7148666
0.9576717 0.5075717 0.7137717
1.0000000 0.5064768 0.7126768
0.0243526 0.6454526 0.7177526
0.1571577 0.6443577 0.7166577
0.2899628 0.6432628 0.7155628
0.4227680 0.6421680 0.7144679
0.5555731 0.6410731 0.7133731
0.6883782 0.6399782 0.7122782
0.8211833 0.6388833 0.7111833
0.9539884 0.6377884 0.7100884
1.0000000 0.6366935 0.7089935
0.0206693 0.7756693 0.7140693
0.1534744 0.7745745 0.7129744
0.2862796 0.7734796 0.7118796
0.4190847 0.7723847 0.7107847
0.5518898 0.7712898 0.7096898
0.6846949 0.7701949 0.7085949
0.8175000 0.7691000 0.7075000
0.9503051 0.7680051 0.7064051
1.0000000 0.7669102 0.7053102
0.0169861 0.9058861 0.7103861
0.1497912 0.9047912 0.7092912
0.2825963 0.9036963 0.7081963
0.4154014 0.9026014 0.7071014
0.5482065 0.9015065 0.7060065
0.6810116 0.9004116 0.7049116
0.8138167 0.8993167 0.7038167
0.9466218 0.8982218 0.7027218
1.0000000 0.8971269 0.7016269
0.0133028 1.0000000 0.7067028
0.1461079 1.0000000 0.7056079
0.2789130 1.0000000 0.7045130
0.4117181 1.0000000 0.7034181
0.5445232 1.0000000 0.7023232
0.6773283 1.0000000 0.7012283
0.8101334 1.0000000 0.7001334
0.9429386 1.0000000 0.6990386
1.0000000 1.0000000 0.6979437
0.0423972 0.0000000 0.8696972
0.1752023 0.0000000 0.8686023
0.3080074 0.0000000 0.8675074
0.4408125 0.0000000 0.8664125
0.5736176 0.0000000 0.8653176
0.7064227 0.0000000 0.8642227
0.8392278 0.0000000 0.8631278
0.9720330 0.0000000 0.8620330
1.0000000 0.0000000 0.8609381
0.0387139 0.1242139 0.8660139
0.1715190 0.1231190 0.8649190
0.3043241 0.1220241 0.8638241
0.4371292 0.1209292 0.8627292
0.5699344 0.1198343 0.8616343
0.7027395 0.1187395 0.8605395
0.8355446 0.1176446 0.8594446
0.9683497 0.1165497 0.8583497
1.0000000 0.1154548 0.8572548
0.0350306 0.2544306 0.8623306
0.1678357 0.2533357 0.8612357
0.3006409 0.2522409 0.8601409
0.4334460 0.2511460 0.8590460
0.5662511 0.2500511 0.8579511
0.6990562 0.2489562 0.8568562
0.8318613 0.2478613 0.8557613
0.9646664 0.2467664 0.8546664
1.0000000 0.2456715 0.8535715
0.0313473 0.3846473 0.8586474
0.1641525 0.3835525 0.8575525
0.2969576 0.3824576 0.8564576
0.4297627 0.3813627 0.8553627
0.5625678 0.3802678 0.8542678
0.6953729 0.3791729 0.8531729
0.8281780 0.3780780 0.8520780
0.9609831 0.3769831 0.8509831
1.0000000 0.3758882 0.8498882
0.0276641 0.5148641 0.8549641
0.1604692 0.5137692 0.8538692
0.2932743 0.5126743 0.8527743
0.4260794 0.5115794 0.8516794
0.5588845 0.5104845 0.8505845
0.6916896 0.5093896 0.8494896
0.8244947 0.5082947 0.8483947
0.9572998 0.5071998 0.8472998
1.0000000 0.5061049 0.8462049
0.0239808 0.6450808 0.8512808
0.1567859 0.6439859 0.8501859
0.2895910 0.6428910 0.8490910
0.4223961 0.6417961 0.8479961
0.5552012 0.6407012 0.8469012
0.6880063 0.6396063 0.8458063
0.8208115 0.6385114 0.8447114
0.9536166 0.6374166 0.8436166
1.0000000 0.6363217 0.8425217
0.0202975 0.7752975 0.8475975
0.1531026 0.7742026 0.8465026
0.2859077 0.7731077 0.8454077
0.4187128 0.7720128 0.8443128
0.5515180 0.7709180 0.8432179
0.6843231 0.7698231 0.8421231
0.8171282 0.7687282 0.8410282
0.9499333 0.7676333 0.8399333
1.0000000 0.7665384 0.8388384
0.0166142 0.9055142 0.8439142
0.1494193 0.9044193 0.8428193
0.2822244 0.9033244 0.8417244
0.4150296 0.9022296 0.8406296
0.5478347 0.9011347 0.8395347
0.6806398 0.9000398 0.8384398
0.8134449 0.8989449 0.8373449
0.9462500 0.8978500 0.8362500
1.0000000 0.8967551 0.8351551
0.0129309 1.0000000 0.8402310
0.1457361 1.0000000 0.8391361
0.2785412 1.0000000 0.8380412
0.4113463 1.0000000 0.8369463
0.5441514 1.0000000 0.8358514
0.6769565 1.0000000 0.8347565
0.8097616 1.0000000 0.8336616
0.9425667 1.0000000 0.8325667
1.0000000 1.0000000 0.8314718
0.0420254 0.0000000 1.0000000
0.1748305 0.0000000 1.0000000
0.3076356 0.0000000 1.0000000
0.4404407 0.0000000 0.9999407
0.5732458 0.0000000 0.9988458
0.7060509 0.0000000 0.9977509
0.8388560 0.0000000 0.9966560
0.9716611 0.0000000 0.9955611
1.0000000 0.0000000 0.9944662
0.0383421 0.1238421 0.9995421
0.1711472 0.1227472 0.9984472
0.3039523 0.1216523 0.9973523
0.4367574 0.1205574 0.9962574
0.5695625 0.1194625 0.9951625
0.7023676 0.1183676 0.9940676
0.8351727 0.1172727 0.9929727
0.9679779 0.1161778 0.9918778
1.0000000 0.1150830 0.9907830
0.0346588 0.2540588 0.9958588
0.1674639 0.2529639 0.9947639
0.3002690 0.2518690 0.9936690
0.4330741 0.2507741 0.9925741
0.5658792 0.2496792 0.9914792
0.6986844 0.2485844 0.9903843
0.8314895 0.2474895 0.9892895
0.9642946 0.2463946 0.9881946
1.0000000 0.2452997 0.9870997
0.0309755 0.3842755 0.9921755
0.1637806 0.3831806 0.9910806
0.2965857 0.3820857 0.9899857
0.4293908 0.3809908 0.9888908
0.5621960 0.3798960 0.9877960
0.6950011 0.3788011 0.9867011
0.8278062 0.3777062 0.9856062
0.9606113 0.3766113 0.9845113
1.0000000 0.3755164 0.9834164
0.0272922 0.5144922 0.9884922
0.1600973 0.5133974 0.9873973
0.2929025 0.5123025 0.9863025
0.4257076 0.5112076 0.9852076
0.5585127 0.5101127 0.9841127
0.6913178 0.5090178 0.9830178
0.8241229 0.5079229 0.9819229
0.9569280 0.5068280 0.9808280
1.0000000 0.5057331 0.9797331
0.0236090 0.6447090 0.9848090
0.1564141 0.6436141 0.9837141
0.2892192 0.6425192 0.9826192
0.4220243 0.6414243 0.9815243
0.5548294 0.6403294 0.9804294
0.6876345 0.6392345 0.9793345
0.8204396 0.6381396 0.9782396
0.9532447 0.6370447 0.9771447
1.0000000 0.6359498 0.9760498
0.0199257 0.7749257 0.9811257
0.1527308 0.7738308 0.9800308
0.2855359 0.7727359 0.9789359
0.4183410 0.7716410 0.9778410
0.5511461 0.7705461 0.9767461
0.6839512 0.7694512 0.9756512
0.8167563 0.7683563 0.9745563
0.9495615 0.7672615 0.9734614
1.0000000 0.7661666 0.9723666
0.0162424 0.9051424 0.9774424
0.1490475 0.9040475 0.9763475
0.2818526 0.9029526 0.9752526
0.4146577 0.9018577 0.9741577
0.5474628 0.9007628 0.9730628
0.6802680 0.8996680 0.9719679
0.8130731 0.8985731 0.9708731
0.9458782 0.8974782 0.9697782
1.0000000 0.8963833 0.9686833
0.0125591 1.0000000 0.9737591
0.1453642 1.0000000 0.9726642
0.2781693 1.0000000 0.9715693
0.4109744 1.0000000 0.9704744
0.5437796 1.0000000 0.9693796
0.6765847 1.0000000 0.9682847
0.8093898 1.0000000 0.9671898
0.9421949 1.0000000 0.9660949
1.0000000 1.0000000 0.9650000
